ref/imx226_3000K_jzazbz_203.cube
TITLE "4548717264"
LUT_3D_SIZE 9
0.0152516 -0.0013461 0.0031300
0.1414507 0.0046313 0.0056009
0.2642627 0.0037261 0.0058869
0.3831109 -0.0064157 0.0031990
0.4994769 -0.0227882 -0.0014783
0.6163229 -0.0384589 -0.0062780
0.7360144 -0.0482917 -0.0101191
0.8591024 -0.0514024 -0.0128944
0.9846897 -0.0496790 -0.0150540
0.0166425 0.1337006 0.0005048
0.1429422 0.1399531 0.0036762
0.2654451 0.1385744 0.0043535
0.3833593 0.1261804 0.0015570
0.4988084 0.1071751 -0.0032205
0.6153930 0.0906069 -0.0075235
0.7354036 0.0814889 -0.0106306
0.8591628 0.0799548 -0.0128507
0.9854364 0.0832897 -0.0147323
0.0131026 0.2568919 -0.0053657
0.1384829 0.2600255 -0.0026813
0.2601713 0.2559426 -0.0023454
0.3782524 0.2435869 -0.0045324
0.4950911 0.2278159 -0.0075601
0.6134371 0.2153301 -0.0096907
0.7351578 0.2100734 -0.0109139
0.8601501 0.2114171 -0.0120877
0.9871419 0.2166654 -0.0136587
0.0050917 0.3699087 -0.0143522
0.1289205 0.3675301 -0.0129861
0.2506239 0.3615618 -0.0125367
0.3708113 0.3535189 -0.0127984
0.4904242 0.3449394 -0.0130642
0.6117981 0.3397385 -0.0122599
0.7360001 0.3399124 -0.0112504
0.8624057 0.3443970 -0.0112574
0.9899157 0.3512021 -0.0125424
-0.0050618 0.4793985 -0.0244488
0.1177502 0.4730550 -0.0241614
0.2403493 0.4673127 -0.0233087
0.3626769 0.4635988 -0.0220246
0.4857884 0.4633092 -0.0195428
0.6109808 0.4664663 -0.0159420
0.7377522 0.4718685 -0.0130102
0.8654477 0.4790460 -0.0118841
0.9932382 0.4868101 -0.0126335
-0.0150949 0.5914833 -0.0338405
0.1066596 0.5828356 -0.0347825
0.2296062 0.5777611 -0.0344124
0.3543431 0.5787223 -0.0323995
0.4816023 0.5861189 -0.0279256
0.6104420 0.5957895 -0.0222259
0.7395339 0.6053150 -0.0175884
0.8682510 0.6143814 -0.0151031
0.9961531 0.6225026 -0.0147430
-0.0231025 0.7098442 -0.0414102
0.0973478 0.6998656 -0.0441300
0.2200433 0.6954284 -0.0453270
0.3467406 0.7000646 -0.0436082
0.4773425 0.7123445 -0.0381798
0.6093397 0.7265437 -0.0307536
0.7403851 0.7388877 -0.0243239
0.8698280 0.7488990 -0.0202060
0.9978003 0.7569531 -0.0183301
-0.0275899 0.8359071 -0.0460014
0.0924098 0.8263797 -0.0499837
0.2150147 0.8226662 -0.0525727
0.3424270 0.8284251 -0.0517220
0.4744161 0.8421628 -0.0463640
0.6078898 0.8579254 -0.0382924
0.7399120 0.8712123 -0.0307076
0.8697610 0.8814049 -0.0252396
0.9978646 0.8892914 -0.0219928
-0.0285611 0.9682061 -0.0469769
0.0921250 0.9606608 -0.0510206
0.2152347 0.9581579 -0.0537893
0.3425533 0.9634256 -0.0534705
0.4739095 0.9754068 -0.0490402
0.6067519 0.9895227 -0.0418206
0.7385181 1.0019542 -0.0344104
0.8683923 1.0118048 -0.0284873
0.9966250 1.0195216 -0.0244824
0.0122734 -0.0096127 0.1337862
0.1375163 -0.0063052 0.1359722
0.2592846 -0.0098527 0.1359068
0.3775000 -0.0211345 0.1330408
0.4937889 -0.0367430 0.1282820
0.6109124 -0.0505805 0.1232594
0.7312696 -0.0579989 0.1190881
0.8554083 -0.0583728 0.1161413
0.9821636 -0.0540483 0.1139821
0.0138390 0.1260818 0.1311848
0.1389661 0.1291175 0.1339044
0.2599623 0.1238962 0.1338760
0.3770963 0.1099563 0.1307680
0.4929094 0.0927091 0.1261363
0.6100241 0.0786528 0.1219379
0.7307987 0.0723871 0.1186474
0.8557217 0.0738973 0.1163318
0.9832200 0.0798302 0.1145960
0.0104728 0.2505024 0.1251624
0.1347990 0.2509423 0.1274460
0.2548585 0.2428745 0.1268145
0.3724584 0.2294419 0.1242826
0.4904611 0.2168191 0.1218318
0.6094900 0.2067644 0.1201108
0.7318048 0.2037044 0.1190222
0.8577626 0.2075332 0.1178713
0.9857601 0.2148116 0.1164294
0.0023616 0.3647451 0.1156119
0.1254658 0.3610863 0.1166914
0.2464835 0.3540108 0.1168282
0.3671474 0.3465795 0.1167744
0.4879506 0.3400655 0.1170024
0.6102609 0.3369900 0.1182609
0.7349623 0.3383327 0.1197602
0.8618594 0.3437753 0.1200729
0.9899322 0.3515618 0.1187661
-0.0081143 0.4749502 0.1047407
0.1145098 0.4689247 0.1049023
0.2373650 0.4644733 0.1062542
0.3603335 0.4617541 0.1079627
0.4848658 0.4632109 0.1107701
0.6114443 0.4683293 0.1151178
0.7389129 0.4743998 0.1189109
0.8669937 0.4818181 0.1205713
0.9949437 0.4896525 0.1196918
-0.0184478 0.5871398 0.0948727
0.1031698 0.5790828 0.0937029
0.2266864 0.5756825 0.0947294
0.3524496 0.5784181 0.0973623
0.4817452 0.5886004 0.1026880
0.6122287 0.5999951 0.1094115
0.7423574 0.6104573 0.1148006
0.8715265 0.6197583 0.1176675
0.9992738 0.6273562 0.1178802
-0.0264643 0.7056318 0.0874734
0.0933491 0.6953514 0.0840749
0.2161605 0.6916544 0.0830810
0.3442476 0.6984927 0.0855703
0.4774845 0.7144458 0.0921882
0.6118589 0.7314742 0.1010334
0.7442054 0.7451554 0.1081245
0.8739840 0.7552818 0.1124374
1.0015450 0.7624528 0.1142064
-0.0306082 0.8320939 0.0837515
0.0885316 0.8217681 0.0788511
0.2108912 0.8180526 0.0758837
0.3395319 0.8255591 0.0772090
0.4742181 0.8429320 0.0836939
0.6103838 0.8620587 0.0932501
0.7437651 0.8767684 0.1016823
0.8737677 0.8868679 0.1074170
1.0013649 0.8938598 0.1106261
-0.0310939 0.9646987 0.0840257
0.0889162 0.9564711 0.0792718
0.2117392 0.9537602 0.0758915
0.3399796 0.9602881 0.0761900
0.4735213 0.9750081 0.0813861
0.6085905 0.9916969 0.0898215
0.7414961 1.0052429 0.0981604
0.8714674 1.0150257 0.1044804
0.9993416 1.0222647 0.1084849
0.0067396 -0.0244947 0.2631773
0.1306329 -0.0252749 0.2647421
0.2512437 -0.0322056 0.2643985
0.3692919 -0.0437806 0.2618960
0.4865949 -0.0560996 0.2577915
0.6053446 -0.0648802 0.2530407
0.7273288 -0.0674374 0.2486354
0.8528081 -0.0640116 0.2453193
0.9806123 -0.0569373 0.2428646
0.0086824 0.1125392 0.2602229
0.1322684 0.1110948 0.2619452
0.2518880 0.1019014 0.2614435
0.3690376 0.0879782 0.2588103
0.4864312 0.0752565 0.2552326
0.6054690 0.0670471 0.2516241
0.7277465 0.0655710 0.2480206
0.8538560 0.0706243 0.2452620
0.9822032 0.0787230 0.2433476
0.0061696 0.2400317 0.2543994
0.1290834 0.2368533 0.2557264
0.2483688 0.2267290 0.2548817
0.3665606 0.2145552 0.2529443
0.4863392 0.2061643 0.2512255
0.6075491 0.2017217 0.2499054
0.7305718 0.2013187 0.2485671
0.8571284 0.2073138 0.2469938
0.9855440 0.2156631 0.2454220
-0.0008306 0.3584743 0.2455345
0.1217390 0.3540496 0.2463658
0.2423506 0.3465132 0.2462878
0.3636965 0.3404250 0.2463983
0.4864429 0.3374065 0.2470386
0.6105800 0.3380410 0.2479410
0.7359404 0.3410405 0.2493413
0.8627972 0.3466161 0.2497643
0.9907831 0.3541517 0.2485085
-0.0103249 0.4725782 0.2352958
0.1126518 0.4684762 0.2357999
0.2354460 0.4648740 0.2372197
0.3593410 0.4635931 0.2390835
0.4856471 0.4669777 0.2419054
0.6131863 0.4730654 0.2452789
0.7413478 0.4801391 0.2487533
0.8694009 0.4869641 0.2508835
0.9970079 0.4937294 0.2502780
-0.0196334 0.5880510 0.2259398
0.1027547 0.5828256 0.2252181
0.2272821 0.5822828 0.2271938
0.3541657 0.5864744 0.2308904
0.4839062 0.5953212 0.2359216
0.6146218 0.6059614 0.2411990
0.7454741 0.6169334 0.2460405
0.8748823 0.6258499 0.2489502
1.0022921 0.6323718 0.2491572
-0.0264778 0.7091219 0.2194278
0.0941675 0.7014825 0.2166784
0.2180674 0.6998968 0.2174472
0.3471279 0.7070697 0.2220339
0.4803672 0.7211219 0.2284040
0.6146937 0.7367999 0.2354949
0.7475484 0.7505587 0.2413612
0.8776139 0.7607325 0.2449583
1.0048286 0.7671579 0.2462438
-0.0299972 0.8361217 0.2171084
0.0898042 0.8277694 0.2129355
0.2127608 0.8249159 0.2115719
0.3417231 0.8313028 0.2147566
0.4769384 0.8476090 0.2212414
0.6134647 0.8659211 0.2295991
0.7470278 0.8802256 0.2367502
0.8770349 0.8903542 0.2413897
1.0042018 0.8969027 0.2437350
-0.0305952 0.9672689 0.2188692
0.0897785 0.9600696 0.2149203
0.2128121 0.9574165 0.2126470
0.3412341 0.9629093 0.2138932
0.4753923 0.9768493 0.2190912
0.6111009 0.9931629 0.2269423
0.7441504 1.0063435 0.2344448
0.8738997 1.0159837 0.2397619
1.0013548 1.0230823 0.2427493
-0.0004822 -0.0436030 0.3919905
0.1222783 -0.0482832 0.3932066
0.2422534 -0.0578431 0.3931379
0.3607165 -0.0688611 0.3915104
0.4797856 -0.0765161 0.3882241
0.6011250 -0.0782149 0.3836963
0.7252647 -0.0746258 0.3789293
0.8520818 -0.0669684 0.3748018
0.9805984 -0.0573724 0.3715024
0.0019508 0.0954256 0.3883970
0.1245700 0.0907373 0.3893507
0.2437232 0.0794723 0.3891436
0.3615208 0.0665689 0.3878798
0.4809683 0.0591556 0.3853953
0.6031443 0.0591902 0.3818179
0.7273881 0.0632343 0.3777132
0.8542840 0.0712318 0.3740479
0.9829325 0.0808066 0.3713228
0.0009222 0.2275558 0.3830555
0.1232478 0.2226840 0.3835409
0.2426165 0.2121480 0.3830775
0.3620324 0.2021931 0.3825020
0.4834021 0.1975588 0.3814362
0.6070155 0.1990568 0.3795678
0.7318825 0.2036418 0.3772989
0.8586468 0.2112087 0.3748166
0.9868555 0.2197102 0.3726720
-0.0039391 0.3520688 0.3760873
0.1184678 0.3476183 0.3765336
0.2397887 0.3412531 0.3766658
0.3621786 0.3371015 0.3770230
0.4858150 0.3360634 0.3772089
0.6112219 0.3393241 0.3771400
0.7377261 0.3451097 0.3770288
0.8647229 0.3516250 0.3766734
0.9923733 0.3587434 0.3753766
-0.0110718 0.4725213 0.3682235
0.1124435 0.4700971 0.3690253
0.2360998 0.4682628 0.3702668
0.3610410 0.4687305 0.3717127
0.4870744 0.4715890 0.3732113
0.6146243 0.4774060 0.3747642
0.7429520 0.4845657 0.3763802
0.8712457 0.4916951 0.3777466
0.9986267 0.4976924 0.3775199
-0.0177709 0.5945937 0.3608517
0.1059052 0.5924875 0.3611290
0.2316632 0.5940344 0.3637286
0.3583574 0.5969379 0.3668114
0.4863068 0.6018195 0.3699686
0.6161719 0.6105488 0.3729276
0.7468681 0.6208538 0.3757101
0.8764820 0.6294362 0.3778019
1.0038112 0.6352841 0.3778631
-0.0225366 0.7200702 0.3560117
0.1001012 0.7165525 0.3550450
0.2253669 0.7165445 0.3576298
0.3535449 0.7207917 0.3623371
0.4837810 0.7280962 0.3671564
0.6158933 0.7391830 0.3713142
0.7485434 0.7521267 0.3747837
0.8788145 0.7621771 0.3769374
1.0060340 0.7684387 0.3772275
-0.0255632 0.8470677 0.3553158
0.0962597 0.8424586 0.3535545
0.2201707 0.8401753 0.3547555
0.3480076 0.8427486 0.3592516
0.4805314 0.8526721 0.3647260
0.6148300 0.8662077 0.3698360
0.7476955 0.8787525 0.3742396
0.8776629 0.8889414 0.3767044
1.0048904 0.8960434 0.3772338
-0.0271108 0.9748225 0.3583480
0.0946021 0.9697423 0.3569726
0.2181733 0.9669033 0.3573728
0.3456521 0.9689169 0.3600998
0.4779489 0.9778145 0.3645104
0.6124522 0.9912679 0.3696847
0.7446597 1.0027712 0.3747335
0.8740870 1.0123322 0.3776481
1.0015178 1.0202300 0.3783815
-0.0084888 -0.0647498 0.5211328
0.1135461 -0.0727816 0.5226614
0.2338075 -0.0834650 0.5234326
0.3536535 -0.0923427 0.5227720
0.4751740 -0.0939628 0.5197159
0.5991477 -0.0883183 0.5146277
0.7253333 -0.0785594 0.5089789
0.8533008 -0.0668103 0.5036816
0.9821795 -0.0551843 0.4992932
-0.0058499 0.0758272 0.5169849
0.1164013 0.0688875 0.5179324
0.2363631 0.0579569 0.5185627
0.3558036 0.0477497 0.5187901
0.4778157 0.0465692 0.5166953
0.6023629 0.0531548 0.5121949
0.7286237 0.0630909 0.5068839
0.8565800 0.0748190 0.5018118
0.9853052 0.0856551 0.4979339
-0.0051643 0.2132077 0.5120795
0.1175352 0.2083004 0.5123274
0.2381970 0.1996883 0.5127143
0.3591912 0.1926689 0.5130229
0.4819818 0.1914091 0.5119466
0.6070688 0.1969132 0.5090616
0.7336468 0.2062282 0.5051180
0.8613528 0.2169073 0.5009378
0.9894441 0.2259958 0.4978406
-0.0070834 0.3453821 0.5074602
0.1160709 0.3419973 0.5077540
0.2386326 0.3377565 0.5079963
0.3617462 0.3351999 0.5079962
0.4861259 0.3361398 0.5072914
0.6120121 0.3408142 0.5058486
0.7391022 0.3481463 0.5038980
0.8666087 0.3563838 0.5016259
0.9941841 0.3638813 0.4995479
-0.0105115 0.4747108 0.5031496
0.1136094 0.4733183 0.5036884
0.2381333 0.4729080 0.5041053
0.3629575 0.4733134 0.5043781
0.4887668 0.4759187 0.5043054
0.6158198 0.4809549 0.5039833
0.7437128 0.4874731 0.5034781
0.8715138 0.4935528 0.5029497
0.9990639 0.4999988 0.5018959
-0.0137514 0.6045277 0.4990635
0.1108837 0.6040942 0.4998353
0.2364568 0.6047394 0.5012021
0.3621049 0.6051115 0.5028827
0.4888725 0.6079065 0.5040330
0.6170972 0.6136963 0.5045507
0.7463930 0.6213809 0.5047010
0.8756918 0.6293779 0.5046191
1.0031913 0.6352828 0.5039759
-0.0166545 0.7333123 0.4968567
0.1077858 0.7328913 0.4976028
0.2330944 0.7318925 0.5002920
0.3596191 0.7324713 0.5030974
0.4869957 0.7341888 0.5058048
0.6162900 0.7402307 0.5073355
0.7475279 0.7511036 0.5074159
0.8771248 0.7595306 0.5076619
1.0045892 0.7659200 0.5066824
-0.0196756 0.8589846 0.4980014
0.1039287 0.8568073 0.4994358
0.2281242 0.8534626 0.5028869
0.3542811 0.8518170 0.5069950
0.4833064 0.8555386 0.5100956
0.6145363 0.8642347 0.5113962
0.7455926 0.8735435 0.5124296
0.8752125 0.8830047 0.5122390
1.0029431 0.8911670 0.5104274
-0.0224712 0.9828660 0.5018843
0.1004030 0.9786832 0.5043148
0.2241324 0.9744491 0.5080330
0.3501393 0.9725528 0.5120693
0.4793763 0.9757189 0.5152147
0.6116166 0.9858675 0.5163606
0.7424085 0.9951624 0.5175910
0.8715337 1.0044705 0.5170414
0.9994520 1.0138178 0.5146416
-0.0159884 -0.0847402 0.6509586
0.1056646 -0.0954497 0.6532681
0.2269365 -0.1057828 0.6549888
0.3490507 -0.1105838 0.6545919
0.4733269 -0.1054568 0.6505287
0.5996372 -0.0931379 0.6438914
0.7274103 -0.0782160 0.6367985
0.8560845 -0.0635291 0.6304446
0.9849838 -0.0507950 0.6254406
-0.0135293 0.0561539 0.6468719
0.1083603 0.0464594 0.6487461
0.2298490 0.0368776 0.6505318
0.3521453 0.0325246 0.6506721
0.4769116 0.0385538 0.6469480
0.6032870 0.0504782 0.6407348
0.7312621 0.0657828 0.6335551
0.8600948 0.0806354 0.6271006
0.9887349 0.0921874 0.6225409
-0.0114023 0.1979653 0.6424905
0.1112778 0.1913505 0.6434902
0.2337956 0.1854476 0.6445491
0.3572632 0.1843567 0.6439774
0.4818732 0.1878189 0.6415262
0.6081057 0.1965426 0.6371416
0.7358673 0.2095413 0.6311995
0.8645674 0.2232482 0.6251385
0.9927154 0.2331273 0.6211421
-0.0100149 0.3386816 0.6394793
0.1137430 0.3358368 0.6397948
0.2376708 0.3342436 0.6395295
0.3618588 0.3339457 0.6386095
0.4868607 0.3363760 0.6367119
0.6129530 0.3420786 0.6337970
0.7404489 0.3509670 0.6300274
0.8683612 0.3607359 0.6257850
0.9961285 0.3692361 0.6223270
-0.0093643 0.4775396 0.6382128
0.1153777 0.4774007 0.6385212
0.2399837 0.4768531 0.6378312
0.3647646 0.4768597 0.6366067
0.4902651 0.4788516 0.6349117
0.6167187 0.4832558 0.6327210
0.7439855 0.4890123 0.6303002
0.8713838 0.4949937 0.6279840
0.9990521 0.5022821 0.6250893
-0.0097898 0.6128663 0.6382354
0.1150579 0.6123488 0.6400545
0.2403282 0.6125077 0.6394348
0.3653910 0.6118735 0.6386628
0.4909544 0.6123376 0.6375815
0.6176240 0.6152911 0.6359599
0.7457506 0.6219135 0.6331939
0.8738471 0.6282461 0.6307455
1.0013897 0.6343170 0.6286654
-0.0117190 0.7424517 0.6396287
0.1128923 0.7411598 0.6431756
0.2372692 0.7376165 0.6456920
0.3628425 0.7368892 0.6455124
0.4886526 0.7364319 0.6451954
0.6161259 0.7400205 0.6432366
0.7450783 0.7477851 0.6395990
0.8736796 0.7547875 0.6371111
1.0015001 0.7616831 0.6345901
-0.0149623 0.8663363 0.6428622
0.1090488 0.8634365 0.6481225
0.2329132 0.8583872 0.6533901
0.3575407 0.8539144 0.6564568
0.4840663 0.8540639 0.6564606
0.6127358 0.8594146 0.6536007
0.7417957 0.8662824 0.6503629
0.8709679 0.8752594 0.6465743
0.9993319 0.8845165 0.6423670
-0.0185738 0.9877090 0.6472281
0.1045572 0.9823222 0.6539591
0.2277800 0.9756508 0.6611802
0.3522045 0.9705510 0.6666581
0.4792072 0.9709544 0.6679583
0.6086412 0.9773107 0.6651209
0.7380514 0.9850670 0.6612403
0.8672432 0.9949289 0.6559974
0.9959555 1.0059343 0.6501939
-0.0214796 -0.0993224 0.7808748
0.1002451 -0.1109277 0.7836815
0.2226567 -0.1197486 0.7857736
0.3469785 -0.1201844 0.7848275
0.4736408 -0.1097419 0.7791475
0.6018831 -0.0924723 0.7704391
0.7307677 -0.0741133 0.7616732
0.8597187 -0.0579900 0.7546639
0.9883885 -0.0451206 0.7498420
-0.0191537 0.0413994 0.7774701
0.1026051 0.0301598 0.7801432
0.2252227 0.0218570 0.7825324
0.3499714 0.0225387 0.7817093
0.4772506 0.0347405 0.7753033
0.6058026 0.0525149 0.7661018
0.7350556 0.0716947 0.7565651
0.8641088 0.0877537 0.7492510
0.9924216 0.0991110 0.7450288
-0.0159608 0.1861684 0.7738205
0.1066128 0.1782500 0.7755267
0.2302020 0.1735988 0.7767107
0.3556711 0.1764679 0.7750364
0.4825550 0.1861022 0.7698126
0.6101745 0.1988115 0.7628297
0.7389821 0.2149364 0.7539657
0.8679161 0.2297817 0.7464439
0.9959371 0.2398643 0.7424833
-0.0120911 0.3331826 0.7717222
0.1119337 0.3304311 0.7722636
0.2366745 0.3301015 0.7713814
0.3620556 0.3323505 0.7688370
0.4878779 0.3370020 0.7650778
0.6145329 0.3445174 0.7601026
0.7421934 0.3544455 0.7541166
0.8701901 0.3651571 0.7479277
0.9980826 0.3744608 0.7436814
-0.0086470 0.4784407 0.7722844
0.1166166 0.4795121 0.7727896
0.2417728 0.4803567 0.7710829
0.3664551 0.4797493 0.7683380
0.4915664 0.4809260 0.7648564
0.6177343 0.4852960 0.7602459
0.7445573 0.4910966 0.7559523
0.8715649 0.4972753 0.7518969
0.9992234 0.5050642 0.7476262
-0.0073291 0.6167687 0.7754983
0.1180998 0.6177666 0.7781308
0.2431049 0.6172497 0.7777382
0.3676976 0.6157031 0.7747679
0.4923254 0.6145918 0.7710148
0.6179060 0.6159749 0.7669424
0.7448034 0.6212224 0.7617669
0.8720287 0.6269814 0.7568020
0.9995971 0.6335884 0.7530511
-0.0088061 0.7459712 0.7805033
0.1157262 0.7438244 0.7867019
0.2392748 0.7381078 0.7908859
0.3636482 0.7348863 0.7897247
0.4886239 0.7337566 0.7859876
0.6151829 0.7375885 0.7795440
0.7422673 0.7428568 0.7724908
0.8701526 0.7497611 0.7663039
0.9983579 0.7578642 0.7617248
-0.0121709 0.8686268 0.7860558
0.1115295 0.8638526 0.7949484
0.2344873 0.8563179 0.8028806
0.3580136 0.8502593 0.8061269
0.4833277 0.8491935 0.8032458
0.6101266 0.8527456 0.7961233
0.7378621 0.8587982 0.7879228
0.8667464 0.8681833 0.7796727
0.9956871 0.8786934 0.7729947
-0.0159965 0.9892812 0.7908796
0.1069164 0.9822350 0.8011995
0.2293593 0.9732197 0.8116630
0.3525627 0.9660992 0.8187526
0.4779120 0.9645833 0.8189514
0.6049587 0.9677537 0.8128604
0.7335305 0.9754645 0.8033086
0.8629956 0.9866235 0.7930254
0.9924835 0.9992578 0.7841222
-0.0243402 -0.1063786 0.9100491
0.0980541 -0.1163584 0.9124725
0.2215647 -0.1225772 0.9139517
0.3473063 -0.1200899 0.9121454
0.4753563 -0.1073905 0.9054236
0.6047800 -0.0881450 0.8951980
0.7343463 -0.0683746 0.8851175
0.8633586 -0.0519347 0.8778455
0.9917118 -0.0395168 0.8736676
-0.0218838 0.0343478 0.9075311
0.1004869 0.0245184 0.9099494
0.2241243 0.0186335 0.9116046
0.3502520 0.0220779 0.9096368
0.4788244 0.0362178 0.9018094
0.6090488 0.0577642 0.8892853
0.7390663 0.0788973 0.8772999
0.8678529 0.0945702 0.8698521
0.9956910 0.1050778 0.8667816
-0.0181310 0.1800777 0.9048155
0.1049321 0.1731492 0.9064003
0.2291709 0.1698329 0.9069606
0.3555580 0.1742000 0.9041830
0.4837551 0.1863418 0.8967522
0.6132695 0.2042215 0.8851159
0.7426939 0.2222523 0.8734607
0.8711141 0.2361924 0.8657258
0.9986171 0.2453344 0.8628738
-0.0133314 0.3289271 0.9035192
0.1111003 0.3268861 0.9039743
0.2361653 0.3270480 0.9026236
0.3623440 0.3311322 0.8984632
0.4893566 0.3385003 0.8918993
0.6166356 0.3478152 0.8843520
0.7443967 0.3588661 0.8761229
0.8722624 0.3700873 0.8679920
0.9997840 0.3788529 0.8640625
-0.0089634 0.4758216 0.9051875
0.1166928 0.4776676 0.9057299
0.2421950 0.4793908 0.9037254
0.3675906 0.4810885 0.8991387
0.4929199 0.4827397 0.8935190
0.6188631 0.4868282 0.8871277
0.7455424 0.4936345 0.8801469
0.8722200 0.5000331 0.8739972
0.9996005 0.5075324 0.8696199
-0.0069638 0.6149789 0.9102292
0.1188664 0.6170083 0.9131982
0.2440211 0.6170937 0.9134681
0.3685817 0.6157371 0.9102333
0.4927609 0.6137526 0.9048484
0.6180309 0.6153754 0.8976430
0.7441638 0.6202424 0.8895246
0.8708616 0.6260067 0.8825775
0.9985066 0.6333529 0.8778021
-0.0079839 0.7445362 0.9174243
0.1169077 0.7432822 0.9243757
0.2407711 0.7387993 0.9295122
0.3643909 0.7339239 0.9299660
0.4886118 0.7316705 0.9249758
0.6141416 0.7341147 0.9154471
0.7400977 0.7380529 0.9052507
0.8677682 0.7461358 0.8956538
0.9963116 0.7556340 0.8891632
-0.0110008 0.8676816 0.9245915
0.1127457 0.8627823 0.9348078
0.2355237 0.8548938 0.9442848
0.3584081 0.8476923 0.9491762
0.4826552 0.8451672 0.9465128
0.6083001 0.8475793 0.9367358
0.7353454 0.8537211 0.9237368
0.8639801 0.8637055 0.9117580
0.9933043 0.8754079 0.9029600
-0.0145624 0.9889912 0.9299852
0.1083869 0.9817641 0.9416061
0.2305403 0.9720970 0.9533897
0.3530216 0.9637528 0.9614897
0.4770558 0.9602517 0.9620770
0.6029162 0.9622236 0.9541927
0.7309560 0.9702151 0.9406319
0.8603737 0.9820504 0.9271112
0.9903030 0.9958356 0.9161681
-0.0251413 -0.1073268 1.0383241
0.0982932 -0.1140971 1.0396199
0.2228567 -0.1171492 1.0397986
0.3493735 -0.1129558 1.0370624
0.4779245 -0.1003140 1.0300693
0.6076738 -0.0819334 1.0198264
0.7374057 -0.0628855 1.0096625
0.8663430 -0.0470493 1.0025410
0.9944095 -0.0353169 0.9988911
-0.0225270 0.0332956 1.0365951
0.1009860 0.0268849 1.0378198
0.2256525 0.0241293 1.0379493
0.3524748 0.0290767 1.0347352
0.4815685 0.0431918 1.0262195
0.6120120 0.0637182 1.0131920
0.7420686 0.0840650 1.0004859
0.8706493 0.0990549 0.9930091
0.9981723 0.1088757 0.9908310
-0.0187627 0.1782216 1.0349029
0.1052746 0.1739798 1.0355297
0.2302662 0.1727948 1.0348452
0.3571232 0.1780383 1.0308957
0.4859721 0.1908921 1.0220194
0.6160702 0.2094502 1.0084138
0.7457259 0.2279427 0.9946415
0.8736177 0.2407074 0.9871050
1.0006302 0.2487038 0.9857282
-0.0142484 0.3254682 1.0345699
0.1107733 0.3248173 1.0344362
0.2362982 0.3260427 1.0323963
0.3628840 0.3309318 1.0274003
0.4906191 0.3399063 1.0192094
0.6188197 0.3514896 1.0085327
0.7468548 0.3637892 0.9971960
0.8742342 0.3743271 0.9888995
1.0012320 0.3818511 0.9866453
-0.0102508 0.4706585 1.0370199
0.1156270 0.4728601 1.0372051
0.2414446 0.4753348 1.0349764
0.3673635 0.4784791 1.0299270
0.4935434 0.4826020 1.0227907
0.6199593 0.4882072 1.0140380
0.7464744 0.4950094 1.0047811
0.8730932 0.5020740 0.9972063
1.0003325 0.5095881 0.9934835
-0.0082660 0.6092084 1.0427354
0.1176399 0.6113829 1.0452328
0.2430052 0.6122382 1.0455059
0.3679313 0.6121553 1.0426104
0.4928161 0.6124292 1.0365835
0.6181468 0.6148218 1.0277822
0.7440042 0.6194220 1.0179087
0.8707142 0.6258714 1.0094351
0.9984804 0.6340562 1.0041007
-0.0087901 0.7397489 1.0505385
0.1163001 0.7392166 1.0565767
0.2405456 0.7362823 1.0611921
0.3643470 0.7324631 1.0621526
0.4885049 0.7305559 1.0576407
0.6135435 0.7321472 1.0479056
0.7395988 0.7370073 1.0359461
0.8672094 0.7454935 1.0249677
0.9958134 0.7555858 1.0175202
-0.0110945 0.8646734 1.0582452
0.1129633 0.8608940 1.0672860
0.2360899 0.8544608 1.0757116
0.3589953 0.8479056 1.0804176
0.4827180 0.8446164 1.0782927
0.6079378 0.8463901 1.0687155
0.7348487 0.8529282 1.0550877
0.8633346 0.8632114 1.0421843
0.9927099 0.8754122 1.0325104
-0.0140698 0.9875437 1.0640562
0.1092856 0.9816307 1.0745248
0.2317963 0.9733688 1.0848322
0.3542868 0.9655578 1.0918579
0.4778711 0.9615265 1.0920989
0.6033469 0.9632550 1.0842710
0.7309107 0.9708024 1.0711480
0.8600326 0.9825018 1.0575973
0.9899559 0.9965030 1.0463001
