ref/imx226_D50_jzazbz_203.cube
TITLE "4493439568"
LUT_3D_SIZE 9
0.0067213 -0.0185562 -0.0042808
0.1318338 -0.0121506 -0.0032947
0.2540081 -0.0106698 -0.0048034
0.3727938 -0.0166089 -0.0092154
0.4896459 -0.0280912 -0.0150560
0.6074005 -0.0397258 -0.0198598
0.7282704 -0.0474267 -0.0221396
0.8525983 -0.0503642 -0.0220228
0.9792849 -0.0498432 -0.0205766
0.0098259 0.1143575 -0.0029115
0.1352331 0.1212622 -0.0012435
0.2571587 0.1228886 -0.0026528
0.3748730 0.1157146 -0.0078059
0.4905229 0.1023575 -0.0144534
0.6077084 0.0902275 -0.0193590
0.7286503 0.0832490 -0.0212544
0.8534567 0.0815510 -0.0206730
0.9806703 0.0832534 -0.0189349
0.0089529 0.2370886 -0.0047046
0.1338617 0.2411970 -0.0031026
0.2552144 0.2408153 -0.0046519
0.3728138 0.2339879 -0.0095937
0.4892507 0.2236452 -0.0152664
0.6076660 0.2154790 -0.0186822
0.7298461 0.2121471 -0.0192170
0.8554745 0.2130403 -0.0179533
0.9830777 0.2163321 -0.0161459
0.0041527 0.3511948 -0.0099035
0.1278751 0.3500991 -0.0091096
0.2491330 0.3474148 -0.0103128
0.3686489 0.3441355 -0.0130752
0.4873841 0.3406109 -0.0164295
0.6081856 0.3392361 -0.0175613
0.7322667 0.3410007 -0.0163721
0.8587866 0.3449419 -0.0144349
0.9864980 0.3497443 -0.0127742
-0.0029014 0.4626004 -0.0170500
0.1200843 0.4575168 -0.0167729
0.2421965 0.4540756 -0.0169564
0.3637336 0.4540860 -0.0177430
0.4854796 0.4577919 -0.0183316
0.6094514 0.4638042 -0.0167496
0.7354646 0.4704295 -0.0139921
0.8627207 0.4771064 -0.0114861
0.9903210 0.4831615 -0.0099353
-0.0104447 0.5764425 -0.0246200
0.1118361 0.5689314 -0.0251120
0.2345670 0.5652861 -0.0249550
0.3582623 0.5681613 -0.0241145
0.4837700 0.5778206 -0.0215675
0.6107961 0.5894768 -0.0174628
0.7384395 0.5999559 -0.0133623
0.8662023 0.6087780 -0.0102843
0.9935958 0.6158272 -0.0085843
-0.0168741 0.6955742 -0.0312639
0.1043661 0.6862615 -0.0332146
0.2271608 0.6821512 -0.0337139
0.3529030 0.6870728 -0.0316012
0.4815295 0.7002011 -0.0265539
0.6111585 0.7157236 -0.0202240
0.7401927 0.7290660 -0.0147797
0.8682964 0.7393924 -0.0110287
0.9955233 0.7471980 -0.0089115
-0.0207861 0.8215235 -0.0354829
0.1000377 0.8120176 -0.0383753
0.2228769 0.8077063 -0.0395099
0.3494859 0.8127300 -0.0371340
0.4795301 0.8265106 -0.0311114
0.6105032 0.8432763 -0.0236966
0.7403108 0.8578169 -0.0174121
0.8686267 0.8689311 -0.0130626
0.9958165 0.8772670 -0.0104210
-0.0220308 0.9536655 -0.0366922
0.0992912 0.9457276 -0.0394655
0.2225328 0.9423022 -0.0405443
0.3491264 0.9465755 -0.0384186
0.4787997 0.9583303 -0.0329682
0.6094339 0.9732448 -0.0260923
0.7391397 0.9869669 -0.0199449
0.8674791 0.9979917 -0.0153774
0.9947140 1.0064979 -0.0123459
0.0042261 -0.0192357 0.1228769
0.1284727 -0.0145999 0.1231776
0.2497376 -0.0151804 0.1209273
0.3679955 -0.0222927 0.1160595
0.4848131 -0.0335621 0.1100750
0.6028630 -0.0442055 0.1052872
0.7244312 -0.0506673 0.1032557
0.8498599 -0.0521545 0.1039323
0.9777383 -0.0501239 0.1060296
0.0072796 0.1145841 0.1241115
0.1315762 0.1192887 0.1248398
0.2522140 0.1177897 0.1223188
0.3693543 0.1088348 0.1166758
0.4854216 0.0962388 0.1102618
0.6031671 0.0858766 0.1057070
0.7248939 0.0805958 0.1042184
0.8509112 0.0805408 0.1054823
0.9793745 0.0837583 0.1079755
0.0063391 0.2383879 0.1219866
0.1301631 0.2407185 0.1226218
0.2500643 0.2367893 0.1197133
0.3674733 0.2282452 0.1145596
0.4852517 0.2199197 0.1099980
0.6044445 0.2136752 0.1072802
0.7272509 0.2117018 0.1072593
0.8538490 0.2138345 0.1091399
0.9824788 0.2182338 0.1115517
0.0013487 0.3532788 0.1161307
0.1242387 0.3516412 0.1160908
0.2448260 0.3480114 0.1141973
0.3649645 0.3444022 0.1119123
0.4851893 0.3420139 0.1098941
0.6070035 0.3417732 0.1097603
0.7316533 0.3440982 0.1116785
0.8587209 0.3484505 0.1141645
0.9870540 0.3536467 0.1161229
-0.0059375 0.4648685 0.1082593
0.1166324 0.4604147 0.1079546
0.2388275 0.4584261 0.1077954
0.3609782 0.4587193 0.1075032
0.4843239 0.4627687 0.1083228
0.6098312 0.4696504 0.1114884
0.7366313 0.4765842 0.1153399
0.8643792 0.4833720 0.1184844
0.9922547 0.4892295 0.1200973
-0.0136366 0.5783192 0.1002699
0.1083113 0.5714861 0.0991942
0.2313422 0.5693500 0.0996087
0.3559337 0.5732919 0.1012120
0.4835198 0.5844774 0.1056222
0.6122351 0.5971157 0.1114758
0.7409392 0.6081515 0.1167613
0.8692528 0.6170551 0.1204425
0.9966418 0.6235014 0.1220571
-0.0200265 0.6970008 0.0937072
0.1005166 0.6872598 0.0908105
0.2233354 0.6836339 0.0903077
0.3503987 0.6902087 0.0935686
0.4814541 0.7059868 0.1006994
0.6132236 0.7237385 0.1090852
0.7434738 0.7381047 0.1156769
0.8719833 0.7484000 0.1198285
0.9989606 0.7553611 0.1217609
-0.0236323 0.8230090 0.0900742
0.0963614 0.8123585 0.0861274
0.2189924 0.8075664 0.0846729
0.3468251 0.8138209 0.0880453
0.4792996 0.8305597 0.0960603
0.6125856 0.8503362 0.1055235
0.7435686 0.8662335 0.1128986
0.8720587 0.8772897 0.1175100
0.9988881 0.8848574 0.1199498
-0.0244454 0.9555627 0.0896960
0.0962405 0.9465984 0.0861247
0.2192512 0.9424017 0.0846344
0.3467512 0.9473271 0.0873607
0.4783964 0.9613729 0.0943591
0.6109362 0.9787674 0.1028607
0.7415783 0.9937557 0.1099259
0.8700000 1.0048960 0.1147209
0.9969821 1.0130136 0.1176225
-0.0002951 -0.0253973 0.2488414
0.1227998 -0.0238391 0.2482311
0.2430838 -0.0272824 0.2453256
0.3613098 -0.0350577 0.2406373
0.4792504 -0.0441806 0.2355588
0.5989675 -0.0513579 0.2316706
0.7221218 -0.0545842 0.2301801
0.8487725 -0.0536452 0.2311463
0.9775377 -0.0498808 0.2334147
0.0028473 0.1098235 0.2497816
0.1257552 0.1110687 0.2492047
0.2451886 0.1059228 0.2457652
0.3625501 0.0962135 0.2405210
0.4804815 0.0867510 0.2357309
0.6002167 0.0804880 0.2324276
0.7234051 0.0784498 0.2313751
0.8505343 0.0806759 0.2328640
0.9796759 0.0852481 0.2355079
0.0023133 0.2362269 0.2476443
0.1247525 0.2357911 0.2468710
0.2439524 0.2295335 0.2433140
0.3622374 0.2212871 0.2390080
0.4822772 0.2157027 0.2363587
0.6038068 0.2130488 0.2350857
0.7273677 0.2129186 0.2351849
0.8544925 0.2162740 0.2370463
0.9833872 0.2212057 0.2394573
-0.0019627 0.3543922 0.2420786
0.1202718 0.3524327 0.2412741
0.2405827 0.3483235 0.2389195
0.3615808 0.3451921 0.2371889
0.4841109 0.3441598 0.2369636
0.6081098 0.3457063 0.2379956
0.7335088 0.3490434 0.2402851
0.8605035 0.3533194 0.2427863
0.9886790 0.3581697 0.2446609
-0.0084937 0.4689355 0.2345085
0.1141629 0.4664528 0.2340469
0.2362514 0.4654674 0.2334974
0.3593411 0.4661251 0.2338075
0.4849533 0.4702464 0.2363640
0.6117428 0.4766721 0.2399733
0.7392891 0.4837592 0.2442180
0.8670733 0.4901042 0.2477069
0.9946817 0.4952412 0.2493141
-0.0153305 0.5847741 0.2269167
0.1070161 0.5805742 0.2258678
0.2307422 0.5810841 0.2267830
0.3564015 0.5860575 0.2295498
0.4848638 0.5952267 0.2346884
0.6141318 0.6057861 0.2403639
0.7437320 0.6165079 0.2461116
0.8724524 0.6250270 0.2502072
0.9996695 0.6306541 0.2517551
-0.0207078 0.7052806 0.2212197
0.1002831 0.6978922 0.2185429
0.2237715 0.6965951 0.2190261
0.3515947 0.7041370 0.2236597
0.4828489 0.7176124 0.2309262
0.6150164 0.7329852 0.2389974
0.7460656 0.7466668 0.2456757
0.8751262 0.7566351 0.2499252
1.0019706 0.7627728 0.2516278
-0.0237736 0.8319004 0.2185416
0.0965506 0.8229944 0.2148891
0.2194449 0.8194389 0.2142042
0.3474714 0.8254778 0.2184947
0.4805238 0.8409873 0.2269002
0.6143818 0.8592695 0.2362643
0.7458414 0.8742280 0.2433941
0.8746085 0.8848078 0.2477611
1.0012412 0.8916145 0.2498066
-0.0246616 0.9638039 0.2188320
0.0961489 0.9558704 0.2155348
0.2191530 0.9520119 0.2144832
0.3467361 0.9563445 0.2176976
0.4789901 0.9695992 0.2250850
0.6122167 0.9862647 0.2337039
0.7431817 1.0005734 0.2405565
0.8716104 1.0111879 0.2449757
0.9984063 1.0187459 0.2474123
-0.0059689 -0.0357955 0.3744210
0.1162914 -0.0373803 0.3733251
0.2361006 -0.0431381 0.3703745
0.3548005 -0.0508374 0.3664338
0.4745877 -0.0567107 0.3627449
0.5970436 -0.0587609 0.3602243
0.7222699 -0.0576262 0.3592525
0.8499814 -0.0537915 0.3599514
0.9791560 -0.0483730 0.3616715
-0.0025041 0.1012070 0.3750875
0.1197247 0.0996985 0.3738036
0.2388270 0.0925680 0.3703018
0.3568817 0.0832881 0.3661199
0.4769712 0.0775931 0.3630704
0.6001311 0.0770552 0.3614726
0.7252673 0.0787280 0.3608003
0.8528934 0.0828814 0.3617031
0.9820183 0.0883843 0.3636462
-0.0020722 0.2314482 0.3734157
0.1199299 0.2292853 0.3719224
0.2393263 0.2223648 0.3685211
0.3590191 0.2156629 0.3656328
0.4807030 0.2123758 0.3640812
0.6049162 0.2133015 0.3638348
0.7304057 0.2161939 0.3642366
0.8576522 0.2205781 0.3654655
0.9860907 0.2255271 0.3671875
-0.0049439 0.3547658 0.3690318
0.1171558 0.3525905 0.3677508
0.2382801 0.3490781 0.3657649
0.3606135 0.3468290 0.3649166
0.4842249 0.3464595 0.3649399
0.6097347 0.3491721 0.3661609
0.7364126 0.3536094 0.3681777
0.8635883 0.3582838 0.3702375
0.9912734 0.3627954 0.3718435
-0.0098322 0.4747714 0.3628876
0.1132641 0.4738098 0.3625148
0.2363138 0.4737610 0.3622912
0.3607762 0.4749431 0.3632926
0.4863614 0.4779184 0.3650791
0.6134816 0.4830193 0.3678891
0.7414243 0.4890766 0.3712156
0.8694793 0.4950429 0.3744120
0.9968398 0.4996811 0.3761784
-0.0145872 0.5961317 0.3568783
0.1087254 0.5946965 0.3565012
0.2335663 0.5971128 0.3582233
0.3593330 0.6007802 0.3608215
0.4862903 0.6057473 0.3642124
0.6151898 0.6135425 0.3686072
0.7449938 0.6224891 0.3733939
0.8740706 0.6301544 0.3773113
1.0013326 0.6351683 0.3789203
-0.0181984 0.7206071 0.3526802
0.1043066 0.7171689 0.3513773
0.2286731 0.7179176 0.3529670
0.3555259 0.7231360 0.3570728
0.4843544 0.7309160 0.3623106
0.6149977 0.7412144 0.3681984
0.7462893 0.7526573 0.3740228
0.8758966 0.7617300 0.3779656
1.0029794 0.7672705 0.3794337
-0.0208629 0.8479983 0.3508783
0.1009893 0.8431875 0.3489150
0.2243224 0.8414047 0.3494044
0.3508393 0.8449779 0.3533300
0.4816744 0.8552058 0.3600225
0.6140382 0.8680205 0.3672261
0.7452809 0.8799817 0.3731173
0.8744356 0.8894639 0.3767643
1.0014420 0.8957860 0.3782982
-0.0225988 0.9779439 0.3512629
0.0991488 0.9729727 0.3494303
0.2222934 0.9703879 0.3494932
0.3486989 0.9727517 0.3526210
0.4793209 0.9817287 0.3587427
0.6116356 0.9944593 0.3657655
0.7421970 1.0060649 0.3713076
0.8707660 1.0154407 0.3747775
0.9978910 1.0224981 0.3764872
-0.0122343 -0.0491245 0.5001825
0.1095920 -0.0537423 0.4993055
0.2298113 -0.0607120 0.4971436
0.3498823 -0.0669403 0.4944132
0.4722468 -0.0681766 0.4919924
0.5974607 -0.0646669 0.4902596
0.7245818 -0.0590872 0.4893629
0.8531735 -0.0523427 0.4894195
0.9824185 -0.0455250 0.4901930
-0.0086064 0.0892752 0.5005399
0.1136135 0.0856106 0.4994609
0.2336213 0.0785531 0.4968806
0.3531942 0.0713723 0.4941484
0.4758493 0.0703055 0.4923462
0.6015327 0.0743969 0.4912703
0.7285939 0.0798706 0.4906154
0.8570859 0.0865104 0.4908090
0.9860357 0.0928567 0.4916955
-0.0069132 0.2241018 0.4994627
0.1157571 0.2214714 0.4983322
0.2365246 0.2158996 0.4959615
0.3577944 0.2113527 0.4940731
0.4808307 0.2102058 0.4929251
0.6065222 0.2135133 0.4926198
0.7337824 0.2190879 0.4927849
0.8619153 0.2252179 0.4932886
0.9901086 0.2305939 0.4941525
-0.0077735 0.3544076 0.4967839
0.1152479 0.3524960 0.4959148
0.2378194 0.3500026 0.4946276
0.3610178 0.3486472 0.4937537
0.4855428 0.3494661 0.4935664
0.6115794 0.3524695 0.4941154
0.7388616 0.3570377 0.4951707
0.8665353 0.3620515 0.4962763
0.9941446 0.3667360 0.4973212
-0.0100136 0.4825261 0.4931388
0.1138082 0.4819187 0.4929374
0.2380402 0.4820826 0.4929520
0.3625839 0.4828099 0.4931735
0.4882011 0.4849220 0.4940058
0.6150613 0.4885617 0.4955085
0.7427663 0.4931213 0.4973595
0.8704279 0.4974155 0.4990586
0.9979425 0.5018684 0.5004817
-0.0120702 0.6110136 0.4896301
0.1121585 0.6110529 0.4898097
0.2370170 0.6120872 0.4908925
0.3619563 0.6130879 0.4922394
0.4880115 0.6156146 0.4940505
0.6156219 0.6201784 0.4964046
0.7445070 0.6259921 0.4990803
0.8735220 0.6320363 0.5016789
1.0009893 0.6365739 0.5031726
-0.0141693 0.7393047 0.4871150
0.1098497 0.7392083 0.4871820
0.2341267 0.7393371 0.4886456
0.3594684 0.7406660 0.4910198
0.4858843 0.7434956 0.4937901
0.6142108 0.7487727 0.4969860
0.7446004 0.7566879 0.5006034
0.8738417 0.7634661 0.5034473
1.0013868 0.7684176 0.5046726
-0.0168877 0.8667783 0.4859294
0.1063496 0.8656090 0.4858727
0.2296519 0.8644072 0.4870948
0.3544068 0.8647403 0.4897557
0.4819851 0.8689012 0.4934661
0.6120122 0.8764154 0.4975385
0.7419912 0.8840150 0.5014104
0.8711370 0.8911835 0.5039681
0.9989956 0.8970068 0.5049433
-0.0197653 0.9943161 0.4860033
0.1027939 0.9921641 0.4860072
0.2258180 0.9905586 0.4871652
0.3505995 0.9908702 0.4897489
0.4783218 0.9947723 0.4935356
0.6088045 1.0027773 0.4978807
0.7383849 1.0104739 0.5014754
0.8670894 1.0176095 0.5036022
0.9951012 1.0240457 0.5044390
-0.0182621 -0.0626963 0.6263791
0.1033054 -0.0701413 0.6261706
0.2246608 -0.0773295 0.6253273
0.3471666 -0.0805389 0.6239197
0.4724779 -0.0765574 0.6221119
0.6000113 -0.0680328 0.6202203
0.7286200 -0.0585119 0.6187919
0.8577255 -0.0494846 0.6180823
0.9867662 -0.0417328 0.6180576
-0.0148993 0.0762206 0.6264566
0.1071367 0.0698188 0.6260955
0.2288880 0.0637425 0.6251111
0.3515076 0.0613135 0.6236210
0.4768198 0.0650297 0.6220805
0.6041302 0.0725851 0.6204561
0.7329150 0.0819321 0.6192093
0.8622319 0.0909039 0.6186460
0.9909498 0.0978755 0.6187138
-0.0120890 0.2153583 0.6258482
0.1108258 0.2111657 0.6253942
0.2337130 0.2078023 0.6244013
0.3574683 0.2072923 0.6230406
0.4822169 0.2089951 0.6218290
0.6089703 0.2141923 0.6209136
0.7373401 0.2218103 0.6202511
0.8665065 0.2298342 0.6198634
0.9946932 0.2357631 0.6199536
-0.0103363 0.3535932 0.6249253
0.1135083 0.3518201 0.6245722
0.2376513 0.3506950 0.6237520
0.3620130 0.3503460 0.6227355
0.4872116 0.3517084 0.6219376
0.6134901 0.3549551 0.6215004
0.7412107 0.3600271 0.6215536
0.8692728 0.3654342 0.6216020
0.9971260 0.3705269 0.6217711
-0.0094533 0.4904618 0.6240446
0.1150624 0.4903719 0.6240581
0.2396239 0.4896677 0.6234703
0.3643872 0.4892565 0.6227946
0.4898636 0.4901716 0.6224427
0.6163417 0.4927345 0.6225172
0.7435849 0.4960353 0.6228852
0.8709726 0.4995045 0.6234051
0.9986805 0.5037856 0.6237927
-0.0096155 0.6248585 0.6231220
0.1145928 0.6248507 0.6236521
0.2393927 0.6244972 0.6235066
0.3641231 0.6237380 0.6233678
0.4893282 0.6236374 0.6234128
0.6157749 0.6253088 0.6237925
0.7438372 0.6292115 0.6244484
0.8719613 0.6330694 0.6252164
0.9995764 0.6368912 0.6259719
-0.0111924 0.7555509 0.6221808
0.1127611 0.7560547 0.6231539
0.2365168 0.7547138 0.6238661
0.3610482 0.7536154 0.6244112
0.4860722 0.7531275 0.6249757
0.6129320 0.7549373 0.6256163
0.7415018 0.7590634 0.6262762
0.8701026 0.7633999 0.6273845
0.9982458 0.7678021 0.6281632
-0.0142286 0.8828525 0.6215275
0.1090782 0.8829849 0.6228925
0.2319862 0.8815692 0.6243780
0.3554431 0.8796082 0.6257587
0.4807744 0.8797532 0.6268887
0.6086879 0.8828095 0.6277674
0.7370604 0.8863375 0.6287127
0.8661185 0.8911539 0.6296331
0.9949539 0.8964515 0.6300109
-0.0178425 1.0088522 0.6212992
0.1046187 1.0078996 0.6228443
0.2269418 1.0062839 0.6247738
0.3501636 1.0050644 0.6268030
0.4757136 1.0060205 0.6285349
0.6040249 1.0096494 0.6298662
0.7326753 1.0135248 0.6308603
0.8617605 1.0183930 0.6312757
0.9909263 1.0241962 0.6312285
-0.0226341 -0.0724696 0.7530604
0.0989743 -0.0814317 0.7535093
0.2215205 -0.0881730 0.7538095
0.3465671 -0.0884100 0.7534762
0.4746290 -0.0805017 0.7518117
0.6040947 -0.0684132 0.7491732
0.7337026 -0.0562014 0.7467487
0.8629061 -0.0457764 0.7452618
0.9915121 -0.0375402 0.7448114
-0.0195824 0.0666468 0.7531363
0.1022380 0.0583320 0.7534245
0.2251450 0.0526225 0.7537063
0.3506605 0.0536892 0.7532676
0.4791171 0.0622519 0.7513328
0.6083640 0.0731783 0.7485773
0.7383069 0.0852364 0.7459685
0.8677278 0.0954349 0.7444604
0.9959487 0.1026496 0.7441941
-0.0158987 0.2089443 0.7530208
0.1069307 0.2033979 0.7530800
0.2310616 0.2005547 0.7530293
0.3571529 0.2028208 0.7521177
0.4843272 0.2084826 0.7502396
0.6123538 0.2157810 0.7482597
0.7417648 0.2251225 0.7458846
0.8711285 0.2340620 0.7442953
0.9990986 0.2403349 0.7441164
-0.0120066 0.3531776 0.7533792
0.1122206 0.3514100 0.7534005
0.2374440 0.3509068 0.7528192
0.3631288 0.3515927 0.7513977
0.4890790 0.3536635 0.7496503
0.6160153 0.3576450 0.7479892
0.7438699 0.3629206 0.7466202
0.8720368 0.3686339 0.7453778
1.0000635 0.3741786 0.7450083
-0.0089797 0.4962654 0.7543553
0.1160171 0.4971419 0.7546761
0.2412374 0.4967852 0.7537535
0.3660338 0.4949000 0.7519917
0.4913457 0.4945154 0.7501935
0.6176625 0.4960065 0.7486117
0.7446199 0.4987671 0.7477201
0.8717932 0.5018814 0.7471333
0.9996265 0.5061352 0.7466415
-0.0082235 0.6344329 0.7553534
0.1161334 0.6354922 0.7563521
0.2403621 0.6339602 0.7557513
0.3648985 0.6313736 0.7539791
0.4898261 0.6296174 0.7521737
0.6155884 0.6293719 0.7507784
0.7427842 0.6313801 0.7496386
0.8704093 0.6338958 0.7487015
0.9982570 0.6374550 0.7485869
-0.0099988 0.7664216 0.7558413
0.1131426 0.7667164 0.7576586
0.2354150 0.7634095 0.7581978
0.3591964 0.7603394 0.7571749
0.4841014 0.7583654 0.7556885
0.6104951 0.7586394 0.7540041
0.7378781 0.7599861 0.7522367
0.8664031 0.7628808 0.7512373
0.9951999 0.7672373 0.7512946
-0.0134057 0.8939722 0.7558407
0.1089661 0.8938686 0.7582974
0.2305829 0.8913117 0.7600884
0.3527989 0.8877999 0.7606163
0.4772287 0.8857428 0.7597647
0.6039229 0.8859423 0.7578223
0.7318122 0.8872365 0.7559739
0.8612897 0.8907468 0.7548193
0.9910340 0.8958376 0.7544818
-0.0172027 1.0197793 0.7555561
0.1045206 1.0189135 0.7582208
0.2256740 1.0166755 0.7607680
0.3474511 1.0143347 0.7625454
0.4714478 1.0133693 0.7628535
0.5981701 1.0137099 0.7615127
0.7267740 1.0152699 0.7597072
0.8566228 1.0187903 0.7582181
0.9869089 1.0243109 0.7573416
-0.0245179 -0.0761638 0.8799802
0.0977871 -0.0844692 0.8807835
0.2214955 -0.0899184 0.8815970
0.3481031 -0.0886336 0.8817319
0.4776389 -0.0796998 0.8801556
0.6084004 -0.0663547 0.8769201
0.7386795 -0.0529401 0.8735608
0.8678024 -0.0418838 0.8714506
0.9959087 -0.0334998 0.8708347
-0.0215284 0.0632545 0.8803298
0.1008510 0.0553675 0.8809936
0.2247783 0.0505346 0.8817637
0.3518152 0.0525740 0.8817966
0.4818287 0.0619739 0.8797737
0.6132311 0.0757783 0.8755531
0.7439588 0.0892949 0.8712487
0.8728445 0.0995235 0.8689617
1.0003401 0.1066432 0.8687406
-0.0174442 0.2068744 0.8807128
0.1058249 0.2015913 0.8810880
0.2305991 0.1989394 0.8813126
0.3577835 0.2013687 0.8805984
0.4867395 0.2085266 0.8781271
0.6168801 0.2188397 0.8739353
0.7469530 0.2294222 0.8696587
0.8756005 0.2379400 0.8672130
1.0028661 0.2439233 0.8671991
-0.0128003 0.3532455 0.8817547
0.1118169 0.3517642 0.8819693
0.2374325 0.3513461 0.8813363
0.3641747 0.3528357 0.8794771
0.4914556 0.3559035 0.8764808
0.6190179 0.3604160 0.8732253
0.7470216 0.3660942 0.8703224
0.8751068 0.3719032 0.8676333
1.0027315 0.3772254 0.8672215
-0.0092041 0.4985033 0.8835661
0.1161110 0.4999432 0.8840591
0.2416238 0.5001488 0.8829879
0.3672187 0.4992514 0.8803287
0.4927492 0.4981607 0.8769972
0.6190826 0.4988955 0.8740104
0.7460958 0.5014382 0.8715964
0.8730552 0.5040563 0.8695866
1.0007235 0.5082820 0.8689264
-0.0083058 0.6384433 0.8855586
0.1162951 0.6405045 0.8868532
0.2404760 0.6397493 0.8863223
0.3648321 0.6369798 0.8837648
0.4892728 0.6333699 0.8802936
0.6151581 0.6320248 0.8770927
0.7420090 0.6327273 0.8741392
0.8693986 0.6346265 0.8720833
0.9975760 0.6385443 0.8715775
-0.0102198 0.7717925 0.8870431
0.1128183 0.7728110 0.8893382
0.2348868 0.7704216 0.8901639
0.3576203 0.7665216 0.8889121
0.4818778 0.7629227 0.8859790
0.6080354 0.7613681 0.8820411
0.7351248 0.7608145 0.8781545
0.8638993 0.7632138 0.8756986
0.9932864 0.7678572 0.8751558
-0.0136546 0.9004892 0.8877368
0.1081658 0.9004407 0.8907461
0.2289724 0.8977539 0.8929314
0.3503354 0.8939546 0.8934485
0.4739108 0.8909080 0.8916693
0.5999768 0.8892123 0.8876963
0.7281761 0.8889204 0.8833483
0.8580813 0.8914777 0.8804482
0.9885061 0.8965975 0.8794231
-0.0172803 1.0271119 0.8876901
0.1039571 1.0263379 0.8908890
0.2243028 1.0237997 0.8937640
0.3451289 1.0208129 0.8954451
0.4680565 1.0185107 0.8949554
0.5940252 1.0170948 0.8919615
0.7228572 1.0173325 0.8880127
0.8533026 1.0201836 0.8850124
0.9843658 1.0257483 0.8834732
-0.0244202 -0.0747244 1.0067772
0.0990648 -0.0808733 1.0075456
0.2239296 -0.0843473 1.0082457
0.3512555 -0.0824144 1.0082659
0.4810836 -0.0742435 1.0067162
0.6120788 -0.0619135 1.0035135
0.7425139 -0.0490245 0.9999705
0.8715216 -0.0381919 0.9976497
0.9992709 -0.0300174 0.9969913
-0.0214330 0.0648450 1.0074173
0.1021653 0.0591076 1.0080629
0.2271881 0.0559683 1.0086398
0.3548670 0.0582696 1.0084213
0.4852873 0.0668348 1.0062372
0.6170842 0.0797604 1.0017226
0.7479218 0.0927748 0.9967879
0.8764912 0.1027164 0.9940572
1.0035212 0.1096935 0.9939277
-0.0175331 0.2081493 1.0081592
0.1066802 0.2043536 1.0085216
0.2321380 0.2025737 1.0085202
0.3597684 0.2048882 1.0075298
0.4895982 0.2118594 1.0046487
0.6207189 0.2223712 0.9994297
0.7511023 0.2330972 0.9937513
0.8790307 0.2409689 0.9909302
1.0056237 0.2465988 0.9912579
-0.0133449 0.3537095 1.0094531
0.1117780 0.3528208 1.0096094
0.2377067 0.3527375 1.0087835
0.3648478 0.3544168 1.0066301
0.4931293 0.3581799 1.0030647
0.6218279 0.3634654 0.9983346
0.7503240 0.3694227 0.9935273
0.8779493 0.3748679 0.9904350
1.0048892 0.3798045 0.9905736
-0.0102743 0.4982478 1.0114427
0.1152155 0.4997152 1.0118129
0.2409197 0.5004476 1.0106350
0.3669665 0.5006152 1.0077349
0.4934370 0.5008000 1.0037539
0.6203302 0.5017247 0.9993819
0.7473498 0.5034975 0.9954008
0.8744257 0.5062025 0.9926346
1.0019698 0.5106823 0.9923759
-0.0095969 0.6384117 1.0137526
0.1151276 0.6405257 1.0148611
0.2394901 0.6406633 1.0143160
0.3639355 0.6390080 1.0117671
0.4889735 0.6366048 1.0078248
0.6149968 0.6348482 1.0033148
0.7417429 0.6345273 0.9991660
0.8693548 0.6364144 0.9964377
0.9978132 0.6407775 0.9958822
-0.0113116 0.7730557 1.0157715
0.1119433 0.7743910 1.0178306
0.2343826 0.7732015 1.0185934
0.3570337 0.7701886 1.0173818
0.4810597 0.7668410 1.0141072
0.6068943 0.7642360 1.0092995
0.7343204 0.7633107 1.0044431
0.8632440 0.7654953 1.0012889
0.9928892 0.7702493 1.0003761
-0.0143394 0.9034014 1.0170427
0.1076690 0.9036833 1.0198121
0.2286642 0.9016127 1.0217674
0.3499477 0.8982065 1.0220429
0.4730453 0.8948470 1.0199281
0.5988443 0.8924229 1.0154749
0.7272482 0.8918520 1.0103510
0.8572363 0.8942286 1.0067822
0.9879045 0.8994172 1.0053565
-0.0175706 1.0313608 1.0174002
0.1038720 1.0309574 1.0204234
0.2243700 1.0286808 1.0229467
0.3451582 1.0255488 1.0241480
0.4678404 1.0226308 1.0231108
0.5935462 1.0206813 1.0196753
0.7222024 1.0206903 1.0152679
0.8526734 1.0235574 1.0118194
0.9839277 1.0292424 1.0100194
