ref/imx226_CNDIYLF_3030_4690K_honeycomb_jzazbz_203.cube
TITLE "4492571536"
LUT_3D_SIZE 9
0.0031710 -0.0123317 -0.0110106
0.1271404 -0.0091567 -0.0120755
0.2493398 -0.0083005 -0.0142289
0.3696361 -0.0112699 -0.0171553
0.4891832 -0.0171500 -0.0196187
0.6099185 -0.0230936 -0.0203853
0.7331234 -0.0271274 -0.0192251
0.8586655 -0.0289053 -0.0169067
0.9855087 -0.0290437 -0.0144356
0.0069078 0.1173973 -0.0081731
0.1313124 0.1208053 -0.0085217
0.2533579 0.1218190 -0.0106184
0.3726760 0.1182352 -0.0142188
0.4911058 0.1113914 -0.0173253
0.6111871 0.1053489 -0.0183000
0.7342175 0.1017590 -0.0170641
0.8598852 0.1006122 -0.0147041
0.9869016 0.1010594 -0.0123573
0.0089188 0.2417467 -0.0054415
0.1334294 0.2435141 -0.0049257
0.2552177 0.2433172 -0.0065469
0.3742240 0.2399204 -0.0101343
0.4926701 0.2348044 -0.0134159
0.6129752 0.2309047 -0.0143677
0.7362746 0.2291870 -0.0131423
0.8620192 0.2293985 -0.0111233
0.9889450 0.2307218 -0.0093469
0.0087490 0.3618839 -0.0037416
0.1329217 0.3608488 -0.0026222
0.2548201 0.3591178 -0.0032648
0.3750019 0.3573869 -0.0055019
0.4943488 0.3558070 -0.0084538
0.6154820 0.3552384 -0.0093475
0.7392855 0.3560650 -0.0083552
0.8649629 0.3579036 -0.0069957
0.9915109 0.3601497 -0.0060643
0.0068265 0.4806785 -0.0033206
0.1308707 0.4775109 -0.0016280
0.2535213 0.4749575 -0.0010069
0.3749705 0.4745603 -0.0021279
0.4958301 0.4764328 -0.0042887
0.6183251 0.4794486 -0.0048182
0.7426163 0.4827817 -0.0041747
0.8681158 0.4861605 -0.0035250
0.9941620 0.4892902 -0.0033638
0.0039486 0.6000780 -0.0039232
0.1277592 0.5952060 -0.0021976
0.2509821 0.5920748 -0.0011172
0.3738631 0.5928726 -0.0012868
0.4969419 0.5976949 -0.0019631
0.6207863 0.6037483 -0.0019797
0.7454485 0.6092507 -0.0016256
0.8707664 0.6139745 -0.0014674
0.9963693 0.6179360 -0.0017540
0.0011589 0.7216078 -0.0049344
0.1245918 0.7151821 -0.0036224
0.2482194 0.7113042 -0.0025196
0.3724719 0.7128709 -0.0018610
0.4972756 0.7197709 -0.0014531
0.6222407 0.7282710 -0.0010280
0.7472744 0.7355520 -0.0007305
0.8724776 0.7413509 -0.0007532
0.9977830 0.7460393 -0.0011574
-0.0007074 0.8468030 -0.0056798
0.1226089 0.8400052 -0.0047422
0.2464992 0.8358839 -0.0037462
0.3714405 0.8374698 -0.0027425
0.4971054 0.8447432 -0.0018377
0.6227279 0.8540019 -0.0011521
0.7480226 0.8621078 -0.0008019
0.8731839 0.8685750 -0.0008077
0.9983422 0.8738020 -0.0011372
-0.0015914 0.9757136 -0.0058085
0.1219077 0.9698851 -0.0050576
0.2460000 0.9664482 -0.0041661
0.3710566 0.9676837 -0.0031526
0.4967857 0.9736719 -0.0021837
0.6224994 0.9817958 -0.0014684
0.7478795 0.9895297 -0.0010927
0.8730612 0.9960982 -0.0010274
0.9981936 1.0015516 -0.0012305
0.0000358 -0.0130895 0.1150256
0.1233452 -0.0108921 0.1135372
0.2450636 -0.0111895 0.1111644
0.3653512 -0.0147277 0.1083037
0.4853248 -0.0201832 0.1059906
0.6066827 -0.0250920 0.1053693
0.7307007 -0.0281299 0.1068187
0.8571878 -0.0291174 0.1095674
0.9848916 -0.0285861 0.1124093
0.0034350 0.1173551 0.1172651
0.1269753 0.1195930 0.1163003
0.2483722 0.1188189 0.1139465
0.3678040 0.1141527 0.1107057
0.4870382 0.1078948 0.1080661
0.6078852 0.1034318 0.1073394
0.7317926 0.1012199 0.1089239
0.8584876 0.1009826 0.1117825
0.9863934 0.1020568 0.1145649
0.0052184 0.2424831 0.1193340
0.1288354 0.2434070 0.1191163
0.2499108 0.2413021 0.1171355
0.3694474 0.2370048 0.1142370
0.4893640 0.2332442 0.1120027
0.6104712 0.2307017 0.1115162
0.7344428 0.2298694 0.1131735
0.8610033 0.2306898 0.1156607
0.9886793 0.2324243 0.1178051
0.0049892 0.3631891 0.1204022
0.1283355 0.3620123 0.1206477
0.2498023 0.3601225 0.1195291
0.3708508 0.3584183 0.1179782
0.4918804 0.3576123 0.1165367
0.6140136 0.3574596 0.1166288
0.7383696 0.3584439 0.1183221
0.8645446 0.3604099 0.1201822
0.9916056 0.3627314 0.1213620
0.0032455 0.4823824 0.1204489
0.1267202 0.4797497 0.1212802
0.2492159 0.4782706 0.1214111
0.3713462 0.4783475 0.1207530
0.4937903 0.4803080 0.1201411
0.6174977 0.4832554 0.1210063
0.7423742 0.4864826 0.1225814
0.8682902 0.4898037 0.1238054
0.9946508 0.4927611 0.1241421
0.0007371 0.6019150 0.1199108
0.1241854 0.5975745 0.1209590
0.2475010 0.5954881 0.1218998
0.3711397 0.5972377 0.1221815
0.4955583 0.6024183 0.1227501
0.6203399 0.6082458 0.1238611
0.7456116 0.6136875 0.1250202
0.8713407 0.6183459 0.1256856
0.9971074 0.6220043 0.1255435
-0.0016033 0.7233554 0.1193576
0.1215519 0.7168209 0.1202325
0.2453295 0.7133229 0.1214781
0.3703977 0.7157442 0.1227458
0.4962899 0.7234920 0.1239177
0.6221077 0.7326386 0.1250382
0.7476487 0.7401222 0.1258051
0.8731285 0.7458457 0.1260966
0.9984675 0.7501947 0.1258131
-0.0030543 0.8485281 0.1192554
0.1200976 0.8411706 0.1199872
0.2441387 0.8366907 0.1212366
0.3697461 0.8385547 0.1228298
0.4963862 0.8470711 0.1242153
0.6227426 0.8575617 0.1252016
0.7483682 0.8661517 0.1257290
0.8736029 0.8726243 0.1258577
0.9987071 0.8776246 0.1255990
-0.0036413 0.9774864 0.1197617
0.1197894 0.9710623 0.1204765
0.2440296 0.9670159 0.1216204
0.3696175 0.9682835 0.1230674
0.4961005 0.9751897 0.1243519
0.6223565 0.9843852 0.1251708
0.7479087 0.9927185 0.1255522
0.8730523 0.9994665 0.1256221
0.9981334 1.0049093 0.1254139
-0.0039296 -0.0168926 0.2415855
0.1186317 -0.0164558 0.2398341
0.2399094 -0.0184805 0.2376027
0.3606434 -0.0223974 0.2354191
0.4819739 -0.0264118 0.2339491
0.6049555 -0.0289119 0.2337552
0.7302422 -0.0297660 0.2351290
0.8574949 -0.0293415 0.2376052
0.9856175 -0.0279513 0.2401495
-0.0009057 0.1146485 0.2429150
0.1216718 0.1149871 0.2413382
0.2425775 0.1119888 0.2391300
0.3628413 0.1068953 0.2369428
0.4840907 0.1025466 0.2357649
0.6068132 0.1006903 0.2357237
0.7318336 0.1006872 0.2370701
0.8592108 0.1018113 0.2396119
0.9873880 0.1035119 0.2421417
0.0007618 0.2414113 0.2441853
0.1233695 0.2409502 0.2430856
0.2443269 0.2375212 0.2412002
0.3651741 0.2336749 0.2395012
0.4873652 0.2315054 0.2390954
0.6105595 0.2308535 0.2395813
0.7351744 0.2312220 0.2409915
0.8620521 0.2327526 0.2432118
0.9897924 0.2346622 0.2451845
0.0009189 0.3639788 0.2448615
0.1236619 0.3628740 0.2443043
0.2450591 0.3610895 0.2428062
0.3671972 0.3598797 0.2419640
0.4905181 0.3594860 0.2423991
0.6145626 0.3600943 0.2435096
0.7395532 0.3616859 0.2454354
0.8657238 0.3635660 0.2473611
0.9926810 0.3656148 0.2485388
-0.0001861 0.4850234 0.2446867
0.1230114 0.4836970 0.2447147
0.2453703 0.4832693 0.2441356
0.3685058 0.4835162 0.2441441
0.4930099 0.4851439 0.2453285
0.6178710 0.4876852 0.2468253
0.7433343 0.4907381 0.2488579
0.8693495 0.4936784 0.2505235
0.9956227 0.4962071 0.2510444
-0.0018682 0.6063973 0.2440977
0.1215618 0.6037543 0.2445320
0.2451291 0.6034772 0.2452926
0.3693984 0.6057002 0.2461629
0.4946009 0.6093381 0.2476011
0.6201458 0.6136398 0.2491697
0.7460709 0.6185088 0.2508711
0.8721165 0.6227729 0.2520378
0.9979115 0.6259342 0.2521059
-0.0033782 0.7292986 0.2438962
0.1199301 0.7244381 0.2445010
0.2438559 0.7224549 0.2459427
0.3689942 0.7252137 0.2477130
0.4951482 0.7310146 0.2493233
0.6215162 0.7383122 0.2507464
0.7475715 0.7449965 0.2517119
0.8734736 0.7503758 0.2522417
0.9989145 0.7542480 0.2521042
-0.0044245 0.8548748 0.2444225
0.1189167 0.8489081 0.2451161
0.2429601 0.8452148 0.2467583
0.3684546 0.8465522 0.2489546
0.4953485 0.8538430 0.2505398
0.6219819 0.8628321 0.2515061
0.7479154 0.8706201 0.2519452
0.8734263 0.8767842 0.2520602
0.9986228 0.8814033 0.2518404
-0.0050186 0.9832213 0.2456241
0.1185135 0.9776122 0.2464603
0.2427358 0.9737513 0.2480298
0.3683101 0.9743427 0.2499775
0.4949874 0.9803236 0.2513984
0.6214496 0.9887157 0.2520211
0.7471379 0.9965650 0.2521694
0.8723680 1.0030671 0.2520906
0.9975280 1.0082800 0.2517952
-0.0078214 -0.0233130 0.3695139
0.1144036 -0.0248155 0.3681323
0.2356350 -0.0283479 0.3665456
0.3570767 -0.0322395 0.3652964
0.4801634 -0.0340158 0.3647161
0.6054165 -0.0331695 0.3648731
0.7320676 -0.0314400 0.3656825
0.8597398 -0.0292970 0.3670710
0.9877999 -0.0269280 0.3685527
-0.0049630 0.1095078 0.3700267
0.1173765 0.1082660 0.3685214
0.2383973 0.1040691 0.3669026
0.3596203 0.0993094 0.3658554
0.4829116 0.0975565 0.3657605
0.6083147 0.0990468 0.3662932
0.7346541 0.1010254 0.3671169
0.8621033 0.1033059 0.3685080
0.9899554 0.1055782 0.3700197
-0.0031843 0.2385787 0.3705873
0.1193359 0.2372184 0.3693049
0.2408831 0.2337028 0.3679078
0.3631482 0.2309476 0.3673084
0.4867689 0.2298647 0.3675303
0.6120547 0.2309493 0.3684042
0.7381447 0.2331435 0.3695519
0.8650583 0.2354373 0.3709698
0.9923006 0.2374146 0.3722264
-0.0025695 0.3641555 0.3708318
0.1202213 0.3631691 0.3699199
0.2426209 0.3619673 0.3688136
0.3660362 0.3610769 0.3687716
0.4902820 0.3609550 0.3692985
0.6156506 0.3623256 0.3704516
0.7416814 0.3643979 0.3720632
0.8680463 0.3665048 0.3736254
0.9946205 0.3683930 0.3746545
-0.0028278 0.4885413 0.3704223
0.1206137 0.4881729 0.3701521
0.2438360 0.4882523 0.3697581
0.3679706 0.4886743 0.3701824
0.4926998 0.4898973 0.3709422
0.6182623 0.4918331 0.3723047
0.7443056 0.4941483 0.3739857
0.8705713 0.4966206 0.3756137
0.9966920 0.4987839 0.3764143
-0.0033264 0.6134213 0.3697152
0.1205077 0.6124475 0.3699759
0.2444789 0.6131339 0.3706329
0.3688034 0.6143003 0.3715658
0.4936524 0.6158944 0.3727309
0.6195050 0.6189984 0.3740440
0.7459210 0.6227075 0.3755457
0.8722563 0.6261115 0.3768316
0.9981421 0.6287187 0.3771606
-0.0039194 0.7389899 0.3695799
0.1199213 0.7366880 0.3701252
0.2438288 0.7356945 0.3716039
0.3683685 0.7371002 0.3732452
0.4936124 0.7399811 0.3746219
0.6197229 0.7443407 0.3757744
0.7462765 0.7495321 0.3766865
0.8726510 0.7540418 0.3772682
0.9983914 0.7572891 0.3772573
-0.0048126 0.8651552 0.3704475
0.1189568 0.8618364 0.3712143
0.2427640 0.8592160 0.3730972
0.3673503 0.8593499 0.3753961
0.4932448 0.8634288 0.3768085
0.6196046 0.8692044 0.3774257
0.7457900 0.8751912 0.3776559
0.8717848 0.8804388 0.3776420
0.9974463 0.8844961 0.3773836
-0.0058034 0.9923145 0.3721623
0.1178968 0.9886516 0.3732065
0.2418301 0.9856391 0.3751237
0.3666301 0.9850517 0.3773694
0.4925763 0.9883929 0.3787780
0.6188798 0.9946083 0.3788957
0.7446631 1.0009236 0.3786655
0.8702713 1.0065531 0.3783283
0.9959023 1.0112774 0.3778332
-0.0112491 -0.0317088 0.4989524
0.1111460 -0.0352823 0.4987641
0.2330190 -0.0397752 0.4983474
0.3556732 -0.0427639 0.4979229
0.4807227 -0.0413980 0.4974989
0.6076991 -0.0372141 0.4970846
0.7353368 -0.0329171 0.4967979
0.8632588 -0.0289417 0.4967251
0.9910268 -0.0255811 0.4968274
-0.0085347 0.1021354 0.4988252
0.1142771 0.0995603 0.4983112
0.2362479 0.0953899 0.4976177
0.3588044 0.0921021 0.4972678
0.4838257 0.0932158 0.4971677
0.6107131 0.0971287 0.4971264
0.7382201 0.1011690 0.4970717
0.8660551 0.1049961 0.4971486
0.9935374 0.1079511 0.4973856
-0.0065257 0.2341517 0.4985315
0.1168483 0.2326357 0.4979361
0.2396756 0.2300467 0.4971809
0.3631623 0.2284041 0.4968784
0.4876475 0.2283559 0.4968827
0.6138862 0.2308314 0.4971277
0.7411625 0.2344567 0.4975337
0.8686452 0.2378109 0.4979341
0.9956080 0.2402359 0.4982910
-0.0054706 0.3639316 0.4980408
0.1183109 0.3631023 0.4976122
0.2420455 0.3622720 0.4970361
0.3661655 0.3620308 0.4966762
0.4911237 0.3628039 0.4967187
0.6169467 0.3643169 0.4972326
0.7434924 0.3663585 0.4980581
0.8702761 0.3686294 0.4988348
0.9968090 0.3706932 0.4993911
-0.0047968 0.4929880 0.4972903
0.1193201 0.4927075 0.4971417
0.2435598 0.4928168 0.4969313
0.3679211 0.4931615 0.4967932
0.4929721 0.4940811 0.4970494
0.6187080 0.4954797 0.4977416
0.7449094 0.4970782 0.4986710
0.8711465 0.4985111 0.4995263
0.9973724 0.5003556 0.5001605
-0.0041647 0.6220152 0.4965374
0.1201343 0.6218986 0.4966732
0.2442890 0.6218378 0.4970351
0.3683995 0.6215433 0.4976584
0.4930835 0.6221033 0.4982829
0.6186137 0.6237829 0.4988574
0.7449826 0.6259249 0.4995274
0.8715175 0.6282165 0.5001690
0.9975520 0.6302684 0.5005994
-0.0041755 0.7499375 0.4964965
0.1201326 0.7496892 0.4968558
0.2438216 0.7484791 0.4980654
0.3678937 0.7480818 0.4992721
0.4922082 0.7484376 0.5001854
0.6176030 0.7503286 0.5006554
0.7441843 0.7536793 0.5007633
0.8705762 0.7566548 0.5010543
0.9967342 0.7591583 0.5011556
-0.0051747 0.8764020 0.4975761
0.1188058 0.8753155 0.4984001
0.2422304 0.8732897 0.5002372
0.3659474 0.8719393 0.5022290
0.4906166 0.8730525 0.5031763
0.6163708 0.8764782 0.5028780
0.7423071 0.8798936 0.5026639
0.8686614 0.8834399 0.5024895
0.9950864 0.8867223 0.5021390
-0.0066338 1.0024363 0.4995504
0.1170280 1.0006196 0.5008411
0.2404867 0.9984871 0.5028837
0.3642706 0.9970283 0.5050431
0.4890252 0.9978645 0.5061681
0.6148839 1.0018238 0.5055506
0.7406147 1.0058483 0.5048652
0.8667669 1.0098616 0.5042097
0.9932452 1.0137862 0.5034390
-0.0140123 -0.0401855 0.6289971
0.1087914 -0.0457398 0.6303799
0.2319254 -0.0505718 0.6313892
0.3564892 -0.0517717 0.6315334
0.4833259 -0.0473975 0.6303963
0.6112900 -0.0404905 0.6284983
0.7394688 -0.0337750 0.6265934
0.8673834 -0.0282497 0.6250841
0.9947253 -0.0240909 0.6240771
-0.0116417 0.0941416 0.6283985
0.1116526 0.0897629 0.6294171
0.2352346 0.0862173 0.6299232
0.3598828 0.0859312 0.6294753
0.4863266 0.0894290 0.6284674
0.6138247 0.0949626 0.6270380
0.7421462 0.1013174 0.6254211
0.8702932 0.1066428 0.6241653
0.9974360 0.1102072 0.6234406
-0.0094751 0.2290230 0.6271557
0.1145433 0.2265471 0.6276781
0.2390071 0.2251351 0.6275935
0.3640045 0.2255576 0.6268312
0.4895332 0.2272000 0.6260410
0.6163208 0.2306824 0.6252533
0.7441239 0.2353903 0.6243462
0.8721611 0.2398590 0.6234891
0.9990563 0.2427887 0.6230366
-0.0077204 0.3635790 0.6257631
0.1168275 0.3627250 0.6258805
0.2418373 0.3624676 0.6254768
0.3668777 0.3626039 0.6247677
0.4923330 0.3636213 0.6241104
0.6183972 0.3655247 0.6236502
0.7452395 0.3679693 0.6235179
0.8722858 0.3705294 0.6233486
0.9990107 0.3729314 0.6231095
-0.0061476 0.4973694 0.6247083
0.1185271 0.4972872 0.6246492
0.2433341 0.4969529 0.6241545
0.3682336 0.4966980 0.6236128
0.4934384 0.4970332 0.6231954
0.6191339 0.4981284 0.6229643
0.7452849 0.4992548 0.6230601
0.8715231 0.5004585 0.6232712
0.9979930 0.5021704 0.6231803
-0.0051315 0.6295290 0.6241645
0.1191007 0.6292267 0.6244018
0.2435662 0.6286874 0.6240370
0.3679961 0.6278590 0.6238799
0.4926224 0.6273028 0.6238048
0.6178822 0.6276053 0.6236611
0.7440272 0.6290483 0.6233379
0.8703761 0.6303219 0.6232174
0.9967011 0.6317163 0.6233206
-0.0051797 0.7589325 0.6243912
0.1188380 0.7589834 0.6248662
0.2424689 0.7574865 0.6255406
0.3664026 0.7560885 0.6259865
0.4905180 0.7551547 0.6262057
0.6155603 0.7555200 0.6257193
0.7415319 0.7571250 0.6246452
0.8679616 0.7587341 0.6243216
0.9946941 0.7605499 0.6243371
-0.0063532 0.8857084 0.6256463
0.1173336 0.8855528 0.6267030
0.2404681 0.8839671 0.6282537
0.3636222 0.8818066 0.6297524
0.4876217 0.8812041 0.6300203
0.6127758 0.8824680 0.6286924
0.7384152 0.8838425 0.6275179
0.8651212 0.8859068 0.6267917
0.9923344 0.8884325 0.6262812
-0.0080267 1.0113280 0.6276217
0.1152598 1.0105019 0.6292835
0.2381616 1.0089197 0.6313872
0.3611597 1.0073019 0.6332274
0.4850468 1.0071414 0.6335383
0.6102250 1.0087383 0.6321759
0.7360549 1.0105066 0.6308386
0.8628507 1.0129036 0.6296453
0.9902465 1.0159658 0.6285843
-0.0156512 -0.0460007 0.7583557
0.1076534 -0.0525834 0.7609223
0.2320070 -0.0572987 0.7630726
0.3584519 -0.0570069 0.7637179
0.4868756 -0.0508008 0.7618235
0.6156487 -0.0421193 0.7581642
0.7440052 -0.0338415 0.7544483
0.8716062 -0.0272988 0.7516794
0.9983757 -0.0225978 0.7500017
-0.0136376 0.0885500 0.7575012
0.1099415 0.0829065 0.7596891
0.2346398 0.0793775 0.7613466
0.3612803 0.0807114 0.7612869
0.4895530 0.0867909 0.7589567
0.6180779 0.0941421 0.7555273
0.7467184 0.1019428 0.7518125
0.8745586 0.1081175 0.7492213
1.0011266 0.1120760 0.7480089
-0.0113598 0.2254005 0.7556429
0.1128847 0.2219874 0.7570152
0.2383773 0.2206111 0.7577300
0.3650214 0.2224333 0.7567579
0.4919705 0.2261662 0.7545731
0.6194349 0.2307971 0.7522969
0.7477403 0.2364043 0.7494474
0.8756431 0.2414867 0.7472140
1.0022121 0.2448010 0.7463713
-0.0090342 0.3634296 0.7535487
0.1158358 0.3624514 0.7540425
0.2417313 0.3624100 0.7538109
0.3678257 0.3629471 0.7525479
0.4938441 0.3642964 0.7508861
0.6203451 0.3666215 0.7492079
0.7472750 0.3693376 0.7478428
0.8743618 0.3722501 0.7465357
1.0011456 0.3749949 0.7457565
-0.0070932 0.5005842 0.7521234
0.1178126 0.5010101 0.7520558
0.2432065 0.5008343 0.7511957
0.3685291 0.4997125 0.7500860
0.4939641 0.4994975 0.7487922
0.6197520 0.5000647 0.7475325
0.7458950 0.5011644 0.7468538
0.8721846 0.5024526 0.7464329
0.9988810 0.5042123 0.7457335
-0.0062731 0.6346252 0.7518155
0.1179073 0.6349222 0.7520454
0.2422735 0.6338297 0.7514477
0.3670583 0.6323302 0.7502970
0.4919377 0.6312252 0.7491579
0.6171480 0.6307942 0.7482631
0.7431476 0.6314392 0.7472085
0.8695548 0.6321371 0.7463205
0.9962662 0.6333854 0.7459981
-0.0067847 0.7648273 0.7525016
0.1166336 0.7647834 0.7534500
0.2397369 0.7626773 0.7541216
0.3637248 0.7608025 0.7536004
0.4882629 0.7594902 0.7526105
0.6133635 0.7593858 0.7509744
0.7391214 0.7596480 0.7490821
0.8659431 0.7604452 0.7478258
0.9932209 0.7620663 0.7474916
-0.0081997 0.8921467 0.7539374
0.1148280 0.8920657 0.7555273
0.2374214 0.8904730 0.7570882
0.3603098 0.8882866 0.7579246
0.4843132 0.8869610 0.7572342
0.6092744 0.8868690 0.7549102
0.7351562 0.8870798 0.7526357
0.8623778 0.8881599 0.7510108
0.9901969 0.8901885 0.7502344
-0.0098643 1.0181092 0.7557523
0.1128694 1.0176676 0.7578491
0.2351705 1.0163837 0.7600825
0.3576191 1.0150173 0.7615616
0.4810190 1.0144529 0.7611099
0.6059578 1.0143523 0.7589568
0.7322562 1.0145853 0.7566479
0.8597069 1.0157844 0.7547619
0.9878278 1.0181984 0.7534251
-0.0159471 -0.0478038 0.8861962
0.1080734 -0.0539302 0.8891273
0.2333737 -0.0579747 0.8916659
0.3608312 -0.0572475 0.8925400
0.4900856 -0.0511279 0.8904796
0.6195470 -0.0420732 0.8858146
0.7480317 -0.0332063 0.8807719
0.8752604 -0.0261802 0.8771028
1.0014505 -0.0211966 0.8750645
-0.0141214 0.0868985 0.8852818
0.1100124 0.0814573 0.8878801
0.2355179 0.0781875 0.8900516
0.3632151 0.0794683 0.8904957
0.4926654 0.0856216 0.8879214
0.6224786 0.0945336 0.8823729
0.7512336 0.1030378 0.8766555
0.8783605 0.1093714 0.8731642
1.0041746 0.1134972 0.8718220
-0.0118808 0.2244194 0.8832816
0.1127305 0.2209979 0.8849684
0.2387035 0.2194477 0.8860432
0.3662841 0.2210455 0.8853840
0.4946511 0.2254347 0.8824159
0.6233754 0.2316102 0.8775811
0.7517909 0.2378666 0.8727765
0.8789637 0.2428990 0.8697506
1.0048452 0.2462408 0.8690052
-0.0095370 0.3635340 0.8809883
0.1155910 0.3625518 0.8815748
0.2417702 0.3624196 0.8812719
0.3687594 0.3634110 0.8795496
0.4958407 0.3651440 0.8766430
0.6227779 0.3676309 0.8735922
0.7497510 0.3707101 0.8709231
0.8767258 0.3738261 0.8684478
1.0031323 0.3765775 0.8676962
-0.0078420 0.5017965 0.8794129
0.1172379 0.5024924 0.8793197
0.2428400 0.5026369 0.8781551
0.3687515 0.5021331 0.8759803
0.4945875 0.5014394 0.8735288
0.6206959 0.5016447 0.8714376
0.7470032 0.5028134 0.8697867
0.8733556 0.5039420 0.8685010
0.9999935 0.5058531 0.8678340
-0.0075067 0.6367992 0.8791377
0.1167767 0.6378095 0.8792787
0.2411294 0.6373686 0.8784157
0.3659424 0.6358988 0.8764431
0.4909983 0.6338980 0.8742681
0.6167300 0.6328997 0.8723937
0.7428517 0.6329789 0.8705437
0.8693841 0.6335360 0.8693045
0.9964061 0.6350550 0.8688374
-0.0084757 0.7678882 0.8800173
0.1147991 0.7684327 0.8810250
0.2377594 0.7672258 0.8814686
0.3613521 0.7653129 0.8806491
0.4859804 0.7634590 0.8786516
0.6115374 0.7624558 0.8758245
0.7377669 0.7617404 0.8733172
0.8649955 0.7623008 0.8716280
0.9926510 0.7639408 0.8710322
-0.0100673 0.8961174 0.8815401
0.1125676 0.8962750 0.8833415
0.2347584 0.8951154 0.8849296
0.3573738 0.8934691 0.8853949
0.4812571 0.8921451 0.8839171
0.6065403 0.8911425 0.8807793
0.7331855 0.8903268 0.8776152
0.8609242 0.8906640 0.8754511
0.9891490 0.8924037 0.8744307
-0.0116655 1.0228375 0.8832071
0.1107172 1.0227231 0.8854343
0.2326125 1.0217895 0.8876360
0.3547432 1.0207427 0.8888026
0.4779948 1.0199460 0.8879558
0.6031248 1.0190363 0.8852807
0.7299961 1.0183508 0.8821896
0.8579763 1.0188204 0.8797911
0.9865576 1.0208725 0.8782347
-0.0153485 -0.0463539 1.0124431
0.1095099 -0.0510522 1.0149752
0.2355301 -0.0539140 1.0170694
0.3633005 -0.0531039 1.0176705
0.4925620 -0.0480138 1.0156781
0.6220819 -0.0400566 1.0111961
0.7505760 -0.0317363 1.0060417
0.8775941 -0.0248839 1.0021467
1.0034528 -0.0199483 1.0000144
-0.0136380 0.0883245 1.0115525
0.1113058 0.0841437 1.0137760
0.2374699 0.0817363 1.0155586
0.3655012 0.0828413 1.0157753
0.4951889 0.0880254 1.0131568
0.6252544 0.0960607 1.0075366
0.7540085 0.1041881 1.0013525
0.8807368 0.1103950 0.9974543
1.0060909 0.1145484 0.9960789
-0.0116703 0.2254666 1.0097065
0.1135373 0.2227634 1.0111177
0.2398678 0.2214768 1.0119001
0.3677290 0.2227266 1.0111454
0.4968585 0.2267761 1.0079786
0.6263470 0.2328965 1.0022717
0.7548692 0.2392067 0.9962080
0.8813545 0.2440030 0.9929549
1.0066117 0.2472873 0.9924481
-0.0097990 0.3639627 1.0075859
0.1156685 0.3631677 1.0079834
0.2419890 0.3630672 1.0074200
0.3692464 0.3640483 1.0054370
0.4971156 0.3660912 1.0020054
0.6249422 0.3688650 0.9976719
0.7523355 0.3720809 0.9934693
0.8789085 0.3751705 0.9907837
1.0046947 0.3778966 0.9905430
-0.0086855 0.5017709 1.0060907
0.1165805 0.5024329 1.0058607
0.2422979 0.5028821 1.0044566
0.3684752 0.5030561 1.0017864
0.4949551 0.5030365 0.9984948
0.6216425 0.5032271 0.9953114
0.7482154 0.5039127 0.9927421
0.8746726 0.5052034 0.9910049
1.0011503 0.5074522 0.9907146
-0.0088075 0.6369600 1.0058039
0.1156417 0.6380916 1.0057415
0.2401253 0.6382996 1.0046415
0.3649765 0.6375894 1.0023452
0.4904191 0.6362930 0.9994295
0.6165467 0.6350372 0.9965442
0.7430017 0.6345129 0.9942535
0.8698397 0.6351212 0.9927916
0.9970420 0.6369597 0.9923904
-0.0099733 0.7688843 1.0066600
0.1134640 0.7697572 1.0073530
0.2366142 0.7694223 1.0074161
0.3601746 0.7682230 1.0063161
0.4848024 0.7667304 1.0039120
0.6106688 0.7652107 1.0006921
0.7375058 0.7642095 0.9978342
0.8650347 0.7645993 0.9959703
0.9929155 0.7662546 0.9952826
-0.0115646 0.8981620 1.0081474
0.1111662 0.8986612 1.0096030
0.2334498 0.8980874 1.0107757
0.3560908 0.8969652 1.0108447
0.4799598 0.8957479 1.0091643
0.6055720 0.8944301 1.0059744
0.7327504 0.8933693 1.0026245
0.8607812 0.8935118 1.0002886
0.9892231 0.8951732 0.9991446
-0.0130747 1.0257754 1.0097115
0.1093908 1.0260273 1.0115878
0.2313925 1.0254770 1.0133191
0.3536594 1.0246180 1.0140558
0.4771328 1.0236767 1.0130424
0.6024976 1.0225716 1.0104193
0.7296191 1.0217593 1.0073226
0.8578254 1.0221423 1.0048353
0.9865766 1.0241108 1.0032234
