ref/imx226_5500K_jzazbz_203.cube
TITLE "4480882448"
LUT_3D_SIZE 9
0.0061179 -0.0186520 -0.0091087
0.1311977 -0.0121146 -0.0090629
0.2534393 -0.0101146 -0.0114045
0.3723656 -0.0151937 -0.0162670
0.4894281 -0.0257129 -0.0218809
0.6074389 -0.0366713 -0.0256890
0.7285305 -0.0442752 -0.0264018
0.8529940 -0.0476338 -0.0245269
0.9797440 -0.0477800 -0.0214264
0.0093169 0.1136500 -0.0069114
0.1347615 0.1207028 -0.0060843
0.2567958 0.1229304 -0.0083348
0.3746449 0.1167999 -0.0140797
0.4904578 0.1046100 -0.0206409
0.6078567 0.0933041 -0.0246789
0.7289896 0.0864401 -0.0250777
0.8538951 0.0842376 -0.0227931
0.9811351 0.0851784 -0.0194819
0.0087174 0.2361212 -0.0071627
0.1337364 0.2403920 -0.0059802
0.2552094 0.2405899 -0.0080073
0.3728895 0.2347608 -0.0134467
0.4893999 0.2255372 -0.0192393
0.6079272 0.2181560 -0.0221355
0.7302186 0.2149022 -0.0215657
0.8558951 0.2152914 -0.0189777
0.9834919 0.2178438 -0.0159194
0.0043049 0.3503811 -0.0103809
0.1281991 0.3495237 -0.0094876
0.2495588 0.3472930 -0.0106814
0.3690606 0.3446283 -0.0135967
0.4877457 0.3418664 -0.0171906
0.6085259 0.3410105 -0.0181831
0.7326058 0.3427725 -0.0164396
0.8591090 0.3463055 -0.0137690
0.9867909 0.3505319 -0.0113598
-0.0023765 0.4621486 -0.0155370
0.1207798 0.4572636 -0.0147151
0.2429320 0.4539410 -0.0144310
0.3644131 0.4541144 -0.0149664
0.4860227 0.4581563 -0.0156581
0.6098313 0.4643314 -0.0141604
0.7357161 0.4708748 -0.0113732
0.8628833 0.4772857 -0.0087640
0.9904406 0.4830152 -0.0070483
-0.0096592 0.5762495 -0.0213718
0.1127705 0.5687734 -0.0209503
0.2355162 0.5649473 -0.0198904
0.3591122 0.5675500 -0.0183518
0.4844056 0.5770593 -0.0156002
0.6111586 0.5886457 -0.0117031
0.7385639 0.5990398 -0.0080353
0.8661824 0.6077575 -0.0054371
0.9935362 0.6147434 -0.0041482
-0.0159621 0.6953880 -0.0266212
0.1053985 0.6858324 -0.0272745
0.2281997 0.6811941 -0.0264042
0.3538154 0.6855085 -0.0231672
0.4821714 0.6982585 -0.0177144
0.6114547 0.7136811 -0.0117786
0.7401891 0.7270269 -0.0071722
0.8681296 0.7374182 -0.0043707
0.9953351 0.7453829 -0.0031334
-0.0198515 0.8212015 -0.0298885
0.1010514 0.8112165 -0.0312019
0.2238742 0.8061441 -0.0306549
0.3503432 0.8103979 -0.0269223
0.4801072 0.8237373 -0.0204341
0.6107270 0.8404291 -0.0135382
0.7402377 0.8550741 -0.0083298
0.8684043 0.8663982 -0.0052134
0.9955914 0.8750512 -0.0037469
-0.0211324 0.9532402 -0.0306857
0.1002244 0.9447365 -0.0318250
0.2234185 0.9405237 -0.0312230
0.3498642 0.9440323 -0.0277740
0.4792880 0.9553364 -0.0218451
0.6096243 0.9701612 -0.0154322
0.7390850 0.9840234 -0.0103538
0.8673044 0.9953363 -0.0070833
0.9945448 1.0042400 -0.0053351
0.0036365 -0.0186900 0.1178252
0.1278272 -0.0137667 0.1170970
0.2491533 -0.0136957 0.1139672
0.3675625 -0.0198932 0.1085816
0.4846158 -0.0302137 0.1027059
0.6029542 -0.0402324 0.0988419
0.7247688 -0.0467334 0.0984742
0.8503435 -0.0488463 0.1011196
0.9782843 -0.0476794 0.1050666
0.0067549 0.1145792 0.1196589
0.1310540 0.1196184 0.1194659
0.2518108 0.1189017 0.1161734
0.3691072 0.1109878 0.1100382
0.4853401 0.0994035 0.1036199
0.6033261 0.0898336 0.0997125
0.7252812 0.0845752 0.0997204
0.8514151 0.0838124 0.1028780
0.9799041 0.0860620 0.1071437
0.0060823 0.2381234 0.1188689
0.1299679 0.2407861 0.1190003
0.2499894 0.2375898 0.1157681
0.3675258 0.2300029 0.1103887
0.4853684 0.2225672 0.1056510
0.6046795 0.2170560 0.1031831
0.7276318 0.2151019 0.1041995
0.8542966 0.2165794 0.1075246
0.9829212 0.2200682 0.1113501
0.0015162 0.3531099 0.1148885
0.1245129 0.3518279 0.1148381
0.2451349 0.3487129 0.1129450
0.3652711 0.3456666 0.1105968
0.4854977 0.3439133 0.1084395
0.6072840 0.3440141 0.1084196
0.7319444 0.3462395 0.1109042
0.8590120 0.3501150 0.1141901
0.9873195 0.3546329 0.1170132
-0.0053288 0.4650030 0.1089909
0.1173466 0.4608048 0.1091024
0.2395046 0.4590401 0.1092159
0.3615959 0.4595304 0.1091204
0.4848065 0.4636786 0.1100392
0.6101224 0.4704426 0.1132889
0.7367790 0.4771454 0.1172991
0.8644390 0.4836057 0.1206236
0.9922770 0.4891049 0.1224565
-0.0126954 0.5787061 0.1027269
0.1093743 0.5719490 0.1024764
0.2323753 0.5697158 0.1036528
0.3568392 0.5734113 0.1058907
0.4841353 0.5841485 0.1106566
0.6124964 0.5964063 0.1165329
0.7409119 0.6071556 0.1215824
0.8690644 0.6158793 0.1248622
0.9964228 0.6222908 0.1260339
-0.0189217 0.6973871 0.0975243
0.1017580 0.6874313 0.0959610
0.2245907 0.6833292 0.0968796
0.3515084 0.6892987 0.1013473
0.4821480 0.7043643 0.1090076
0.6134288 0.7216950 0.1171039
0.7432982 0.7358854 0.1229740
0.8716192 0.7461957 0.1261851
0.9985889 0.7533870 0.1271187
-0.0225025 0.8232350 0.0947975
0.0976025 0.8120865 0.0925775
0.2202417 0.8064973 0.0930482
0.3479178 0.8118921 0.0980488
0.4799875 0.8279375 0.1066853
0.6127652 0.8474204 0.1155942
0.7433587 0.8633203 0.1218342
0.8716686 0.8745938 0.1250856
0.9985027 0.8825714 0.1261606
-0.0233628 0.9556742 0.0947866
0.0973836 0.9460799 0.0930356
0.2203592 0.9409733 0.0935515
0.3476902 0.9449731 0.0979462
0.4790112 0.9584145 0.1056011
0.6111483 0.9756281 0.1135858
0.7414647 0.9907462 0.1194037
0.8697268 1.0022331 0.1226691
0.9967047 1.0108385 0.1240623
-0.0008011 -0.0240643 0.2441623
0.1222056 -0.0221083 0.2425691
0.2425321 -0.0248581 0.2388694
0.3609194 -0.0317988 0.2337554
0.4791196 -0.0401711 0.2288120
0.5991311 -0.0469606 0.2257710
0.7225329 -0.0504001 0.2258360
0.8493315 -0.0502000 0.2287085
0.9781554 -0.0473743 0.2327980
0.0023467 0.1106563 0.2454663
0.1252058 0.1123611 0.2439736
0.2447342 0.1080039 0.2399001
0.3622782 0.0991731 0.2343961
0.4804360 0.0904300 0.2297768
0.6004061 0.0846595 0.2270102
0.7238184 0.0825331 0.2271964
0.8510814 0.0840006 0.2304524
0.9802512 0.0875724 0.2348199
0.0020316 0.2367693 0.2443512
0.1244767 0.2368006 0.2430099
0.2437856 0.2312698 0.2391871
0.3622333 0.2238016 0.2348534
0.4824102 0.2187591 0.2324046
0.6040320 0.2164354 0.2313956
0.7277415 0.2163141 0.2322179
0.8549479 0.2190263 0.2353596
0.9838410 0.2230499 0.2391369
-0.0018276 0.3548995 0.2403612
0.1204419 0.3533683 0.2393892
0.2407761 0.3498504 0.2368965
0.3618131 0.3472168 0.2351201
0.4843777 0.3464270 0.2351267
0.6083515 0.3479544 0.2364963
0.7337509 0.3511375 0.2392417
0.8607527 0.3549791 0.2424376
0.9889052 0.3591688 0.2451572
-0.0078867 0.4696426 0.2344724
0.1147973 0.4674220 0.2341985
0.2368422 0.4667724 0.2336960
0.3598661 0.4676016 0.2341395
0.4853487 0.4715495 0.2369769
0.6119552 0.4776596 0.2408698
0.7393341 0.4843633 0.2454306
0.8670255 0.4903384 0.2491848
0.9945973 0.4951203 0.2510555
-0.0143438 0.5857072 0.2283140
0.1080755 0.5815990 0.2278991
0.2317343 0.5820673 0.2293425
0.3572251 0.5868647 0.2324644
0.4853653 0.5955372 0.2378706
0.6142840 0.6055032 0.2438627
0.7435696 0.6156963 0.2497293
0.8721077 0.6239013 0.2537148
0.9992915 0.6294660 0.2549347
-0.0195304 0.7062309 0.2237146
0.1015798 0.6987052 0.2222150
0.2250637 0.6971295 0.2238631
0.3526990 0.7043053 0.2292982
0.4834404 0.7168841 0.2369872
0.6150812 0.7314882 0.2451305
0.7457231 0.7447403 0.2515315
0.8745946 0.7545855 0.2551806
1.0014357 0.7609229 0.2560046
-0.0225579 0.8327451 0.2217431
0.0978766 0.8234444 0.2196899
0.2207677 0.8192756 0.2207704
0.3486122 0.8246179 0.2265212
0.4811947 0.8392993 0.2355666
0.6144507 0.8569519 0.2445876
0.7455072 0.8717148 0.2509013
0.8741000 0.8824287 0.2541022
1.0007358 0.8896290 0.2548468
-0.0234778 0.9645911 0.2222945
0.0973985 0.9561022 0.2207337
0.2203627 0.9514192 0.2216705
0.3477636 0.9548516 0.2266190
0.4796617 0.9674098 0.2347866
0.6124295 0.9837342 0.2429812
0.7430453 0.9980833 0.2486779
0.8712969 1.0090221 0.2515976
0.9980685 1.0170596 0.2525245
-0.0062802 -0.0337604 0.3709039
0.1158809 -0.0349639 0.3690904
0.2357179 -0.0400941 0.3655470
0.3545722 -0.0471178 0.3613285
0.4746174 -0.0525208 0.3578544
0.5973742 -0.0545089 0.3561423
0.7228184 -0.0537918 0.3564711
0.8506402 -0.0507307 0.3587351
0.9798449 -0.0461988 0.3619889
-0.0028770 0.1027023 0.3718296
0.1192802 0.1016156 0.3698361
0.2384669 0.0951962 0.3658157
0.3567181 0.0866485 0.3614575
0.4770710 0.0814093 0.3586860
0.6004861 0.0809098 0.3577412
0.7257972 0.0822473 0.3580671
0.8535094 0.0856747 0.3603214
0.9826380 0.0902928 0.3636785
-0.0023233 0.2325677 0.3708201
0.1196520 0.2308133 0.3688222
0.2391715 0.2245722 0.3651156
0.3590577 0.2185166 0.3622179
0.4808968 0.2155143 0.3609577
0.6052451 0.2163459 0.3612397
0.7308422 0.2189858 0.3622520
0.8581433 0.2228071 0.3644035
0.9865586 0.2269873 0.3672263
-0.0048593 0.3557739 0.3673910
0.1172498 0.3540016 0.3658402
0.2384206 0.3510541 0.3635662
0.3608204 0.3491254 0.3627734
0.4844747 0.3487928 0.3631226
0.6099985 0.3513031 0.3647988
0.7366637 0.3553831 0.3673085
0.8638306 0.3596165 0.3699327
0.9914753 0.3635655 0.3722295
-0.0093157 0.4759521 0.3621609
0.1137763 0.4752461 0.3617838
0.2367725 0.4754544 0.3614949
0.3611689 0.4766506 0.3626330
0.4866599 0.4794916 0.3646364
0.6136478 0.4842330 0.3678212
0.7414449 0.4898126 0.3715744
0.8693863 0.4953157 0.3751483
0.9966888 0.4995964 0.3772362
-0.0137156 0.5974880 0.3568957
0.1096117 0.5961099 0.3569088
0.2343308 0.5984885 0.3588967
0.3599336 0.6020127 0.3617419
0.4866533 0.6066811 0.3653383
0.6152676 0.6139707 0.3699733
0.7447928 0.6223133 0.3750501
0.8736699 0.6295251 0.3791800
1.0008642 0.6343491 0.3807702
-0.0171330 0.7220181 0.3532727
0.1054303 0.7184677 0.3527945
0.2297082 0.7190015 0.3551819
0.3563422 0.7239528 0.3597554
0.4848078 0.7312939 0.3652054
0.6150130 0.7409626 0.3712252
0.7459004 0.7517860 0.3771001
0.8753126 0.7605479 0.3808895
1.0023686 0.7661027 0.3819215
-0.0197228 0.8494556 0.3518243
0.1021954 0.8443746 0.3510236
0.2254851 0.8421751 0.3528734
0.3518250 0.8453165 0.3578555
0.4822184 0.8549876 0.3648592
0.6140469 0.8671686 0.3719176
0.7449332 0.8787925 0.3774382
0.8739183 0.8882293 0.3803877
1.0009037 0.8947359 0.3810843
-0.0214346 0.9795136 0.3523025
0.1003613 0.9741622 0.3517690
0.2234551 0.9709999 0.3533976
0.3496809 0.9726894 0.3579748
0.4799494 0.9810682 0.3648184
0.6118351 0.9934302 0.3715132
0.7420942 1.0050120 0.3761971
0.8704905 1.0145743 0.3785741
0.9975619 1.0219115 0.3791829
-0.0122387 -0.0465335 0.4984126
0.1095133 -0.0509110 0.4973309
0.2297569 -0.0574710 0.4949781
0.3499590 -0.0633048 0.4922165
0.4725694 -0.0643771 0.4900824
0.5980528 -0.0610916 0.4890046
0.7253266 -0.0560848 0.4890264
0.8539593 -0.0500941 0.4901552
0.9831750 -0.0440331 0.4919935
-0.0087293 0.0912496 0.4989765
0.1134381 0.0878454 0.4976466
0.2335319 0.0813317 0.4947685
0.3533109 0.0747249 0.4918954
0.4762007 0.0738127 0.4903341
0.6020990 0.0776015 0.4898394
0.7292784 0.0824859 0.4899681
0.8577916 0.0883670 0.4911211
0.9866954 0.0939804 0.4929953
-0.0070378 0.2256177 0.4981068
0.1156111 0.2232245 0.4967404
0.2365210 0.2182138 0.4940600
0.3579970 0.2141503 0.4920980
0.4811718 0.2130945 0.4911605
0.6069657 0.2160943 0.4913210
0.7343077 0.2211458 0.4921079
0.8624534 0.2266094 0.4933565
0.9905888 0.2313437 0.4950131
-0.0077219 0.3558040 0.4954742
0.1153202 0.3541404 0.4944297
0.2379722 0.3520088 0.4929246
0.3612506 0.3508925 0.4920114
0.4858254 0.3517094 0.4919931
0.6118713 0.3544185 0.4929584
0.7391452 0.3584933 0.4945671
0.8667944 0.3629598 0.4962252
0.9943452 0.3671255 0.4978484
-0.0096608 0.4840676 0.4916911
0.1141523 0.4836083 0.4914422
0.2383533 0.4838929 0.4913944
0.3628561 0.4846895 0.4916074
0.4884217 0.4866926 0.4926199
0.6151990 0.4900027 0.4944869
0.7427976 0.4940952 0.4967803
0.8703649 0.4979255 0.4989245
0.9977968 0.5019460 0.5007672
-0.0114443 0.6127049 0.4879923
0.1127712 0.6127823 0.4883110
0.2375228 0.6138251 0.4895112
0.3623424 0.6147959 0.4910313
0.4882337 0.6171502 0.4930400
0.6156478 0.6213835 0.4956181
0.7443326 0.6267277 0.4985368
0.8731596 0.6322789 0.5014208
1.0005344 0.6364920 0.5032070
-0.0133499 0.7411763 0.4853165
0.1106800 0.7410317 0.4856986
0.2348483 0.7410895 0.4876057
0.3600331 0.7423427 0.4903530
0.4862200 0.7450150 0.4933943
0.6142477 0.7499831 0.4966104
0.7442914 0.7573888 0.5001297
0.8733232 0.7637878 0.5030529
1.0008073 0.7684939 0.5044329
-0.0159359 0.8689339 0.4839936
0.1073382 0.8676921 0.4843922
0.2306122 0.8663908 0.4863676
0.3552343 0.8665960 0.4897599
0.4825090 0.8705125 0.4937457
0.6121429 0.8777061 0.4976448
0.7417582 0.8850196 0.5011589
0.8707011 0.8919048 0.5035396
0.9985039 0.8975261 0.5044485
-0.0187141 0.9968247 0.4839223
0.1038993 0.9945917 0.4844685
0.2269073 0.9928160 0.4864298
0.3515386 0.9928338 0.4899104
0.4789574 0.9964084 0.4942793
0.6090564 1.0041648 0.4984011
0.7383500 1.0117989 0.5014077
0.8668875 1.0188525 0.5031051
0.9948226 1.0251556 0.5036515
-0.0179006 -0.0595940 0.6263740
0.1036413 -0.0669799 0.6265601
0.2250338 -0.0741189 0.6261336
0.3476604 -0.0773957 0.6251915
0.4731884 -0.0736424 0.6238460
0.6008877 -0.0656288 0.6224099
0.7295602 -0.0567298 0.6214385
0.8586259 -0.0483406 0.6212197
0.9875633 -0.0411482 0.6216874
-0.0146975 0.0787082 0.6264745
0.1073305 0.0723932 0.6264151
0.2291677 0.0665011 0.6256232
0.3519696 0.0642293 0.6242674
0.4774891 0.0677659 0.6230100
0.6049124 0.0747322 0.6218084
0.7337474 0.0833520 0.6210475
0.8630181 0.0915876 0.6210368
0.9916303 0.0980100 0.6216165
-0.0120021 0.2173650 0.6255479
0.1109291 0.2132715 0.6252670
0.2339554 0.2101343 0.6242695
0.3578727 0.2097516 0.6228681
0.4827275 0.2113469 0.6217690
0.6095496 0.2160957 0.6212118
0.7379501 0.2230199 0.6210524
0.8670814 0.2302676 0.6212718
0.9951758 0.2356629 0.6218774
-0.0102570 0.3553941 0.6238595
0.1136140 0.3537080 0.6235589
0.2378528 0.3526981 0.6226710
0.3622912 0.3524080 0.6215808
0.4875382 0.3536821 0.6208662
0.6138344 0.3566401 0.6207044
0.7415301 0.3611502 0.6212606
0.8695499 0.3659347 0.6218490
0.9973340 0.3705075 0.6225287
-0.0092752 0.4922647 0.6219138
0.1152187 0.4921859 0.6218750
0.2397892 0.4915702 0.6211821
0.3645516 0.4912042 0.6204719
0.4900063 0.4920473 0.6202258
0.6164402 0.4943822 0.6205698
0.7436208 0.4972785 0.6213839
0.8709494 0.5003177 0.6223505
0.9985752 0.5040960 0.6232495
-0.0092865 0.6268752 0.6197773
0.1148738 0.6269306 0.6200505
0.2396164 0.6266577 0.6198667
0.3642744 0.6259536 0.6198291
0.4893960 0.6258304 0.6200684
0.6157367 0.6273339 0.6206917
0.7436594 0.6308661 0.6216547
0.8716596 0.6343212 0.6227690
0.9991913 0.6376842 0.6240588
-0.0106765 0.7580082 0.6177714
0.1132671 0.7586924 0.6182766
0.2369997 0.7575957 0.6189354
0.3613945 0.7565247 0.6198356
0.4862880 0.7560335 0.6207003
0.6129535 0.7576914 0.6214889
0.7412656 0.7614961 0.6221925
0.8696866 0.7654512 0.6235389
0.9977533 0.7693251 0.6249638
-0.0135225 0.8858952 0.6163640
0.1098242 0.8863018 0.6172269
0.2327256 0.8851732 0.6185677
0.3560817 0.8833617 0.6203165
0.4812721 0.8835219 0.6217728
0.6088931 0.8864858 0.6226118
0.7369384 0.8897874 0.6234839
0.8657856 0.8941240 0.6247364
0.9945360 0.8987891 0.6258356
-0.0169721 1.0124789 0.6156852
0.1055718 1.0118667 0.6167871
0.2279410 1.0106003 0.6184593
0.3510895 1.0095851 0.6205221
0.4764207 1.0105798 0.6223756
0.6043734 1.0140674 0.6237226
0.7327272 1.0177210 0.6248344
0.8616319 1.0221188 0.6257390
0.9906949 1.0272657 0.6264072
-0.0219188 -0.0688714 0.7544034
0.0997148 -0.0779235 0.7557322
0.2223260 -0.0849313 0.7570149
0.3474854 -0.0857168 0.7577419
0.4756783 -0.0786097 0.7570007
0.6052038 -0.0673580 0.7548367
0.7347924 -0.0557778 0.7524773
0.8638771 -0.0458163 0.7508905
0.9923019 -0.0379004 0.7503198
-0.0190509 0.0697073 0.7542027
0.1028118 0.0613697 0.7552359
0.2258221 0.0555366 0.7562296
0.3514659 0.0561665 0.7565115
0.4800212 0.0638857 0.7553154
0.6093553 0.0739715 0.7530456
0.7392962 0.0852527 0.7506224
0.8685938 0.0948713 0.7491317
0.9966301 0.1017847 0.7487991
-0.0155685 0.2115117 0.7533150
0.1073075 0.2059513 0.7539293
0.2315635 0.2030128 0.7543437
0.3577601 0.2049087 0.7537676
0.4850011 0.2100728 0.7520985
0.6130878 0.2167813 0.7504334
0.7425094 0.2252993 0.7485335
0.8717767 0.2335138 0.7472691
0.9995889 0.2394150 0.7471945
-0.0118428 0.3554100 0.7523417
0.1123989 0.3535770 0.7526752
0.2377087 0.3529470 0.7523143
0.3634831 0.3534485 0.7509533
0.4894726 0.3552854 0.7492181
0.6164187 0.3588905 0.7477566
0.7442323 0.3636067 0.7468232
0.8723524 0.3687104 0.7460438
1.0002773 0.3737528 0.7460493
-0.0089130 0.4984096 0.7515153
0.1160249 0.4991950 0.7517650
0.2412454 0.4987725 0.7507320
0.3660730 0.4968999 0.7488730
0.4914259 0.4965265 0.7471196
0.6177012 0.4977944 0.7457971
0.7446092 0.5001817 0.7453336
0.8717628 0.5029017 0.7452294
0.9995332 0.5065954 0.7453402
-0.0081589 0.6368711 0.7504304
0.1160497 0.6379377 0.7507712
0.2401775 0.6364781 0.7496685
0.3646887 0.6340422 0.7477692
0.4896826 0.6325519 0.7461371
0.6154152 0.6322978 0.7451032
0.7425407 0.6339863 0.7444572
0.8701266 0.6360443 0.7441627
0.9979092 0.6389840 0.7449019
-0.0098063 0.7695620 0.7489558
0.1132234 0.7701951 0.7495070
0.2354474 0.7673987 0.7489773
0.3592174 0.7646726 0.7477948
0.4841205 0.7629357 0.7466495
0.6103496 0.7631195 0.7454030
0.7376162 0.7642134 0.7441959
0.8660610 0.7664904 0.7441215
0.9947623 0.7700098 0.7453832
-0.0130022 0.8979886 0.7475155
0.1093592 0.8984974 0.7484569
0.2309646 0.8966562 0.7487774
0.3531171 0.8937202 0.7485070
0.4774270 0.8919547 0.7478435
0.6040139 0.8921969 0.7464301
0.7317541 0.8931388 0.7454343
0.8610429 0.8957677 0.7456025
0.9906560 0.8997925 0.7468208
-0.0165912 1.0245584 0.7464449
0.1051952 1.0244255 0.7476531
0.2264234 1.0230592 0.7486732
0.3481904 1.0215018 0.7491790
0.4720294 1.0210681 0.7488234
0.5985557 1.0214174 0.7478988
0.7269259 1.0223398 0.7474601
0.8565519 1.0248281 0.7477031
0.9866827 1.0291673 0.7485772
-0.0235228 -0.0721505 0.8821273
0.0988415 -0.0806844 0.8841310
0.2226245 -0.0866414 0.8863125
0.3493053 -0.0862800 0.8879578
0.4788905 -0.0785464 0.8877346
0.6096431 -0.0662837 0.8852012
0.7398330 -0.0535694 0.8817828
0.8687677 -0.0428627 0.8791563
0.9966190 -0.0346062 0.8778991
-0.0207275 0.0668071 0.8819073
0.1017187 0.0587578 0.8836293
0.2257444 0.0535093 0.8855613
0.3528686 0.0546347 0.8869169
0.4829319 0.0627335 0.8861997
0.6143473 0.0752820 0.8828089
0.7450331 0.0879807 0.8785622
0.8737472 0.0978826 0.8757595
1.0009730 0.1049725 0.8748670
-0.0168967 0.2099624 0.8811545
0.1064249 0.2045263 0.8823612
0.2313058 0.2015235 0.8834554
0.3585878 0.2032151 0.8836255
0.4875897 0.2093945 0.8818905
0.6177523 0.2186693 0.8783051
0.7478168 0.2283974 0.8743919
0.8763161 0.2364475 0.8718154
1.0033417 0.2423164 0.8714054
-0.0125263 0.3559702 0.8804468
0.1120870 0.3542801 0.8811764
0.2377757 0.3535585 0.8810298
0.3646045 0.3545885 0.8795558
0.4919278 0.3571126 0.8768300
0.6195099 0.3611098 0.8737657
0.7474420 0.3662213 0.8712035
0.8754340 0.3714481 0.8689092
1.0029275 0.3763967 0.8686479
-0.0091722 0.5011593 0.8799057
0.1160377 0.5024124 0.8803361
0.2415286 0.5024660 0.8791397
0.3671488 0.5014244 0.8763455
0.4927113 0.5002509 0.8729551
0.6190854 0.5007877 0.8702809
0.7460434 0.5029138 0.8684114
0.8729831 0.5050810 0.8670106
1.0005876 0.5087495 0.8670525
-0.0084131 0.6415069 0.8791511
0.1159786 0.6435858 0.8795327
0.2400195 0.6429634 0.8780646
0.3643471 0.6404040 0.8748544
0.4888531 0.6371093 0.8711387
0.6147832 0.6357470 0.8686113
0.7416507 0.6361059 0.8665287
0.8690576 0.6374273 0.8655719
0.9971756 0.6405612 0.8663525
-0.0102993 0.7757168 0.8780016
0.1125302 0.7771476 0.8785604
0.2344695 0.7754017 0.8775835
0.3572031 0.7722174 0.8750981
0.4814689 0.7690077 0.8717774
0.6076381 0.7675171 0.8684268
0.7348032 0.7666260 0.8660244
0.8635376 0.7680343 0.8655375
0.9927967 0.7715213 0.8668925
-0.0135636 0.9054329 0.8767276
0.1081405 0.9061609 0.8775648
0.2288888 0.9045191 0.8773436
0.3502089 0.9017628 0.8758353
0.4737449 0.8993200 0.8732483
0.5999043 0.8978123 0.8699814
0.7280725 0.8968589 0.8677383
0.8578193 0.8980733 0.8674126
0.9880679 0.9017322 0.8687787
-0.0169711 1.0329127 0.8755975
0.1042376 1.0330797 0.8766350
0.2246066 1.0317661 0.8770382
0.3454468 1.0300351 0.8763852
0.4683261 1.0286241 0.8745246
0.5942797 1.0272980 0.8721458
0.7229708 1.0265893 0.8705355
0.8531860 1.0279413 0.8703177
0.9840538 1.0319160 0.8713621
-0.0232608 -0.0703673 1.0091498
0.1002944 -0.0768783 1.0112907
0.2252243 -0.0809977 1.0135144
0.3525847 -0.0800973 1.0151785
0.4824004 -0.0732155 1.0151276
0.6133186 -0.0620907 1.0128311
0.7435947 -0.0500197 1.0093467
0.8723545 -0.0395593 1.0064131
0.9997990 -0.0314550 1.0048668
-0.0204702 0.0687967 1.0089803
0.1031946 0.0627186 1.0108762
0.2282945 0.0589632 1.0128431
0.3560265 0.0601966 1.0141894
0.4864547 0.0673302 1.0135774
0.6182036 0.0788269 1.0101959
0.7489343 0.0909135 1.0054702
0.8772808 0.1005798 1.0020484
1.0039813 0.1076496 1.0009023
-0.0168467 0.2117153 1.0082864
0.1074071 0.2075927 1.0096423
0.2329410 0.2052750 1.0107179
0.3606374 0.2066758 1.0108998
0.4904876 0.2123867 1.0092455
0.6215906 0.2215480 1.0051083
0.7519317 0.2313041 0.9999118
0.8796774 0.2389021 0.9966234
1.0059585 0.2446298 0.9961585
-0.0129829 0.3570231 1.0074744
0.1121166 0.3558076 1.0082239
0.2380817 0.3552950 1.0080037
0.3652697 0.3563469 1.0064344
0.4935703 0.3592883 1.0034746
0.6222955 0.3637421 0.9993735
0.7507668 0.3689664 0.9951206
0.8782556 0.3739422 0.9922037
1.0049675 0.3787195 0.9922249
-0.0102285 0.5016241 1.0067273
0.1151325 0.5028579 1.0070202
0.2407790 0.5033844 1.0057094
0.3668248 0.5033367 1.0026561
0.4933127 0.5032435 0.9986457
0.6202431 0.5037256 0.9946962
0.7472426 0.5049515 0.9915040
0.8742767 0.5071379 0.9895355
1.0016974 0.5111186 0.9900298
-0.0097764 0.6423003 1.0059330
0.1147173 0.6444497 1.0060537
0.2389201 0.6447745 1.0044044
0.3633198 0.6434042 1.0008907
0.4883928 0.6412100 0.9964484
0.6144718 0.6392764 0.9923065
0.7412476 0.6384368 0.9894035
0.8688705 0.6395933 0.9883457
0.9972518 0.6430607 0.9894465
-0.0115523 0.7778366 1.0050185
0.1114425 0.7795978 1.0052404
0.2336929 0.7790993 1.0039739
0.3562875 0.7769197 1.0010260
0.4803303 0.7741969 0.9967999
0.6062397 0.7716433 0.9923395
0.7337935 0.7700224 0.9894339
0.8626932 0.7709983 0.9888452
0.9922205 0.7744147 0.9903236
-0.0144786 0.9091910 1.0040650
0.1073209 0.9102483 1.0045085
0.2281717 0.9092855 1.0038410
0.3494093 0.9071309 1.0017412
0.4725020 0.9047099 0.9982607
0.5983859 0.9024148 0.9943213
0.7268809 0.9008782 0.9916497
0.8567702 0.9016664 0.9911251
0.9872780 0.9051931 0.9925488
-0.0175192 1.0380059 1.0031273
0.1037915 1.0385503 1.0037773
0.2242121 1.0375473 1.0035994
0.3449908 1.0358086 1.0022578
0.4676904 1.0339057 0.9997384
0.5934248 1.0320113 0.9968331
0.7220284 1.0309618 0.9948118
0.8523346 1.0321652 0.9944195
0.9834167 1.0361001 0.9955497
