ref/imx226_D50_jzazbz_203.cube
TITLE "4493439568"
LUT_3D_SIZE 65
0.0067213 -0.0185562 -0.0042808
0.0224796 -0.0176101 -0.0040628
0.0382091 -0.0166925 -0.0038667
0.0539071 -0.0158094 -0.0036951
0.0695711 -0.0149674 -0.0035504
0.0851983 -0.0141732 -0.0034354
0.1007862 -0.0134340 -0.0033527
0.1163322 -0.0127573 -0.0033050
0.1318338 -0.0121506 -0.0032947
0.1472885 -0.0116215 -0.0033244
0.1626941 -0.0111776 -0.0033964
0.1780487 -0.0108260 -0.0035126
0.1933506 -0.0105735 -0.0036748
0.2085983 -0.0104265 -0.0038842
0.2237908 -0.0103905 -0.0041419
0.2389275 -0.0104703 -0.0044483
0.2540081 -0.0106698 -0.0048034
0.2690330 -0.0109917 -0.0052067
0.2840031 -0.0114376 -0.0056572
0.2989197 -0.0120073 -0.0061531
0.3137849 -0.0126995 -0.0066922
0.3286013 -0.0135111 -0.0072717
0.3433723 -0.0144376 -0.0078880
0.3581017 -0.0154727 -0.0085374
0.3727938 -0.0166089 -0.0092154
0.3874537 -0.0178373 -0.0099172
0.4020865 -0.0191478 -0.0106378
0.4166979 -0.0205296 -0.0113720
0.4312939 -0.0219711 -0.0121142
0.4458805 -0.0234601 -0.0128590
0.4604639 -0.0249846 -0.0136010
0.4750504 -0.0265323 -0.0143351
0.4896459 -0.0280912 -0.0150560
0.5042566 -0.0296500 -0.0157592
0.5188882 -0.0311976 -0.0164401
0.5335461 -0.0327236 -0.0170947
0.5482357 -0.0342187 -0.0177193
0.5629617 -0.0356739 -0.0183107
0.5777285 -0.0370814 -0.0188661
0.5925403 -0.0384340 -0.0193831
0.6074005 -0.0397258 -0.0198598
0.6223120 -0.0409514 -0.0202948
0.6372774 -0.0421066 -0.0206871
0.6522987 -0.0431880 -0.0210361
0.6673770 -0.0441930 -0.0213416
0.6825134 -0.0451198 -0.0216039
0.6977080 -0.0459677 -0.0218236
0.7129605 -0.0467365 -0.0220018
0.7282704 -0.0474267 -0.0221396
0.7436363 -0.0480396 -0.0222387
0.7590567 -0.0485769 -0.0223009
0.7745296 -0.0490410 -0.0223282
0.7900530 -0.0494343 -0.0223229
0.8056242 -0.0497600 -0.0222873
0.8212406 -0.0500213 -0.0222238
0.8368996 -0.0502215 -0.0221348
0.8525983 -0.0503642 -0.0220228
0.8683338 -0.0504528 -0.0218903
0.8841033 -0.0504908 -0.0217397
0.8999039 -0.0504818 -0.0215732
0.9157331 -0.0504292 -0.0213931
0.9315882 -0.0503360 -0.0212015
0.9474667 -0.0502054 -0.0210003
0.9633663 -0.0500402 -0.0207915
0.9792849 -0.0498432 -0.0205766
0.0072831 -0.0014710 -0.0039883
0.0230523 -0.0005003 -0.0037548
0.0387921 0.0004424 -0.0035435
0.0544999 0.0013507 -0.0033569
0.0701730 0.0022181 -0.0031978
0.0858087 0.0030372 -0.0030690
0.1014040 0.0038007 -0.0029733
0.1169564 0.0045007 -0.0029137
0.1324630 0.0051294 -0.0028928
0.1479214 0.0056787 -0.0029134
0.1633292 0.0061409 -0.0029777
0.1786843 0.0065084 -0.0030881
0.1939849 0.0067739 -0.0032463
0.2092294 0.0069309 -0.0034537
0.2244168 0.0069733 -0.0037114
0.2395462 0.0068960 -0.0040201
0.2546174 0.0066947 -0.0043798
0.2696306 0.0063664 -0.0047899
0.2845867 0.0059093 -0.0052493
0.2994872 0.0053233 -0.0057564
0.3143341 0.0046099 -0.0063087
0.3291303 0.0037721 -0.0069031
0.3438792 0.0028148 -0.0075362
0.3585849 0.0017445 -0.0082036
0.3732520 0.0005692 -0.0089008
0.3878857 -0.0007014 -0.0096228
0.4024915 -0.0020568 -0.0103640
0.4170755 -0.0034852 -0.0111190
0.4316439 -0.0049742 -0.0118820
0.4462030 -0.0065111 -0.0126473
0.4607593 -0.0080829 -0.0134091
0.4753192 -0.0096769 -0.0141620
0.4898891 -0.0112804 -0.0149008
0.5044751 -0.0128816 -0.0156205
0.5190832 -0.0144692 -0.0163167
0.5337189 -0.0160325 -0.0169850
0.5483877 -0.0175619 -0.0176220
0.5630943 -0.0190484 -0.0182242
0.5778434 -0.0204841 -0.0187889
0.5926390 -0.0218618 -0.0193138
0.6074847 -0.0231755 -0.0197970
0.6223836 -0.0244198 -0.0202371
0.6373380 -0.0255907 -0.0206331
0.6523500 -0.0266847 -0.0209845
0.6674209 -0.0276994 -0.0212912
0.6825515 -0.0286333 -0.0215537
0.6977420 -0.0294854 -0.0217725
0.7129921 -0.0302559 -0.0219487
0.7283010 -0.0309455 -0.0220838
0.7436675 -0.0315556 -0.0221794
0.7590897 -0.0320880 -0.0222374
0.7745658 -0.0325454 -0.0222600
0.7900933 -0.0329305 -0.0222494
0.8056697 -0.0332464 -0.0222082
0.8212922 -0.0334968 -0.0221388
0.8369579 -0.0336851 -0.0220437
0.8526638 -0.0338150 -0.0219256
0.8684070 -0.0338903 -0.0217870
0.8841845 -0.0339147 -0.0216303
0.8999933 -0.0338918 -0.0214579
0.9158307 -0.0338252 -0.0212722
0.9316939 -0.0337182 -0.0210752
0.9475805 -0.0335740 -0.0208691
0.9634879 -0.0333957 -0.0206557
0.9794139 -0.0331860 -0.0204367
0.0078026 0.0154964 -0.0037229
0.0235815 0.0164879 -0.0034746
0.0393308 0.0174518 -0.0032485
0.0550476 0.0183816 -0.0030474
0.0707290 0.0192704 -0.0028744
0.0863722 0.0201108 -0.0027323
0.1019742 0.0208950 -0.0026242
0.1175322 0.0216149 -0.0025532
0.1330432 0.0222623 -0.0025221
0.1485047 0.0228290 -0.0025339
0.1639142 0.0233068 -0.0025910
0.1792694 0.0236878 -0.0026958
0.1945684 0.0239645 -0.0028501
0.2098096 0.0241300 -0.0030557
0.2249917 0.0241776 -0.0033137
0.2401137 0.0241020 -0.0036247
0.2551754 0.0238983 -0.0039889
0.2701770 0.0235634 -0.0044058
0.2851192 0.0230952 -0.0048741
0.3000037 0.0224933 -0.0053921
0.3148327 0.0217592 -0.0059573
0.3296091 0.0208960 -0.0065664
0.3443364 0.0199088 -0.0072157
0.3590191 0.0188044 -0.0079006
0.3736620 0.0175916 -0.0086164
0.3882705 0.0162804 -0.0093575
0.4028506 0.0148822 -0.0101184
0.4174086 0.0134096 -0.0108931
0.4319509 0.0118758 -0.0116755
0.4464842 0.0102943 -0.0124596
0.4610153 0.0086789 -0.0132394
0.4755508 0.0070429 -0.0140094
0.4900973 0.0053994 -0.0147639
0.5046611 0.0037607 -0.0154981
0.5192482 0.0021386 -0.0162071
0.5338644 0.0005437 -0.0168869
0.5485150 -0.0010141 -0.0175337
0.5632051 -0.0025259 -0.0181444
0.5779391 -0.0039837 -0.0187160
0.5927212 -0.0053805 -0.0192465
0.6075549 -0.0067101 -0.0197338
0.6224434 -0.0079674 -0.0201767
0.6373892 -0.0091483 -0.0205743
0.6523941 -0.0102495 -0.0209262
0.6674596 -0.0112687 -0.0212324
0.6825864 -0.0122045 -0.0214933
0.6977746 -0.0130563 -0.0217097
0.7130239 -0.0138240 -0.0218826
0.7283334 -0.0145088 -0.0220137
0.7437017 -0.0151121 -0.0221047
0.7591270 -0.0156362 -0.0221577
0.7746072 -0.0160835 -0.0221747
0.7901399 -0.0164572 -0.0221583
0.8057223 -0.0167606 -0.0221109
0.8213515 -0.0169973 -0.0220352
0.8370245 -0.0171712 -0.0219339
0.8527382 -0.0172862 -0.0218094
0.8684896 -0.0173462 -0.0216645
0.8842754 -0.0173549 -0.0215018
0.9000927 -0.0173164 -0.0213236
0.9159386 -0.0172342 -0.0211323
0.9318102 -0.0171118 -0.0209302
0.9477049 -0.0169527 -0.0207193
0.9636202 -0.0167599 -0.0205015
0.9795538 -0.0165363 -0.0202787
0.0082757 0.0323370 -0.0034885
0.0240634 0.0333447 -0.0032260
0.0398210 0.0343253 -0.0029859
0.0555457 0.0352721 -0.0027712
0.0712345 0.0361781 -0.0025850
0.0868843 0.0370354 -0.0024303
0.1024920 0.0378361 -0.0023105
0.1180547 0.0385720 -0.0022287
0.1335694 0.0392344 -0.0021881
0.1490334 0.0398151 -0.0021915
0.1644439 0.0403055 -0.0022418
0.1797988 0.0406974 -0.0023414
0.1950959 0.0409832 -0.0024923
0.2103334 0.0411552 -0.0026963
0.2255099 0.0412067 -0.0029546
0.2406245 0.0411317 -0.0032681
0.2556766 0.0409252 -0.0036369
0.2706666 0.0405835 -0.0040604
0.2855952 0.0401043 -0.0045374
0.3004641 0.0394870 -0.0050662
0.3152755 0.0387329 -0.0056438
0.3300325 0.0378453 -0.0062671
0.3447390 0.0368296 -0.0069320
0.3593995 0.0356928 -0.0076337
0.3740191 0.0344442 -0.0083671
0.3886037 0.0330947 -0.0091264
0.4031595 0.0316563 -0.0099056
0.4176930 0.0301426 -0.0106985
0.4322111 0.0285674 -0.0114986
0.4467207 0.0269454 -0.0122997
0.4612289 0.0252907 -0.0130956
0.4757426 0.0236176 -0.0138803
0.4902683 0.0219396 -0.0146483
0.5048126 0.0202693 -0.0153943
0.5193817 0.0186188 -0.0161137
0.5339813 0.0169987 -0.0168022
0.5486168 0.0154191 -0.0174563
0.5632932 0.0138888 -0.0180725
0.5780151 0.0124157 -0.0186484
0.5927865 0.0110066 -0.0191817
0.6076111 0.0096677 -0.0196707
0.6224919 0.0084038 -0.0201140
0.6374316 0.0072191 -0.0205110
0.6524319 0.0061166 -0.0208612
0.6674942 0.0050985 -0.0211649
0.6826192 0.0041661 -0.0214224
0.6978070 0.0033199 -0.0216346
0.7130572 0.0025595 -0.0218029
0.7283689 0.0018840 -0.0219287
0.7437405 0.0012915 -0.0220140
0.7591701 0.0007797 -0.0220609
0.7746556 0.0003459 -0.0220716
0.7901944 -0.0000131 -0.0220487
0.8057836 -0.0003010 -0.0219947
0.8214202 -0.0005215 -0.0219123
0.8371012 -0.0006787 -0.0218043
0.8528231 -0.0007764 -0.0216734
0.8685830 -0.0008190 -0.0215222
0.8843775 -0.0008103 -0.0213534
0.9002035 -0.0007544 -0.0211695
0.9160581 -0.0006550 -0.0209728
0.9319382 -0.0005159 -0.0207657
0.9478411 -0.0003405 -0.0205503
0.9637644 -0.0001321 -0.0203285
0.9797055 0.0001065 -0.0201022
0.0086989 0.0490419 -0.0032889
0.0244940 0.0500609 -0.0030133
0.0402588 0.0510532 -0.0027602
0.0559902 0.0520121 -0.0025327
0.0716851 0.0529301 -0.0023342
0.0873404 0.0537995 -0.0021678
0.1029528 0.0546121 -0.0020371
0.1185193 0.0553594 -0.0019454
0.1340368 0.0560327 -0.0018959
0.1495024 0.0566234 -0.0018917
0.1649134 0.0571230 -0.0019358
0.1802674 0.0575229 -0.0020306
0.1955621 0.0578151 -0.0021784
0.2107956 0.0579917 -0.0023811
0.2259664 0.0580455 -0.0026400
0.2410733 0.0579700 -0.0029561
0.2561159 0.0577600 -0.0033294
0.2710944 0.0574112 -0.0037595
0.2860096 0.0569211 -0.0042451
0.3008630 0.0562889 -0.0047842
0.3156573 0.0555159 -0.0053740
0.3303957 0.0546053 -0.0060108
0.3450821 0.0535627 -0.0066905
0.3597213 0.0523956 -0.0074081
0.3743190 0.0511137 -0.0081579
0.3888811 0.0497287 -0.0089340
0.4034141 0.0482535 -0.0097300
0.4179252 0.0467024 -0.0105393
0.4324212 0.0450903 -0.0113553
0.4469097 0.0434324 -0.0121712
0.4613976 0.0417438 -0.0129807
0.4758922 0.0400394 -0.0137776
0.4904002 0.0383331 -0.0145563
0.5049282 0.0366378 -0.0153114
0.5194824 0.0349658 -0.0160382
0.5340686 0.0333278 -0.0167326
0.5486923 0.0317338 -0.0173908
0.5633583 0.0301924 -0.0180097
0.5780713 0.0287113 -0.0185869
0.5928352 0.0272973 -0.0191202
0.6076537 0.0259562 -0.0196080
0.6225298 0.0246927 -0.0200491
0.6374660 0.0235107 -0.0204430
0.6524642 0.0224133 -0.0207893
0.6675257 0.0214024 -0.0210882
0.6826512 0.0204791 -0.0213404
0.6978406 0.0196437 -0.0215468
0.7130936 0.0188957 -0.0217088
0.7284090 0.0182340 -0.0218281
0.7437854 0.0176566 -0.0219065
0.7592207 0.0171611 -0.0219462
0.7747126 0.0167444 -0.0219498
0.7902584 0.0164032 -0.0219197
0.8058552 0.0161338 -0.0218586
0.8215000 0.0159322 -0.0217692
0.8371893 0.0157943 -0.0216543
0.8529200 0.0157159 -0.0215168
0.8686887 0.0156928 -0.0213593
0.8844921 0.0157207 -0.0211845
0.9003270 0.0157956 -0.0209950
0.9161903 0.0159135 -0.0207932
0.9320789 0.0160707 -0.0205814
0.9479901 0.0162636 -0.0203618
0.9639212 0.0164888 -0.0201364
0.9798698 0.0167433 -0.0199069
0.0090686 0.0656032 -0.0031279
0.0248697 0.0666279 -0.0028403
0.0406402 0.0676264 -0.0025754
0.0563770 0.0685917 -0.0023363
0.0720768 0.0695163 -0.0021265
0.0877363 0.0703924 -0.0019496
0.1033522 0.0712115 -0.0018090
0.1189214 0.0719653 -0.0017083
0.1344407 0.0726448 -0.0016508
0.1499072 0.0732415 -0.0016397
0.1653180 0.0737464 -0.0016781
0.1806705 0.0741510 -0.0017687
0.1959624 0.0744467 -0.0019138
0.2111915 0.0746254 -0.0021156
0.2263562 0.0746795 -0.0023754
0.2414553 0.0746021 -0.0026942
0.2564883 0.0743876 -0.0030721
0.2714553 0.0740313 -0.0035087
0.2863572 0.0735305 -0.0040027
0.3011957 0.0728842 -0.0045518
0.3159734 0.0720933 -0.0051531
0.3306938 0.0711613 -0.0058028
0.3453611 0.0700939 -0.0064964
0.3599804 0.0688991 -0.0072286
0.3745575 0.0675872 -0.0079935
0.3890988 0.0661704 -0.0087848
0.4036113 0.0646626 -0.0095957
0.4181021 0.0630789 -0.0104193
0.4325788 0.0614350 -0.0112487
0.4470487 0.0597471 -0.0120769
0.4615194 0.0580309 -0.0128973
0.4759981 0.0563018 -0.0137036
0.4904916 0.0545743 -0.0144899
0.5050067 0.0528615 -0.0152510
0.5195496 0.0511757 -0.0159821
0.5341260 0.0495277 -0.0166790
0.5487414 0.0479272 -0.0173382
0.5634006 0.0463828 -0.0179566
0.5781081 0.0449018 -0.0185319
0.5928679 0.0434907 -0.0190621
0.6076835 0.0421550 -0.0195458
0.6225579 0.0408992 -0.0199820
0.6374936 0.0397271 -0.0203701
0.6524924 0.0386414 -0.0207100
0.6675556 0.0376439 -0.0210020
0.6826838 0.0367356 -0.0212469
0.6978770 0.0359166 -0.0214457
0.7131346 0.0351862 -0.0215998
0.7284556 0.0345431 -0.0217110
0.7438382 0.0339851 -0.0217813
0.7592804 0.0335098 -0.0218130
0.7747799 0.0331139 -0.0218085
0.7903337 0.0327939 -0.0217706
0.8059389 0.0325459 -0.0217018
0.8215923 0.0323659 -0.0216051
0.8372906 0.0322496 -0.0214832
0.8530304 0.0321928 -0.0213389
0.8688081 0.0321909 -0.0211751
0.8846206 0.0322397 -0.0209945
0.9004644 0.0323351 -0.0207996
0.9163364 0.0324730 -0.0205930
0.9322336 0.0326495 -0.0203768
0.9481529 0.0328610 -0.0201534
0.9640918 0.0331040 -0.0199247
0.9800477 0.0333753 -0.0196926
0.0093815 0.0820136 -0.0030091
0.0251872 0.0830380 -0.0027109
0.0409619 0.0840365 -0.0024354
0.0567025 0.0850021 -0.0021861
0.0724057 0.0859274 -0.0019664
0.0880680 0.0868042 -0.0017801
0.1036862 0.0876243 -0.0016308
0.1192570 0.0883791 -0.0015221
0.1347771 0.0890599 -0.0014574
0.1502436 0.0896578 -0.0014403
0.1656533 0.0901638 -0.0014738
0.1810037 0.0905692 -0.0015608
0.1962921 0.0908651 -0.0017038
0.2115164 0.0910430 -0.0019050
0.2266747 0.0910950 -0.0021661
0.2417658 0.0910140 -0.0024878
0.2567890 0.0907937 -0.0028704
0.2717446 0.0904294 -0.0033134
0.2866334 0.0899178 -0.0038154
0.3014574 0.0892579 -0.0043741
0.3162192 0.0884504 -0.0049863
0.3309225 0.0874990 -0.0056479
0.3455718 0.0864095 -0.0063542
0.3601727 0.0851904 -0.0070996
0.3747311 0.0838524 -0.0078779
0.3892538 0.0824085 -0.0086823
0.4037481 0.0808734 -0.0095059
0.4182215 0.0792629 -0.0103414
0.4326817 0.0775938 -0.0111815
0.4471364 0.0758827 -0.0120190
0.4615932 0.0741463 -0.0128473
0.4760595 0.0724003 -0.0136597
0.4905422 0.0706595 -0.0144505
0.5050482 0.0689375 -0.0152141
0.5195834 0.0672463 -0.0159460
0.5341538 0.0655968 -0.0166421
0.5487646 0.0639985 -0.0172988
0.5634206 0.0624596 -0.0179134
0.5781263 0.0609871 -0.0184835
0.5928855 0.0595872 -0.0190074
0.6077016 0.0582649 -0.0194839
0.6225775 0.0570246 -0.0199122
0.6375157 0.0558695 -0.0202919
0.6525179 0.0548024 -0.0206229
0.6675854 0.0538249 -0.0209057
0.6827187 0.0529377 -0.0211412
0.6979178 0.0521407 -0.0213304
0.7131820 0.0514331 -0.0214750
0.7285101 0.0508133 -0.0215768
0.7439005 0.0502793 -0.0216377
0.7593510 0.0498281 -0.0216603
0.7748591 0.0494566 -0.0216471
0.7904218 0.0491611 -0.0216006
0.8060362 0.0489375 -0.0215238
0.8216989 0.0487817 -0.0214193
0.8374065 0.0486894 -0.0212902
0.8531557 0.0486561 -0.0211392
0.8689427 0.0486773 -0.0209692
0.8847643 0.0487487 -0.0207830
0.9006171 0.0488660 -0.0205830
0.9164978 0.0490250 -0.0203718
0.9324032 0.0492219 -0.0201517
0.9483305 0.0494529 -0.0199249
0.9642769 0.0497145 -0.0196934
0.9802398 0.0500035 -0.0194591
0.0096348 0.0982667 -0.0029359
0.0254433 0.0992844 -0.0026286
0.0412206 0.1002765 -0.0023441
0.0569635 0.1012359 -0.0020860
0.0726685 0.1021553 -0.0018579
0.0883322 0.1030266 -0.0016635
0.1039514 0.1038417 -0.0015067
0.1195225 0.1045918 -0.0013911
0.1350424 0.1052684 -0.0013204
0.1505078 0.1058624 -0.0012981
0.1659157 0.1063648 -0.0013274
0.1812631 0.1067666 -0.0014115
0.1965474 0.1070587 -0.0015531
0.2117663 0.1072324 -0.0017543
0.2269177 0.1072795 -0.0020169
0.2420004 0.1071925 -0.0023417
0.2570138 0.1069649 -0.0027292
0.2719580 0.1065915 -0.0031785
0.2868340 0.1060689 -0.0036882
0.3016438 0.1053959 -0.0042559
0.3163905 0.1045734 -0.0048781
0.3310779 0.1036049 -0.0055506
0.3457108 0.1024965 -0.0062681
0.3602950 0.1012571 -0.0070250
0.3748370 0.0998980 -0.0078145
0.3893437 0.0984329 -0.0086298
0.4038227 0.0968770 -0.0094634
0.4182818 0.0952470 -0.0103078
0.4327289 0.0935603 -0.0111555
0.4471719 0.0918343 -0.0119991
0.4616186 0.0900862 -0.0128318
0.4760764 0.0883321 -0.0136469
0.4905523 0.0865871 -0.0144384
0.5050530 0.0848649 -0.0152011
0.5195846 0.0831776 -0.0159302
0.5341529 0.0815358 -0.0166217
0.5487630 0.0799486 -0.0172725
0.5634196 0.0784241 -0.0178797
0.5781271 0.0769689 -0.0184413
0.5928892 0.0755886 -0.0189557
0.6077093 0.0742879 -0.0194219
0.6225900 0.0730709 -0.0198393
0.6375337 0.0719405 -0.0202078
0.6525422 0.0708990 -0.0205274
0.6676167 0.0699480 -0.0207987
0.6827575 0.0690880 -0.0210226
0.6979646 0.0683187 -0.0212005
0.7132374 0.0676391 -0.0213339
0.7285745 0.0670476 -0.0214248
0.7439741 0.0665418 -0.0214753
0.7594341 0.0661188 -0.0214878
0.7749519 0.0657753 -0.0214649
0.7905245 0.0655074 -0.0214093
0.8061487 0.0653110 -0.0213239
0.8218212 0.0651820 -0.0212115
0.8375386 0.0651158 -0.0210750
0.8532973 0.0651080 -0.0209173
0.8690938 0.0651541 -0.0207412
0.8849246 0.0652495 -0.0205495
0.9007862 0.0653900 -0.0203447
0.9166754 0.0655713 -0.0201293
0.9325889 0.0657896 -0.0199058
0.9485239 0.0660409 -0.0196761
0.9644775 0.0663219 -0.0194424
0.9804472 0.0666291 -0.0192065
0.0098259 0.1143575 -0.0029115
0.0256354 0.1153616 -0.0025967
0.0414135 0.1163404 -0.0023048
0.0571569 0.1172869 -0.0020395
0.0728622 0.1181936 -0.0018045
0.0885258 0.1190529 -0.0016035
0.1041445 0.1198565 -0.0014405
0.1197147 0.1205958 -0.0013192
0.1352331 0.1212622 -0.0012435
0.1506965 0.1218467 -0.0012170
0.1661015 0.1223402 -0.0012432
0.1814452 0.1227335 -0.0013252
0.1967246 0.1230174 -0.0014659
0.2119374 0.1231830 -0.0016677
0.2270814 0.1232217 -0.0019322
0.2421554 0.1231258 -0.0022605
0.2571587 0.1228886 -0.0026528
0.2720914 0.1225048 -0.0031083
0.2869549 0.1219708 -0.0036254
0.3017513 0.1212853 -0.0042013
0.3164839 0.1204493 -0.0048325
0.3311567 0.1194665 -0.0055143
0.3457751 0.1183432 -0.0062414
0.3603449 0.1170886 -0.0070076
0.3748730 0.1157146 -0.0078059
0.3893668 0.1142352 -0.0086291
0.4038338 0.1126664 -0.0094697
0.4182823 0.1110254 -0.0103197
0.4327202 0.1093303 -0.0111715
0.4471556 0.1075989 -0.0120176
0.4615962 0.1058488 -0.0128510
0.4760497 0.1040966 -0.0136649
0.4905229 0.1023575 -0.0144534
0.5050225 0.1006450 -0.0152113
0.5195546 0.0989714 -0.0159338
0.5341248 0.0973469 -0.0166173
0.5487382 0.0957804 -0.0172584
0.5633993 0.0942795 -0.0178548
0.5781124 0.0928503 -0.0184045
0.5928810 0.0914982 -0.0189062
0.6077084 0.0902275 -0.0193590
0.6225972 0.0890417 -0.0197627
0.6375496 0.0879434 -0.0201171
0.6525673 0.0869346 -0.0204227
0.6676513 0.0860167 -0.0206802
0.6828020 0.0851899 -0.0208906
0.6980194 0.0844540 -0.0210552
0.7133026 0.0838076 -0.0211758
0.7286503 0.0832490 -0.0212544
0.7440607 0.0827757 -0.0212932
0.7595315 0.0823848 -0.0212947
0.7750600 0.0820727 -0.0212614
0.7906432 0.0818356 -0.0211962
0.8062779 0.0816692 -0.0211019
0.8219607 0.0815693 -0.0209813
0.8376882 0.0815314 -0.0208374
0.8534567 0.0815510 -0.0206730
0.8692627 0.0816234 -0.0204909
0.8851025 0.0817442 -0.0202940
0.9009728 0.0819090 -0.0200847
0.9168703 0.0821136 -0.0198657
0.9327917 0.0823541 -0.0196391
0.9487340 0.0826265 -0.0194071
0.9646944 0.0829274 -0.0191718
0.9806703 0.0832534 -0.0189349
0.0099526 0.1302820 -0.0029384
0.0257612 0.1312655 -0.0026181
0.0415383 0.1322239 -0.0023206
0.0572805 0.1331503 -0.0020498
0.0729843 0.1340375 -0.0018094
0.0886463 0.1348778 -0.0016033
0.1042630 0.1356632 -0.0014355
0.1198310 0.1363852 -0.0013099
0.1353467 0.1370352 -0.0012304
0.1508068 0.1376041 -0.0012008
0.1662079 0.1380830 -0.0012247
0.1815468 0.1384624 -0.0013055
0.1968205 0.1387330 -0.0014461
0.2120264 0.1388857 -0.0016490
0.2271625 0.1389119 -0.0019160
0.2422272 0.1388037 -0.0022480
0.2572202 0.1385542 -0.0026451
0.2721416 0.1381582 -0.0031066
0.2869930 0.1376121 -0.0036304
0.3017767 0.1369147 -0.0042137
0.3164964 0.1360671 -0.0048525
0.3311566 0.1350733 -0.0055419
0.3457626 0.1339399 -0.0062763
0.3603209 0.1326763 -0.0070491
0.3748384 0.1312947 -0.0078533
0.3893227 0.1298095 -0.0086813
0.4037817 0.1282370 -0.0095253
0.4182235 0.1265951 -0.0103772
0.4326565 0.1249019 -0.0112293
0.4470886 0.1231760 -0.0120739
0.4615277 0.1214350 -0.0129040
0.4759812 0.1196956 -0.0137128
0.4904561 0.1179732 -0.0144944
0.5049590 0.1162812 -0.0152435
0.5194958 0.1146316 -0.0159558
0.5340719 0.1130344 -0.0166274
0.5486925 0.1114983 -0.0172553
0.5633619 0.1100303 -0.0178374
0.5780842 0.1086363 -0.0183719
0.5928629 0.1073210 -0.0188577
0.6077010 0.1060884 -0.0192942
0.6226011 0.1049415 -0.0196813
0.6375652 0.1038826 -0.0200191
0.6525949 0.1029135 -0.0203083
0.6676911 0.1020351 -0.0205496
0.6828542 0.1012476 -0.0207444
0.6980839 0.1005505 -0.0208940
0.7133794 0.0999424 -0.0210003
0.7287394 0.0994213 -0.0210653
0.7441619 0.0989847 -0.0210913
0.7596446 0.0986294 -0.0210808
0.7751848 0.0983521 -0.0210364
0.7907794 0.0981486 -0.0209610
0.8064252 0.0980148 -0.0208574
0.8221187 0.0979463 -0.0207285
0.8378565 0.0979386 -0.0205771
0.8536349 0.0979872 -0.0204061
0.8694503 0.0980875 -0.0202183
0.8852992 0.0982349 -0.0200164
0.9011780 0.0984250 -0.0198032
0.9170834 0.0986537 -0.0195808
0.9330123 0.0989170 -0.0193518
0.9489615 0.0992111 -0.0191181
0.9649283 0.0995323 -0.0188817
0.9809100 0.0998775 -0.0186445
0.0100131 0.1460378 -0.0030193
0.0258189 0.1469935 -0.0026952
0.0415931 0.1479242 -0.0023940
0.0573323 0.1488233 -0.0021195
0.0730329 0.1496838 -0.0018754
0.0886916 0.1504981 -0.0016658
0.1043049 0.1512583 -0.0014946
0.1198691 0.1519561 -0.0013660
0.1353808 0.1525830 -0.0012840
0.1508363 0.1531300 -0.0012524
0.1662323 0.1535879 -0.0012752
0.1815654 0.1539474 -0.0013557
0.1968324 0.1541990 -0.0014970
0.2120306 0.1543337 -0.0017016
0.2271580 0.1543428 -0.0019714
0.2422131 0.1542183 -0.0023073
0.2571955 0.1539534 -0.0027093
0.2721058 0.1535431 -0.0031763
0.2869456 0.1529841 -0.0037061
0.3017178 0.1522754 -0.0042955
0.3164263 0.1514186 -0.0049401
0.3310760 0.1504179 -0.0056349
0.3456726 0.1492800 -0.0063739
0.3602226 0.1480146 -0.0071503
0.3747333 0.1466340 -0.0079569
0.3892122 0.1451528 -0.0087859
0.4036675 0.1435874 -0.0096294
0.4181073 0.1419557 -0.0104792
0.4325400 0.1402764 -0.0113274
0.4469735 0.1385678 -0.0121664
0.4614157 0.1368479 -0.0129890
0.4758738 0.1351333 -0.0137886
0.4903549 0.1334391 -0.0145592
0.5048652 0.1317789 -0.0152958
0.5194108 0.1301641 -0.0159940
0.5339970 0.1286047 -0.0166501
0.5486287 0.1271087 -0.0172615
0.5633101 0.1256830 -0.0178259
0.5780452 0.1243329 -0.0183420
0.5928373 0.1230628 -0.0188089
0.6076894 0.1218762 -0.0192263
0.6226039 0.1207758 -0.0195940
0.6375826 0.1197635 -0.0199127
0.6526271 0.1188407 -0.0201831
0.6677380 0.1180081 -0.0204062
0.6829156 0.1172656 -0.0205835
0.6981598 0.1166125 -0.0207164
0.7134695 0.1160475 -0.0208068
0.7288433 0.1155683 -0.0208570
0.7442792 0.1151722 -0.0208692
0.7597750 0.1148562 -0.0208459
0.7753277 0.1146167 -0.0207899
0.7909345 0.1144496 -0.0207038
0.8065919 0.1143508 -0.0205906
0.8222965 0.1143158 -0.0204531
0.8380447 0.1143401 -0.0202942
0.8538331 0.1144192 -0.0201168
0.8696579 0.1145485 -0.0199235
0.8855155 0.1147235 -0.0197172
0.9014025 0.1149399 -0.0195002
0.9173156 0.1151934 -0.0192752
0.9332515 0.1154801 -0.0190442
0.9492072 0.1157962 -0.0188094
0.9651798 0.1161381 -0.0185726
0.9811668 0.1165026 -0.0183357
0.0100061 0.1616239 -0.0031558
0.0258072 0.1625445 -0.0028300
0.0415766 0.1634402 -0.0025270
0.0573109 0.1643048 -0.0022505
0.0730066 0.1651313 -0.0020045
0.0886604 0.1659123 -0.0017930
0.1042685 0.1666402 -0.0016201
0.1198275 0.1673068 -0.0014900
0.1353337 0.1679036 -0.0014068
0.1507833 0.1684217 -0.0013745
0.1661729 0.1688520 -0.0013972
0.1814990 0.1691852 -0.0014783
0.1967582 0.1694119 -0.0016211
0.2119479 0.1695230 -0.0018281
0.2270659 0.1695098 -0.0021012
0.2421109 0.1693647 -0.0024411
0.2570827 0.1690811 -0.0028476
0.2719820 0.1686543 -0.0033195
0.2868111 0.1680816 -0.0038542
0.3015733 0.1673626 -0.0044480
0.3162727 0.1664994 -0.0050963
0.3309148 0.1654964 -0.0057937
0.3455053 0.1643608 -0.0065340
0.3600511 0.1631021 -0.0073103
0.3745592 0.1617324 -0.0081153
0.3890374 0.1602661 -0.0089413
0.4034937 0.1587197 -0.0097800
0.4179365 0.1571109 -0.0106233
0.4323738 0.1554582 -0.0114633
0.4468136 0.1537800 -0.0122924
0.4612636 0.1520939 -0.0131032
0.4757310 0.1504166 -0.0138895
0.4902226 0.1487628 -0.0146452
0.5047448 0.1471458 -0.0153655
0.5193033 0.1455768 -0.0160460
0.5339034 0.1440654 -0.0166832
0.5485498 0.1426193 -0.0172746
0.5632468 0.1412450 -0.0178183
0.5779981 0.1399475 -0.0183131
0.5928069 0.1387307 -0.0187583
0.6076761 0.1375978 -0.0191538
0.6226079 0.1365510 -0.0194998
0.6376040 0.1355920 -0.0197971
0.6526658 0.1347219 -0.0200465
0.6677938 0.1339409 -0.0202495
0.6829883 0.1332488 -0.0204074
0.6982488 0.1326448 -0.0205220
0.7135744 0.1321273 -0.0205953
0.7289635 0.1316940 -0.0206295
0.7444141 0.1313422 -0.0206269
0.7599239 0.1310687 -0.0205901
0.7754901 0.1308698 -0.0205218
0.7911095 0.1307417 -0.0204246
