ref/imx226_6000K_jzazbz_203.cube
TITLE "4560412048"
LUT_3D_SIZE 65
0.0055979 -0.0184749 -0.0103983
0.0213336 -0.0175272 -0.0103344
0.0370416 -0.0166020 -0.0102946
0.0527193 -0.0157048 -0.0102812
0.0683643 -0.0148417 -0.0102961
0.0839740 -0.0140192 -0.0103416
0.0995459 -0.0132440 -0.0104199
0.1150774 -0.0125233 -0.0105329
0.1305660 -0.0118643 -0.0106828
0.1460095 -0.0112744 -0.0108713
0.1614056 -0.0107608 -0.0111001
0.1767525 -0.0103305 -0.0113706
0.1920485 -0.0099904 -0.0116835
0.2072922 -0.0097467 -0.0120396
0.2224826 -0.0096049 -0.0124391
0.2376192 -0.0095702 -0.0128815
0.2527018 -0.0096465 -0.0133660
0.2677306 -0.0098370 -0.0138914
0.2827066 -0.0101435 -0.0144557
0.2976311 -0.0105667 -0.0150563
0.3125062 -0.0111056 -0.0156901
0.3273346 -0.0117580 -0.0163535
0.3421196 -0.0125200 -0.0170423
0.3568649 -0.0133864 -0.0177519
0.3715751 -0.0143504 -0.0184772
0.3862549 -0.0154041 -0.0192130
0.4009096 -0.0165384 -0.0199537
0.4155450 -0.0177436 -0.0206935
0.4301668 -0.0190090 -0.0214267
0.4447812 -0.0203237 -0.0221475
0.4593943 -0.0216767 -0.0228504
0.4740122 -0.0230570 -0.0235300
0.4886409 -0.0244537 -0.0241811
0.5032864 -0.0258565 -0.0247989
0.5179542 -0.0272557 -0.0253791
0.5326497 -0.0286419 -0.0259177
0.5473780 -0.0300067 -0.0264114
0.5621439 -0.0313421 -0.0268570
0.5769515 -0.0326413 -0.0272523
0.5918048 -0.0338977 -0.0275954
0.6067070 -0.0351060 -0.0278849
0.6216610 -0.0362614 -0.0281200
0.6366691 -0.0373599 -0.0283005
0.6517331 -0.0383984 -0.0284265
0.6668542 -0.0393743 -0.0284989
0.6820330 -0.0402859 -0.0285188
0.6972697 -0.0411321 -0.0284877
0.7125639 -0.0419123 -0.0284077
0.7279147 -0.0426268 -0.0282810
0.7433209 -0.0432762 -0.0281103
0.7587808 -0.0438615 -0.0278983
0.7742925 -0.0443844 -0.0276480
0.7898536 -0.0448468 -0.0273625
0.8054616 -0.0452508 -0.0270451
0.8211138 -0.0455988 -0.0266989
0.8368075 -0.0458935 -0.0263271
0.8525398 -0.0461375 -0.0259329
0.8683079 -0.0463335 -0.0255192
0.8841088 -0.0464843 -0.0250892
0.8999399 -0.0465927 -0.0246454
0.9157983 -0.0466613 -0.0241906
0.9316816 -0.0466927 -0.0237272
0.9475871 -0.0466896 -0.0232574
0.9635127 -0.0466541 -0.0227834
0.9794562 -0.0465887 -0.0223069
0.0061867 -0.0015309 -0.0099985
0.0219338 -0.0005604 -0.0099194
0.0376528 0.0003883 -0.0098649
0.0533410 0.0013094 -0.0098371
0.0689958 0.0021966 -0.0098384
0.0846144 0.0030432 -0.0098712
0.1001942 0.0038421 -0.0099377
0.1157325 0.0045858 -0.0100404
0.1312267 0.0052667 -0.0101813
0.1466742 0.0058773 -0.0103626
0.1620729 0.0064100 -0.0105860
0.1774206 0.0068573 -0.0108530
0.1927155 0.0072123 -0.0111648
0.2079563 0.0074682 -0.0115219
0.2231417 0.0076190 -0.0119247
0.2382711 0.0076594 -0.0123730
0.2533442 0.0075850 -0.0128659
0.2683612 0.0073922 -0.0134020
0.2833231 0.0070790 -0.0139794
0.2982313 0.0066446 -0.0145953
0.3130878 0.0060897 -0.0152465
0.3278956 0.0054167 -0.0159291
0.3426580 0.0046296 -0.0166387
0.3573792 0.0037340 -0.0173703
0.3720637 0.0027371 -0.0181187
0.3867167 0.0016474 -0.0188782
0.4013438 0.0004746 -0.0196429
0.4159510 -0.0007708 -0.0204069
0.4305444 -0.0020775 -0.0211639
0.4451305 -0.0034337 -0.0219080
0.4597157 -0.0048278 -0.0226334
0.4743063 -0.0062481 -0.0233343
0.4889086 -0.0076834 -0.0240054
0.5035286 -0.0091227 -0.0246418
0.5181723 -0.0105562 -0.0252390
0.5328450 -0.0119742 -0.0257930
0.5475519 -0.0133681 -0.0263003
0.5622979 -0.0147301 -0.0267578
0.5770873 -0.0160531 -0.0271633
0.5919239 -0.0173306 -0.0275148
0.6068112 -0.0185572 -0.0278110
0.6217520 -0.0197282 -0.0280511
0.6367487 -0.0208398 -0.0282351
0.6518030 -0.0218888 -0.0283631
0.6669162 -0.0228728 -0.0284360
0.6820888 -0.0237902 -0.0284552
0.6973210 -0.0246399 -0.0284222
0.7126122 -0.0254217 -0.0283392
0.7279617 -0.0261357 -0.0282086
0.7433679 -0.0267828 -0.0280331
0.7588291 -0.0273642 -0.0278158
0.7743433 -0.0278817 -0.0275595
0.7899080 -0.0283373 -0.0272677
0.8055205 -0.0287333 -0.0269436
0.8211781 -0.0290724 -0.0265905
0.8368779 -0.0293572 -0.0262118
0.8526168 -0.0295907 -0.0258107
0.8683918 -0.0297757 -0.0253904
0.8842001 -0.0299151 -0.0249538
0.9000386 -0.0300118 -0.0245039
0.9159046 -0.0300688 -0.0240433
0.9317954 -0.0300886 -0.0235746
0.9477083 -0.0300740 -0.0231000
0.9636410 -0.0300273 -0.0226216
0.9795913 -0.0299511 -0.0221414
0.0067368 0.0152984 -0.0096124
0.0224946 0.0162879 -0.0095181
0.0382237 0.0172561 -0.0094487
0.0539216 0.0181972 -0.0094064
0.0695854 0.0191047 -0.0093939
0.0852123 0.0199715 -0.0094137
0.1007994 0.0207903 -0.0094683
0.1163439 0.0215535 -0.0095603
0.1318430 0.0222532 -0.0096920
0.1472941 0.0228814 -0.0098657
0.1626948 0.0234304 -0.0100834
0.1780429 0.0238924 -0.0103467
0.1933366 0.0242601 -0.0106567
0.2085741 0.0245265 -0.0110145
0.2237544 0.0246851 -0.0114203
0.2388765 0.0247303 -0.0118740
0.2539400 0.0246571 -0.0123749
0.2689453 0.0244617 -0.0129214
0.2838932 0.0241418 -0.0135114
0.2987852 0.0236964 -0.0141422
0.3136235 0.0231260 -0.0148103
0.3284110 0.0224330 -0.0155115
0.3431513 0.0216217 -0.0162412
0.3578488 0.0206980 -0.0169941
0.3725084 0.0196694 -0.0177647
0.3871354 0.0185451 -0.0185470
0.4017359 0.0173355 -0.0193346
0.4163161 0.0160519 -0.0201214
0.4308826 0.0147065 -0.0209009
0.4454420 0.0133117 -0.0216667
0.4600010 0.0118799 -0.0224128
0.4745662 0.0104234 -0.0231333
0.4891442 0.0089539 -0.0238226
0.5037412 0.0074827 -0.0244757
0.5183630 0.0060200 -0.0250880
0.5330154 0.0045755 -0.0256553
0.5477034 0.0031580 -0.0261742
0.5624321 0.0017752 -0.0266417
0.5772056 0.0004343 -0.0270553
0.5920281 -0.0008585 -0.0274134
0.6069028 -0.0020978 -0.0277145
0.6218327 -0.0032789 -0.0279581
0.6368202 -0.0043980 -0.0281440
0.6518670 -0.0054523 -0.0282726
0.6669742 -0.0064393 -0.0283449
0.6821424 -0.0073576 -0.0283623
0.6973717 -0.0082063 -0.0283265
0.7126616 -0.0089851 -0.0282398
0.7280111 -0.0096945 -0.0281047
0.7434186 -0.0103354 -0.0279241
0.7588823 -0.0109093 -0.0277010
0.7744000 -0.0114180 -0.0274387
0.7899691 -0.0118637 -0.0271404
0.8055870 -0.0122488 -0.0268098
0.8212506 -0.0125762 -0.0264500
0.8369569 -0.0128487 -0.0260647
0.8527029 -0.0130693 -0.0256572
0.8684853 -0.0132411 -0.0252306
0.8843012 -0.0133672 -0.0247880
0.9001475 -0.0134504 -0.0243325
0.9160212 -0.0134939 -0.0238667
0.9319196 -0.0135005 -0.0233933
0.9478400 -0.0134729 -0.0229145
0.9637799 -0.0134137 -0.0224325
0.9797371 -0.0133253 -0.0219492
0.0072446 0.0320044 -0.0092436
0.0230120 0.0330083 -0.0091341
0.0387503 0.0339917 -0.0090497
0.0544570 0.0349483 -0.0089930
0.0701289 0.0358716 -0.0089666
0.0857632 0.0367543 -0.0089733
0.1013567 0.0375889 -0.0090159
0.1169066 0.0383675 -0.0090970
0.1324099 0.0390820 -0.0092193
0.1478639 0.0397243 -0.0093852
0.1632662 0.0402864 -0.0095969
0.1786143 0.0407603 -0.0098560
0.1939063 0.0411384 -0.0101641
0.2091404 0.0414133 -0.0105221
0.2243152 0.0415782 -0.0109305
0.2394298 0.0416270 -0.0113893
0.2544839 0.0415543 -0.0118976
0.2694775 0.0413561 -0.0124540
0.2844115 0.0410296 -0.0130562
0.2992875 0.0405734 -0.0137013
0.3141078 0.0399881 -0.0143856
0.3288755 0.0392761 -0.0151048
0.3435943 0.0384417 -0.0158538
0.3582689 0.0374912 -0.0166271
0.3729044 0.0364326 -0.0174188
0.3875066 0.0352756 -0.0182226
0.4020817 0.0340316 -0.0190318
0.4166364 0.0327126 -0.0198399
0.4311776 0.0313316 -0.0206400
0.4457122 0.0299017 -0.0214258
0.4602472 0.0284363 -0.0221906
0.4747894 0.0269481 -0.0229286
0.4893455 0.0254494 -0.0236339
0.5039220 0.0239517 -0.0243015
0.5185247 0.0224656 -0.0249265
0.5331595 0.0210007 -0.0255049
0.5478315 0.0195658 -0.0260332
0.5625456 0.0181686 -0.0265083
0.5773062 0.0168162 -0.0269280
0.5921172 0.0155146 -0.0272905
0.6069820 0.0142690 -0.0275947
0.6219036 0.0130839 -0.0278399
0.6368842 0.0119631 -0.0280261
0.6519257 0.0109094 -0.0281539
0.6670290 0.0099249 -0.0282242
0.6821949 0.0090109 -0.0282386
0.6974231 0.0081682 -0.0281991
0.7127133 0.0073969 -0.0281079
0.7280642 0.0066965 -0.0279676
0.7434744 0.0060659 -0.0277814
0.7589417 0.0055034 -0.0275523
0.7744640 0.0050071 -0.0272838
0.7900384 0.0045746 -0.0269792
0.8056624 0.0042033 -0.0266421
0.8213326 0.0038904 -0.0262760
0.8370461 0.0036328 -0.0258844
0.8527995 0.0034274 -0.0254708
0.8685897 0.0032709 -0.0250385
0.8844134 0.0031602 -0.0245906
0.9002676 0.0030923 -0.0241301
0.9161491 0.0030639 -0.0236598
0.9320552 0.0030721 -0.0231824
0.9479831 0.0031141 -0.0227002
0.9639302 0.0031872 -0.0222154
0.9798943 0.0032889 -0.0217299
0.0077064 0.0485790 -0.0088954
0.0234822 0.0495924 -0.0087711
0.0392287 0.0505858 -0.0086719
0.0549430 0.0515530 -0.0086009
0.0706220 0.0524871 -0.0085607
0.0862626 0.0533808 -0.0085543
0.1018616 0.0542263 -0.0085848
0.1174160 0.0550156 -0.0086551
0.1329227 0.0557407 -0.0087678
0.1483790 0.0563931 -0.0089257
0.1637821 0.0569647 -0.0091310
0.1791297 0.0574473 -0.0093857
0.1944196 0.0578330 -0.0096914
0.2096499 0.0581142 -0.0100493
0.2248190 0.0582836 -0.0104599
0.2399260 0.0583347 -0.0109233
0.2549704 0.0582617 -0.0114386
0.2699524 0.0580602 -0.0120043
0.2848727 0.0577271 -0.0126182
0.2997330 0.0572606 -0.0132769
0.3145357 0.0566613 -0.0139768
0.3292841 0.0559314 -0.0147130
0.3439822 0.0550754 -0.0154803
0.3586348 0.0540998 -0.0162729
0.3732473 0.0530133 -0.0170844
0.3878260 0.0518264 -0.0179082
0.4023773 0.0505509 -0.0187373
0.4169084 0.0491998 -0.0195648
0.4314263 0.0477871 -0.0203837
0.4459383 0.0463267 -0.0211871
0.4604517 0.0448325 -0.0219685
0.4749736 0.0433180 -0.0227215
0.4895106 0.0417958 -0.0234404
0.5040695 0.0402778 -0.0241199
0.5186561 0.0387747 -0.0247551
0.5332763 0.0372961 -0.0253421
0.5479354 0.0358508 -0.0258771
0.5626381 0.0344463 -0.0263575
0.5773888 0.0330894 -0.0267808
0.5921913 0.0317859 -0.0271456
0.6070491 0.0305408 -0.0274506
0.6219651 0.0293585 -0.0276954
0.6369415 0.0282424 -0.0278802
0.6519800 0.0271953 -0.0280055
0.6670818 0.0262191 -0.0280725
0.6822473 0.0253150 -0.0280827
0.6974765 0.0244836 -0.0280384
0.7127687 0.0237247 -0.0279419
0.7281226 0.0230378 -0.0277959
0.7435368 0.0224217 -0.0276036
0.7590090 0.0218746 -0.0273683
0.7745368 0.0213943 -0.0270934
0.7901176 0.0209784 -0.0267825
0.8057483 0.0206241 -0.0264392
0.8214258 0.0203284 -0.0260670
0.8371468 0.0200883 -0.0256696
0.8529081 0.0199004 -0.0252505
0.8687062 0.0197614 -0.0248131
0.8845380 0.0196681 -0.0243605
0.9004002 0.0196172 -0.0238958
0.9162896 0.0196055 -0.0234218
0.9322034 0.0196301 -0.0229412
0.9481387 0.0196878 -0.0224564
0.9640930 0.0197761 -0.0219696
0.9800637 0.0198924 -0.0214827
0.0081188 0.0650149 -0.0085716
0.0239018 0.0660323 -0.0084326
0.0396552 0.0670303 -0.0083191
0.0553759 0.0680024 -0.0082339
0.0710607 0.0689417 -0.0081801
0.0867065 0.0698408 -0.0081609
0.1023099 0.0706920 -0.0081795
0.1178677 0.0714871 -0.0082388
0.1333769 0.0722178 -0.0083419
0.1488346 0.0728759 -0.0084916
0.1642379 0.0734530 -0.0086903
0.1795844 0.0739407 -0.0089403
0.1948717 0.0743310 -0.0092433
0.2100977 0.0746157 -0.0096006
0.2252609 0.0747874 -0.0100130
0.2403601 0.0748391 -0.0104805
0.2553947 0.0747648 -0.0110023
0.2703650 0.0745594 -0.0115769
0.2852718 0.0742195 -0.0122016
0.3001167 0.0737432 -0.0128733
0.3149023 0.0731307 -0.0135877
0.3296321 0.0723843 -0.0143400
0.3443103 0.0715086 -0.0151245
0.3589420 0.0705104 -0.0159349
0.3735330 0.0693990 -0.0167646
0.3880898 0.0681853 -0.0176067
0.4026193 0.0668822 -0.0184537
0.4171288 0.0655035 -0.0192985
0.4316258 0.0640638 -0.0201338
0.4461180 0.0625781 -0.0209524
0.4606127 0.0610609 -0.0217476
0.4751171 0.0595263 -0.0225130
0.4896383 0.0579873 -0.0232427
0.5041827 0.0564559 -0.0239313
0.5187566 0.0549430 -0.0245740
0.5333657 0.0534583 -0.0251666
0.5480151 0.0520100 -0.0257058
0.5627097 0.0506058 -0.0261887
0.5774537 0.0492519 -0.0266132
0.5922510 0.0479540 -0.0269777
0.6071048 0.0467167 -0.0272813
0.6220181 0.0455441 -0.0275237
0.6369930 0.0444395 -0.0277051
0.6520312 0.0434054 -0.0278263
0.6671338 0.0424435 -0.0278884
0.6823012 0.0415551 -0.0278933
0.6975332 0.0407403 -0.0278431
0.7128292 0.0399990 -0.0277404
0.7281878 0.0393304 -0.0275881
0.7436074 0.0387332 -0.0273893
0.7590856 0.0382054 -0.0271475
0.7746201 0.0377448 -0.0268662
0.7902080 0.0373489 -0.0265491
0.8058462 0.0370147 -0.0261998
0.8215315 0.0367391 -0.0258219
0.8372606 0.0365190 -0.0254192
0.8530300 0.0363510 -0.0249952
0.8688364 0.0362316 -0.0245534
0.8846763 0.0361575 -0.0240968
0.9005465 0.0361254 -0.0236287
0.9164438 0.0361320 -0.0231519
0.9323652 0.0361743 -0.0226691
0.9483078 0.0362492 -0.0221827
0.9642689 0.0363538 -0.0216948
0.9802461 0.0364857 -0.0212075
0.0084785 0.0813055 -0.0082754
0.0242673 0.0823210 -0.0081224
0.0400261 0.0833174 -0.0079949
0.0557519 0.0842884 -0.0078960
0.0714413 0.0852269 -0.0078290
0.0870909 0.0861256 -0.0077973
0.1026975 0.0869766 -0.0078040
0.1182577 0.0877719 -0.0078526
0.1337684 0.0885032 -0.0079461
0.1492266 0.0891621 -0.0080874
0.1646293 0.0897401 -0.0082794
0.1799740 0.0902289 -0.0085243
0.1952580 0.0906200 -0.0088242
0.2104793 0.0909052 -0.0091807
0.2256361 0.0910765 -0.0095944
0.2407271 0.0911268 -0.0100655
0.2557519 0.0910496 -0.0105932
0.2707106 0.0908395 -0.0111758
0.2856039 0.0904926 -0.0118108
0.3004338 0.0900069 -0.0124945
0.3152030 0.0893823 -0.0132225
0.3299150 0.0886210 -0.0139895
0.3445745 0.0877279 -0.0147897
0.3591867 0.0867101 -0.0156163
0.3737579 0.0855773 -0.0164624
0.3882948 0.0843412 -0.0173206
0.4028047 0.0830153 -0.0181833
0.4172953 0.0816143 -0.0190428
0.4317743 0.0801538 -0.0198917
0.4462496 0.0786492 -0.0207228
0.4607287 0.0771158 -0.0215289
0.4752192 0.0755683 -0.0223037
0.4897279 0.0740199 -0.0230411
0.5042615 0.0724830 -0.0237358
0.5188262 0.0709683 -0.0243828
0.5334276 0.0694853 -0.0249783
0.5480710 0.0680422 -0.0255187
0.5627609 0.0666462 -0.0260014
0.5775017 0.0653034 -0.0264243
0.5922971 0.0640188 -0.0267861
0.6071502 0.0627969 -0.0270859
0.6220637 0.0616413 -0.0273237
0.6370400 0.0605551 -0.0274998
0.6520805 0.0595406 -0.0276150
0.6671864 0.0585994 -0.0276708
0.6823579 0.0577325 -0.0276690
0.6975949 0.0569399 -0.0276119
0.7128964 0.0562213 -0.0275022
0.7282613 0.0555757 -0.0273429
0.7436877 0.0550018 -0.0271373
0.7591733 0.0544974 -0.0268888
0.7747155 0.0540603 -0.0266011
0.7903113 0.0536878 -0.0262778
0.8059577 0.0533767 -0.0259228
0.8216514 0.0531241 -0.0255398
0.8373889 0.0529265 -0.0251323
0.8531667 0.0527806 -0.0247041
0.8689813 0.0526828 -0.0242586
0.8848294 0.0526298 -0.0237990
0.9007076 0.0526182 -0.0233284
0.9166126 0.0526446 -0.0228497
0.9325415 0.0527059 -0.0223656
0.9484911 0.0527991 -0.0218785
0.9644589 0.0529212 -0.0213906
0.9804424 0.0530696 -0.0209039
0.0087827 0.0974452 -0.0080102
0.0245757 0.0984523 -0.0078438
0.0403385 0.0994408 -0.0077030
0.0560678 0.1004042 -0.0075910
0.0717602 0.1013356 -0.0075113
0.0874123 0.1022275 -0.0074674
0.1030208 0.1030723 -0.0074627
0.1185822 0.1038619 -0.0075005
0.1340934 0.1045880 -0.0075844
0.1495511 0.1052424 -0.0077174
0.1649524 0.1058164 -0.0079024
0.1802944 0.1063016 -0.0081421
0.1955745 0.1066894 -0.0084386
0.2107904 0.1069713 -0.0087937
0.2259403 0.1071391 -0.0092083
0.2410229 0.1071854 -0.0096824
0.2560376 0.1071033 -0.0102154
0.2709845 0.1068872 -0.0108053
0.2858647 0.1065328 -0.0114495
0.3006800 0.1060379 -0.0121441
0.3154334 0.1054023 -0.0128844
0.3301287 0.1046282 -0.0136648
0.3447708 0.1037206 -0.0144789
0.3593653 0.1026869 -0.0153198
0.3739188 0.1015372 -0.0161800
0.3884383 0.1002840 -0.0170519
0.4029314 0.0989414 -0.0179275
0.4174061 0.0975248 -0.0187989
0.4318704 0.0960505 -0.0196585
0.4463323 0.0945347 -0.0204988
0.4607995 0.0929932 -0.0213127
0.4752796 0.0914410 -0.0220937
0.4897797 0.0898918 -0.0228355
0.5043063 0.0883579 -0.0235330
0.5188655 0.0868499 -0.0241813
0.5334631 0.0853773 -0.0247764
0.5481040 0.0839479 -0.0253151
0.5627930 0.0825685 -0.0257947
0.5775340 0.0812448 -0.0262133
0.5923308 0.0799816 -0.0265697
0.6071864 0.0787828 -0.0268634
0.6221035 0.0776517 -0.0270943
0.6370840 0.0765911 -0.0272631
0.6521296 0.0756029 -0.0273706
0.6672412 0.0746887 -0.0274185
0.6824191 0.0738491 -0.0274087
0.6976630 0.0730843 -0.0273437
0.7129721 0.0723936 -0.0272263
0.7283448 0.0717759 -0.0270594
0.7437794 0.0712296 -0.0268466
0.7592735 0.0707527 -0.0265912
0.7748244 0.0703428 -0.0262971
0.7904290 0.0699969 -0.0259680
0.8060843 0.0697121 -0.0256076
0.8217867 0.0694851 -0.0252198
0.8375329 0.0693125 -0.0248083
0.8533193 0.0691909 -0.0243766
0.8691424 0.0691168 -0.0239282
0.8849987 0.0690866 -0.0234664
0.9008847 0.0690969 -0.0229943
0.9167973 0.0691445 -0.0225147
0.9327333 0.0692261 -0.0220304
0.9486897 0.0693386 -0.0215437
0.9646638 0.0694792 -0.0210569
0.9806531 0.0696451 -0.0205718
0.0090287 0.1134295 -0.0077792
0.0248242 0.1144216 -0.0076002
0.0405893 0.1153954 -0.0074468
0.0563205 0.1163444 -0.0073225
0.0720145 0.1172619 -0.0072307
0.0876677 0.1181405 -0.0071751
0.1032767 0.1189726 -0.0071592
0.1188381 0.1197502 -0.0071866
0.1343485 0.1204652 -0.0072610
0.1498047 0.1211092 -0.0073855
0.1652036 0.1216738 -0.0075635
0.1805420 0.1221503 -0.0077977
0.1958174 0.1225299 -0.0080906
0.2110273 0.1228042 -0.0084440
0.2261697 0.1229648 -0.0088589
0.2412434 0.1230039 -0.0093355
0.2562477 0.1229145 -0.0098729
0.2711829 0.1226906 -0.0104692
0.2860501 0.1223280 -0.0111216
0.3008514 0.1218241 -0.0118258
0.3155899 0.1211787 -0.0125768
0.3302699 0.1203941 -0.0133686
0.3448963 0.1194754 -0.0141946
0.3594753 0.1184303 -0.0150473
0.3740136 0.1172694 -0.0159190
0.3885186 0.1160055 -0.0168017
0.4029982 0.1146534 -0.0176872
0.4174605 0.1132292 -0.0185674
0.4319138 0.1117497 -0.0194344
0.4463661 0.1102316 -0.0202805
0.4608254 0.1086912 -0.0210987
0.4752992 0.1071437 -0.0218823
0.4897946 0.1056031 -0.0226253
0.5043182 0.1040814 -0.0233222
0.5188760 0.1025895 -0.0239685
0.5334736 0.1011363 -0.0245601
0.5481159 0.0997295 -0.0250939
0.5628075 0.0983754 -0.0255675
0.5775523 0.0970792 -0.0259791
0.5923539 0.0958453 -0.0263277
0.6072153 0.0946774 -0.0266128
0.6221389 0.0935782 -0.0268347
0.6371267 0.0925502 -0.0269941
0.6521800 0.0915952 -0.0270922
0.6672999 0.0907142 -0.0271307
0.6824865 0.0899080 -0.0271117
0.6977394 0.0891763 -0.0270378
0.7130577 0.0885186 -0.0269117
0.7284400 0.0879334 -0.0267368
0.7438841 0.0874191 -0.0265164
0.7593878 0.0869736 -0.0262541
0.7749483 0.0865944 -0.0259536
0.7905625 0.0862785 -0.0256189
0.8062272 0.0860228 -0.0252536
0.8219389 0.0858241 -0.0248617
0.8376941 0.0856788 -0.0244467
0.8534892 0.0855837 -0.0240123
0.8693207 0.0855350 -0.0235619
0.8851850 0.0855293 -0.0230989
0.9010788 0.0855631 -0.0226263
0.9169986 0.0856331 -0.0221469
0.9329415 0.0857361 -0.0216635
0.9489043 0.0858690 -0.0211783
0.9648843 0.0860289 -0.0206937
0.9808790 0.0862130 -0.0202114
0.0092143 0.1292550 -0.0075853
0.0250106 0.1302253 -0.0073947
0.0407763 0.1311774 -0.0072297
0.0565078 0.1321052 -0.0070938
0.0722016 0.1330018 -0.0069906
0.0878544 0.1338603 -0.0069238
0.1034626 0.1346729 -0.0068972
0.1190226 0.1354320 -0.0069146
0.1345310 0.1361294 -0.0069796
0.1499845 0.1367569 -0.0070959
0.1653798 0.1373060 -0.0072668
0.1807138 0.1377681 -0.0074953
0.1959835 0.1381344 -0.0077843
0.2111865 0.1383962 -0.0081355
0.2263208 0.1385451 -0.0085501
0.2413851 0.1385733 -0.0090284
0.2563788 0.1384735 -0.0095694
0.2713022 0.1382398 -0.0101711
0.2861567 0.1378678 -0.0108302
0.3009447 0.1373549 -0.0115424
0.3156696 0.1367012 -0.0123021
0.3303358 0.1359089 -0.0131032
0.3449489 0.1349832 -0.0139384
0.3595150 0.1339323 -0.0148001
0.3740412 0.1327668 -0.0156803
0.3885352 0.1314999 -0.0165706
0.4030049 0.1301470 -0.0174625
0.4174588 0.1287244 -0.0183479
0.4319052 0.1272494 -0.0192186
0.4463522 0.1257392 -0.0200671
0.4608079 0.1242102 -0.0208860
0.4752797 0.1226779 -0.0216687
0.4897746 0.1211560 -0.0224092
0.5042993 0.1196568 -0.0231022
0.5188597 0.1181906 -0.0237431
0.5334612 0.1167663 -0.0243281
0.5481087 0.1153911 -0.0248541
0.5628066 0.1140710 -0.0253188
0.5775587 0.1128107 -0.0257207
0.5923685 0.1116142 -0.0260589
0.6072388 0.1104848 -0.0263332
0.6221720 0.1094249 -0.0265439
0.6371698 0.1084365 -0.0266920
0.6522337 0.1075211 -0.0267790
0.6673643 0.1066796 -0.0268067
0.6825617 0.1059124 -0.0267772
0.6978257 0.1052193 -0.0266934
0.7131551 0.1045994 -0.0265581
0.7285483 0.1040513 -0.0263746
0.7440033 0.1035732 -0.0261464
0.7595178 0.1031629 -0.0258771
0.7750888 0.1028179 -0.0255704
0.7907132 0.1025350 -0.0252304
0.8063878 0.1023113 -0.0248607
0.8221090 0.1021433 -0.0244652
0.8378734 0.1020276 -0.0240475
0.8536774 0.1019608 -0.0236112
0.8695172 0.1019393 -0.0231598
0.8853895 0.1019596 -0.0226966
0.9012907 0.1020182 -0.0222245
0.9172175 0.1021118 -0.0217464
0.9331668 0.1022372 -0.0212650
0.9491356 0.1023914 -0.0207825
0.9651211 0.1025714 -0.0203012
0.9811206 0.1027744 -0.0198229
0.0093377 0.1449201 -0.0074312
0.0251330 0.1458614 -0.0072301
0.0408974 0.1467848 -0.0070545
0.0566274 0.1476842 -0.0069080
0.0723196 0.1485530 -0.0067942
0.0879703 0.1493843 -0.0067170
0.1035761 0.1501706 -0.0066802
0.1191334 0.1509042 -0.0066879
0.1346385 0.1515774 -0.0067439
0.1500881 0.1521818 -0.0068520
0.1654786 0.1527091 -0.0070159
0.1808069 0.1531507 -0.0072388
0.1960700 0.1534977 -0.0075234
0.2112653 0.1537416 -0.0078721
0.2263907 0.1538740 -0.0082859
0.2414451 0.1538870 -0.0087650
0.2564278 0.1537734 -0.0093085
0.2713395 0.1535274 -0.0099141
0.2861819 0.1531447 -0.0105783
0.3009576 0.1526231 -0.0112963
0.3156704 0.1519627 -0.0120624
0.3303251 0.1511659 -0.0128699
0.3449274 0.1502382 -0.0137113
0.3594838 0.1491878 -0.0145787
0.3740016 0.1480255 -0.0154637
0.3884884 0.1467647 -0.0163579
0.4029526 0.1454207 -0.0172526
0.4174025 0.1440103 -0.0181393
0.4318464 0.1425509 -0.0190100
0.4462927 0.1410598 -0.0198569
0.4607493 0.1395535 -0.0206728
0.4752235 0.1380474 -0.0214511
0.4897223 0.1365553 -0.0221857
0.5042523 0.1350890 -0.0228714
0.5188193 0.1336588 -0.0235037
0.5334286 0.1322731 -0.0240790
0.5480850 0.1309387 -0.0245942
0.5627927 0.1296613 -0.0250473
0.5775556 0.1284452 -0.0254369
0.5923768 0.1272940 -0.0257623
0.6072591 0.1262104 -0.0260235
0.6222048 0.1251968 -0.0262211
0.6372155 0.1242546 -0.0263562
0.6522924 0.1233852 -0.0264305
0.6674361 0.1225891 -0.0264459
0.6826466 0.1218664 -0.0264050
0.6979235 0.1212170 -0.0263103
0.7132656 0.1206397 -0.0261651
0.7286713 0.1201330 -0.0259726
0.7441385 0.1196951 -0.0257364
0.7596646 0.1193236 -0.0254601
0.7752470 0.1190159 -0.0251475
0.7908823 0.1187691 -0.0248025
0.8065672 0.1185799 -0.0244289
0.8222983 0.1184450 -0.0240305
0.8380720 0.1183609 -0.0236109
0.8538848 0.1183243 -0.0231736
0.8697329 0.1183316 -0.0227222
0.8856128 0.1183793 -0.0222597
0.9015211 0.1184639 -0.0217893
0.9174545 0.1185821 -0.0213137
0.9334099 0.1187309 -0.0208354
0.9493841 0.1189070 -0.0203568
0.9653745 0.1191077 -0.0198800
0.9813784 0.1193303 -0.0194068
0.0093974 0.1604242 -0.0073194
0.0251898 0.1613296 -0.0071090
0.0409511 0.1622173 -0.0069239
0.0566780 0.1630812 -0.0067677
0.0723667 0.1639150 -0.0066443
0.0880139 0.1647120 -0.0065574
0.1036157 0.1654649 -0.0065112
0.1191687 0.1661662 -0.0065098
0.1346691 0.1668081 -0.0065573
0.1501134 0.1673827 -0.0066576
0.1654979 0.1678815 -0.0068145
0.1808194 0.1682961 -0.0070316
0.1960748 0.1686178 -0.0073118
0.2112614 0.1688380 -0.0076574
0.2263773 0.1689486 -0.0080696
0.2414212 0.1689418 -0.0085486
0.2563929 0.1688107 -0.0090933
0.2712932 0.1685497 -0.0097012
0.2861241 0.1681551 -0.0103684
0.3008888 0.1676251 -0.0110897
0.3155915 0.1669600 -0.0118591
0.3302373 0.1661627 -0.0126696
0.3448322 0.1652387 -0.0135134
0.3593827 0.1641962 -0.0143825
0.3738961 0.1630459 -0.0152684
0.3883803 0.1618011 -0.0161624
0.4028435 0.1604771 -0.0170558
0.4172941 0.1590905 -0.0179399
0.4317405 0.1576586 -0.0188066
0.4461908 0.1561987 -0.0196481
0.4606529 0.1547271 -0.0204572
0.4751340 0.1532591 -0.0212273
0.4896411 0.1518080 -0.0219526
0.5041805 0.1503856 -0.0226278
0.5187580 0.1490016 -0.0232485
0.5333788 0.1476641 -0.0238111
0.5480477 0.1463797 -0.0243128
0.5627687 0.1451534 -0.0247517
0.5775455 0.1439895 -0.0251266
0.5923813 0.1428910 -0.0254370
0.6072786 0.1418605 -0.0256832
0.6222395 0.1408998 -0.0258658
0.6372657 0.1400102 -0.0259863
0.6523581 0.1391926 -0.0260464
0.6675172 0.1384475 -0.0260484
0.6827428 0.1377746 -0.0259949
0.6980345 0.1371736 -0.0258887
0.7133909 0.1366433 -0.0257330
0.7288104 0.1361822 -0.0255311
0.7442909 0.1357881 -0.0252868
0.7598297 0.1354588 -0.0250036
0.7754240 0.1351915 -0.0246853
0.7910708 0.1349834 -0.0243357
