ref/imx226_D50_jzazbz_203.cube
TITLE "4493439568"
LUT_3D_SIZE 5
0.0067213 -0.0185562 -0.0042808
0.2540081 -0.0106698 -0.0048034
0.4896459 -0.0280912 -0.0150560
0.7282704 -0.0474267 -0.0221396
0.9792849 -0.0498432 -0.0205766
0.0089529 0.2370886 -0.0047046
0.2552144 0.2408153 -0.0046519
0.4892507 0.2236452 -0.0152664
0.7298461 0.2121471 -0.0192170
0.9830777 0.2163321 -0.0161459
-0.0029014 0.4626004 -0.0170500
0.2421965 0.4540756 -0.0169564
0.4854796 0.4577919 -0.0183316
0.7354646 0.4704295 -0.0139921
0.9903210 0.4831615 -0.0099353
-0.0168741 0.6955742 -0.0312639
0.2271608 0.6821512 -0.0337139
0.4815295 0.7002011 -0.0265539
0.7401927 0.7290660 -0.0147797
0.9955233 0.7471980 -0.0089115
-0.0220308 0.9536655 -0.0366922
0.2225328 0.9423022 -0.0405443
0.4787997 0.9583303 -0.0329682
0.7391397 0.9869669 -0.0199449
0.9947140 1.0064979 -0.0123459
-0.0002951 -0.0253973 0.2488414
0.2430838 -0.0272824 0.2453256
0.4792504 -0.0441806 0.2355588
0.7221218 -0.0545842 0.2301801
0.9775377 -0.0498808 0.2334147
0.0023133 0.2362269 0.2476443
0.2439524 0.2295335 0.2433140
0.4822772 0.2157027 0.2363587
0.7273677 0.2129186 0.2351849
0.9833872 0.2212057 0.2394573
-0.0084937 0.4689355 0.2345085
0.2362514 0.4654674 0.2334974
0.4849533 0.4702464 0.2363640
0.7392891 0.4837592 0.2442180
0.9946817 0.4952412 0.2493141
-0.0207078 0.7052806 0.2212197
0.2237715 0.6965951 0.2190261
0.4828489 0.7176124 0.2309262
0.7460656 0.7466668 0.2456757
1.0019706 0.7627728 0.2516278
-0.0246616 0.9638039 0.2188320
0.2191530 0.9520119 0.2144832
0.4789901 0.9695992 0.2250850
0.7431817 1.0005734 0.2405565
0.9984063 1.0187459 0.2474123
-0.0122343 -0.0491245 0.5001825
0.2298113 -0.0607120 0.4971436
0.4722468 -0.0681766 0.4919924
0.7245818 -0.0590872 0.4893629
0.9824185 -0.0455250 0.4901930
-0.0069132 0.2241018 0.4994627
0.2365246 0.2158996 0.4959615
0.4808307 0.2102058 0.4929251
0.7337824 0.2190879 0.4927849
0.9901086 0.2305939 0.4941525
-0.0100136 0.4825261 0.4931388
0.2380402 0.4820826 0.4929520
0.4882011 0.4849220 0.4940058
0.7427663 0.4931213 0.4973595
0.9979425 0.5018684 0.5004817
-0.0141693 0.7393047 0.4871150
0.2341267 0.7393371 0.4886456
0.4858843 0.7434956 0.4937901
0.7446004 0.7566879 0.5006034
1.0013868 0.7684176 0.5046726
-0.0197653 0.9943161 0.4860033
0.2258180 0.9905586 0.4871652
0.4783218 0.9947723 0.4935356
0.7383849 1.0104739 0.5014754
0.9951012 1.0240457 0.5044390
-0.0226341 -0.0724696 0.7530604
0.2215205 -0.0881730 0.7538095
0.4746290 -0.0805017 0.7518117
0.7337026 -0.0562014 0.7467487
0.9915121 -0.0375402 0.7448114
-0.0158987 0.2089443 0.7530208
0.2310616 0.2005547 0.7530293
0.4843272 0.2084826 0.7502396
0.7417648 0.2251225 0.7458846
0.9990986 0.2403349 0.7441164
-0.0089797 0.4962654 0.7543553
0.2412374 0.4967852 0.7537535
0.4913457 0.4945154 0.7501935
0.7446199 0.4987671 0.7477201
0.9996265 0.5061352 0.7466415
-0.0099988 0.7664216 0.7558413
0.2354150 0.7634095 0.7581978
0.4841014 0.7583654 0.7556885
0.7378781 0.7599861 0.7522367
0.9951999 0.7672373 0.7512946
-0.0172027 1.0197793 0.7555561
0.2256740 1.0166755 0.7607680
0.4714478 1.0133693 0.7628535
0.7267740 1.0152699 0.7597072
0.9869089 1.0243109 0.7573416
-0.0244202 -0.0747244 1.0067772
0.2239296 -0.0843473 1.0082457
0.4810836 -0.0742435 1.0067162
0.7425139 -0.0490245 0.9999705
0.9992709 -0.0300174 0.9969913
-0.0175331 0.2081493 1.0081592
0.2321380 0.2025737 1.0085202
0.4895982 0.2118594 1.0046487
0.7511023 0.2330972 0.9937513
1.0056237 0.2465988 0.9912579
-0.0102743 0.4982478 1.0114427
0.2409197 0.5004476 1.0106350
0.4934370 0.5008000 1.0037539
0.7473498 0.5034975 0.9954008
1.0019698 0.5106823 0.9923759
-0.0113116 0.7730557 1.0157715
0.2343826 0.7732015 1.0185934
0.4810597 0.7668410 1.0141072
0.7343204 0.7633107 1.0044431
0.9928892 0.7702493 1.0003761
-0.0175706 1.0313608 1.0174002
0.2243700 1.0286808 1.0229467
0.4678404 1.0226308 1.0231108
0.7222024 1.0206903 1.0152679
0.9839277 1.0292424 1.0100194
