ref/imx226_CNDIYLF_3030_4690K_honeycomb_jzazbz_203.cube
TITLE "4492571536"
LUT_3D_SIZE 65
0.0031710 -0.0123317 -0.0110106
0.0187415 -0.0118761 -0.0110936
0.0342936 -0.0114305 -0.0111893
0.0498260 -0.0109979 -0.0112985
0.0653371 -0.0105817 -0.0114221
0.0808256 -0.0101856 -0.0115607
0.0962899 -0.0098133 -0.0117154
0.1117286 -0.0094689 -0.0118867
0.1271404 -0.0091567 -0.0120755
0.1425238 -0.0088808 -0.0122821
0.1578778 -0.0086454 -0.0125069
0.1732012 -0.0084547 -0.0127501
0.1884933 -0.0083126 -0.0130115
0.2037535 -0.0082229 -0.0132909
0.2189813 -0.0081891 -0.0135876
0.2341767 -0.0082141 -0.0139007
0.2493398 -0.0083005 -0.0142289
0.2644712 -0.0084504 -0.0145707
0.2795719 -0.0086649 -0.0149243
0.2946433 -0.0089444 -0.0152874
0.3096870 -0.0092886 -0.0156577
0.3247054 -0.0096960 -0.0160324
0.3397010 -0.0101644 -0.0164089
0.3546768 -0.0106903 -0.0167842
0.3696361 -0.0112699 -0.0171553
0.3845824 -0.0118981 -0.0175191
0.3995197 -0.0125694 -0.0178727
0.4144519 -0.0132777 -0.0182130
0.4293832 -0.0140168 -0.0185371
0.4443178 -0.0147801 -0.0188422
0.4592599 -0.0155609 -0.0191257
0.4742137 -0.0163530 -0.0193853
0.4891832 -0.0171500 -0.0196187
0.5041723 -0.0179463 -0.0198241
0.5191846 -0.0187362 -0.0199999
0.5342236 -0.0195148 -0.0201448
0.5492925 -0.0202776 -0.0202579
0.5643940 -0.0210203 -0.0203386
0.5795308 -0.0217393 -0.0203866
0.5947050 -0.0224313 -0.0204021
0.6099185 -0.0230936 -0.0203853
0.6251726 -0.0237237 -0.0203370
0.6404684 -0.0243199 -0.0202582
0.6558065 -0.0248806 -0.0201500
0.6711870 -0.0254048 -0.0200138
0.6866097 -0.0258917 -0.0198514
0.7020741 -0.0263410 -0.0196645
0.7175790 -0.0267528 -0.0194551
0.7331234 -0.0271274 -0.0192251
0.7487055 -0.0274655 -0.0189769
0.7643236 -0.0277679 -0.0187124
0.7799756 -0.0280358 -0.0184340
0.7956594 -0.0282704 -0.0181437
0.8113726 -0.0284730 -0.0178438
0.8271130 -0.0286454 -0.0175364
0.8428781 -0.0287889 -0.0172234
0.8586655 -0.0289053 -0.0169067
0.8744730 -0.0289961 -0.0165883
0.8902982 -0.0290629 -0.0162698
0.9061390 -0.0291073 -0.0159527
0.9219932 -0.0291308 -0.0156386
0.9378590 -0.0291348 -0.0153287
0.9537346 -0.0291208 -0.0150242
0.9696184 -0.0290900 -0.0147262
0.9855087 -0.0290437 -0.0144356
0.0036993 0.0041440 -0.0106848
0.0192794 0.0046127 -0.0107569
0.0348408 0.0050718 -0.0108421
0.0503820 0.0055182 -0.0109411
0.0659013 0.0059483 -0.0110551
0.0813973 0.0063584 -0.0111849
0.0968682 0.0067446 -0.0113315
0.1123126 0.0071024 -0.0114959
0.1277289 0.0074277 -0.0116788
0.1431156 0.0077160 -0.0118809
0.1584715 0.0079629 -0.0121025
0.1737955 0.0081641 -0.0123440
0.1890866 0.0083154 -0.0126054
0.2043440 0.0084128 -0.0128863
0.2195673 0.0084526 -0.0131862
0.2347564 0.0084315 -0.0135042
0.2499113 0.0083466 -0.0138388
0.2650326 0.0081957 -0.0141886
0.2801214 0.0079775 -0.0145514
0.2951790 0.0076912 -0.0149250
0.3102073 0.0073373 -0.0153067
0.3252087 0.0069172 -0.0156937
0.3401860 0.0064334 -0.0160831
0.3551422 0.0058892 -0.0164717
0.3700809 0.0052892 -0.0168564
0.3850059 0.0046387 -0.0172339
0.3999213 0.0039436 -0.0176009
0.4148314 0.0032105 -0.0179544
0.4297405 0.0024464 -0.0182913
0.4446532 0.0016582 -0.0186087
0.4595737 0.0008529 -0.0189038
0.4745065 0.0000373 -0.0191741
0.4894557 -0.0007821 -0.0194174
0.5044252 -0.0015993 -0.0196317
0.5194190 -0.0024087 -0.0198153
0.5344405 -0.0032051 -0.0199671
0.5494929 -0.0039840 -0.0200859
0.5645791 -0.0047412 -0.0201713
0.5797018 -0.0054732 -0.0202231
0.5948631 -0.0061766 -0.0202413
0.6100650 -0.0068487 -0.0202263
0.6253087 -0.0074873 -0.0201790
0.6405955 -0.0080904 -0.0201004
0.6559258 -0.0086567 -0.0199916
0.6712998 -0.0091851 -0.0198544
0.6867172 -0.0096750 -0.0196904
0.7021775 -0.0101261 -0.0195014
0.7176796 -0.0105385 -0.0192895
0.7332221 -0.0109127 -0.0190569
0.7488033 -0.0112494 -0.0188058
0.7644214 -0.0115496 -0.0185384
0.7800743 -0.0118144 -0.0182569
0.7957596 -0.0120452 -0.0179637
0.8114751 -0.0122435 -0.0176609
0.8272182 -0.0124108 -0.0173507
0.8429864 -0.0125490 -0.0170351
0.8587773 -0.0126596 -0.0167162
0.8745885 -0.0127444 -0.0163957
0.8904176 -0.0128049 -0.0160754
0.9062623 -0.0128430 -0.0157569
0.9221205 -0.0128602 -0.0154416
0.9379902 -0.0128579 -0.0151310
0.9538696 -0.0128377 -0.0148260
0.9697570 -0.0128009 -0.0145279
0.9856507 -0.0127487 -0.0142376
0.0042144 0.0205539 -0.0103475
0.0198041 0.0210333 -0.0104080
0.0353748 0.0215036 -0.0104817
0.0509247 0.0219614 -0.0105698
0.0664522 0.0224032 -0.0106734
0.0819556 0.0228251 -0.0107937
0.0974331 0.0232228 -0.0109316
0.1128831 0.0235921 -0.0110883
0.1283039 0.0239284 -0.0112647
0.1436939 0.0242272 -0.0114615
0.1590518 0.0244840 -0.0116795
0.1743763 0.0246943 -0.0119188
0.1896663 0.0248537 -0.0121796
0.2049210 0.0249579 -0.0124617
0.2201398 0.0250029 -0.0127646
0.2353224 0.0249851 -0.0130872
0.2504691 0.0249014 -0.0134282
0.2655802 0.0247493 -0.0137857
0.2806569 0.0245272 -0.0141578
0.2957007 0.0242343 -0.0145418
0.3107136 0.0238708 -0.0149350
0.3256980 0.0234383 -0.0153343
0.3406568 0.0229391 -0.0157365
0.3555935 0.0223772 -0.0161383
0.3705118 0.0217571 -0.0165364
0.3854158 0.0210848 -0.0169272
0.4003098 0.0203667 -0.0173075
0.4151983 0.0196100 -0.0176739
0.4300860 0.0188220 -0.0180231
0.4449774 0.0180105 -0.0183523
0.4598773 0.0171827 -0.0186584
0.4747901 0.0163458 -0.0189390
0.4897201 0.0155066 -0.0191916
0.5046714 0.0146713 -0.0194143
0.5196479 0.0138456 -0.0196053
0.5346532 0.0130346 -0.0197633
0.5496905 0.0122430 -0.0198875
0.5647628 0.0114746 -0.0199771
0.5798726 0.0107332 -0.0200322
0.5950223 0.0100219 -0.0200527
0.6102137 0.0093432 -0.0200392
0.6254482 0.0086995 -0.0199926
0.6407270 0.0080926 -0.0199139
0.6560505 0.0075238 -0.0198045
0.6714188 0.0069941 -0.0196661
0.6868318 0.0065039 -0.0195005
0.7022887 0.0060536 -0.0193096
0.7177885 0.0056429 -0.0190955
0.7333296 0.0052714 -0.0188605
0.7489104 0.0049383 -0.0186068
0.7645289 0.0046424 -0.0183368
0.7801828 0.0043825 -0.0180528
0.7958699 0.0041572 -0.0177572
0.8115876 0.0039649 -0.0174520
0.8273334 0.0038040 -0.0171397
0.8431048 0.0036726 -0.0168222
0.8588991 0.0035690 -0.0165016
0.8747139 0.0034914 -0.0161798
0.8905467 0.0034381 -0.0158584
0.9063952 0.0034073 -0.0155392
0.9222572 0.0033975 -0.0152236
0.9381306 0.0034069 -0.0149129
0.9540135 0.0034342 -0.0146083
0.9699042 0.0034779 -0.0143109
0.9858011 0.0035366 -0.0140215
0.0047142 0.0368933 -0.0100000
0.0203134 0.0373808 -0.0100482
0.0358931 0.0378596 -0.0101099
0.0514516 0.0383262 -0.0101863
0.0669872 0.0387770 -0.0102789
0.0824979 0.0392079 -0.0103888
0.0979818 0.0396147 -0.0105173
0.1134373 0.0399929 -0.0106656
0.1288625 0.0403379 -0.0108348
0.1442558 0.0406452 -0.0110258
0.1596156 0.0409101 -0.0112394
0.1749406 0.0411278 -0.0114760
0.1902295 0.0412939 -0.0117358
0.2054814 0.0414037 -0.0120188
0.2206956 0.0414530 -0.0123242
0.2358718 0.0414379 -0.0126512
0.2510101 0.0413550 -0.0129983
0.2661110 0.0412015 -0.0133636
0.2811756 0.0409755 -0.0137448
0.2962055 0.0406760 -0.0141392
0.3112029 0.0403032 -0.0145438
0.3261702 0.0398584 -0.0149553
0.3411108 0.0393444 -0.0153702
0.3560281 0.0387652 -0.0157851
0.3709263 0.0381258 -0.0161963
0.3858097 0.0374326 -0.0166002
0.4006828 0.0366927 -0.0169932
0.4155504 0.0359137 -0.0173720
0.4304175 0.0351037 -0.0177331
0.4452889 0.0342708 -0.0180734
0.4601692 0.0334228 -0.0183900
0.4750633 0.0325674 -0.0186802
0.4899755 0.0317114 -0.0189416
0.5049100 0.0308613 -0.0191720
0.5198707 0.0300227 -0.0193697
0.5348613 0.0292009 -0.0195335
0.5498850 0.0284003 -0.0196623
0.5649448 0.0276247 -0.0197556
0.5800433 0.0268777 -0.0198134
0.5951828 0.0261622 -0.0198357
0.6103651 0.0254807 -0.0198233
0.6255917 0.0248355 -0.0197771
0.6408636 0.0242282 -0.0196981
0.6561813 0.0236601 -0.0195880
0.6715450 0.0231320 -0.0194484
0.6869544 0.0226446 -0.0192811
0.7024086 0.0221978 -0.0190884
0.7179066 0.0217915 -0.0188722
0.7334470 0.0214251 -0.0186351
0.7490277 0.0210977 -0.0183793
0.7646469 0.0208081 -0.0181071
0.7803022 0.0205551 -0.0178211
0.7959911 0.0203371 -0.0175235
0.8117112 0.0201524 -0.0172167
0.8274597 0.0199994 -0.0169029
0.8432341 0.0198761 -0.0165842
0.8590317 0.0197808 -0.0162627
0.8748499 0.0197116 -0.0159403
0.8906862 0.0196666 -0.0156187
0.9065383 0.0196441 -0.0152996
0.9224038 0.0196425 -0.0149844
0.9382806 0.0196600 -0.0146745
0.9541668 0.0196951 -0.0143710
0.9700606 0.0197463 -0.0140751
0.9859604 0.0198124 -0.0137875
0.0051965 0.0531578 -0.0096441
0.0208049 0.0536505 -0.0096793
0.0363934 0.0541348 -0.0097283
0.0519603 0.0546072 -0.0097924
0.0675036 0.0550639 -0.0098732
0.0830214 0.0555009 -0.0099721
0.0985116 0.0559139 -0.0100905
0.1139724 0.0562983 -0.0102297
0.1294019 0.0566495 -0.0103910
0.1447983 0.0569629 -0.0105756
0.1601600 0.0572337 -0.0107842
0.1754854 0.0574570 -0.0110175
0.1907732 0.0576281 -0.0112758
0.2060223 0.0577422 -0.0115591
0.2212319 0.0577947 -0.0118668
0.2364016 0.0577815 -0.0121979
0.2515314 0.0576988 -0.0125509
0.2666220 0.0575436 -0.0129238
0.2816744 0.0573136 -0.0133140
0.2966904 0.0570076 -0.0137186
0.3116722 0.0566257 -0.0141344
0.3266226 0.0561692 -0.0145579
0.3415451 0.0556410 -0.0149854
0.3564434 0.0550453 -0.0154130
0.3713219 0.0543876 -0.0158370
0.3861852 0.0536749 -0.0162535
0.4010383 0.0529147 -0.0166588
0.4158860 0.0521153 -0.0170494
0.4307336 0.0512855 -0.0174217
0.4455860 0.0504338 -0.0177725
0.4604483 0.0495686 -0.0180989
0.4753251 0.0486978 -0.0183979
0.4902211 0.0478286 -0.0186672
0.5051404 0.0469674 -0.0189046
0.5200870 0.0461200 -0.0191084
0.5350646 0.0452914 -0.0192772
0.5500764 0.0444859 -0.0194100
0.5651255 0.0437073 -0.0195064
0.5802143 0.0429588 -0.0195663
0.5953451 0.0422432 -0.0195901
0.6105198 0.0415629 -0.0195783
0.6257397 0.0409199 -0.0195320
0.6410060 0.0403158 -0.0194526
0.6563191 0.0397518 -0.0193415
0.6716792 0.0392288 -0.0192005
0.6870858 0.0387470 -0.0190317
0.7025382 0.0383067 -0.0188372
0.7180352 0.0379073 -0.0186193
0.7335752 0.0375485 -0.0183803
0.7491564 0.0372291 -0.0181227
0.7647766 0.0369481 -0.0178489
0.7804334 0.0367039 -0.0175614
0.7961243 0.0364950 -0.0172626
0.8118468 0.0363196 -0.0169547
0.8275980 0.0361759 -0.0166401
0.8433753 0.0360622 -0.0163210
0.8591760 0.0359764 -0.0159994
0.8749975 0.0359167 -0.0156772
0.8908370 0.0358811 -0.0153562
0.9066923 0.0358679 -0.0150380
0.9225610 0.0358753 -0.0147241
0.9384410 0.0359016 -0.0144158
0.9543301 0.0359453 -0.0141143
0.9702266 0.0360048 -0.0138206
0.9861288 0.0360788 -0.0135357
0.0056591 0.0693435 -0.0092815
0.0212763 0.0698381 -0.0093031
0.0368733 0.0703247 -0.0093388
0.0524483 0.0707995 -0.0093901
0.0679990 0.0712589 -0.0094585
0.0835236 0.0716988 -0.0095457
0.0990198 0.0721148 -0.0096533
0.1144857 0.0725024 -0.0097828
0.1299194 0.0728570 -0.0099355
0.1453188 0.0731739 -0.0101129
0.1606822 0.0734481 -0.0103158
0.1760079 0.0736748 -0.0105452
0.1912945 0.0738490 -0.0108015
0.2065406 0.0739657 -0.0110846
0.2217455 0.0740201 -0.0113941
0.2369085 0.0740078 -0.0117289
0.2520299 0.0739246 -0.0120875
0.2671101 0.0737671 -0.0124676
0.2821503 0.0735329 -0.0128666
0.2971523 0.0732205 -0.0132813
0.3121187 0.0728299 -0.0137081
0.3270524 0.0723623 -0.0141433
0.3419571 0.0718208 -0.0145829
0.3568369 0.0712098 -0.0150229
0.3716964 0.0705354 -0.0154592
0.3865405 0.0698050 -0.0158878
0.4013745 0.0690267 -0.0163048
0.4162035 0.0682095 -0.0167064
0.4310329 0.0673627 -0.0170893
0.4458680 0.0664955 -0.0174499
0.4607137 0.0656165 -0.0177851
0.4755751 0.0647341 -0.0180922
0.4904566 0.0638556 -0.0183687
0.5053625 0.0629876 -0.0186123
0.5202969 0.0621356 -0.0188212
0.5352633 0.0613047 -0.0189942
0.5502651 0.0604988 -0.0191304
0.5653051 0.0597216 -0.0192292
0.5803859 0.0589761 -0.0192907
0.5955098 0.0582647 -0.0193153
0.6106784 0.0575897 -0.0193037
0.6258932 0.0569529 -0.0192570
0.6411552 0.0563557 -0.0191768
0.6564648 0.0557994 -0.0190645
0.6718223 0.0552847 -0.0189222
0.6872271 0.0548118 -0.0187519
0.7026785 0.0543808 -0.0185558
0.7181751 0.0539912 -0.0183363
0.7337154 0.0536424 -0.0180959
0.7492974 0.0533334 -0.0178369
0.7649189 0.0530630 -0.0175620
0.7805774 0.0528296 -0.0172735
0.7962704 0.0526315 -0.0169740
0.8119953 0.0524671 -0.0166659
0.8277491 0.0523344 -0.0163513
0.8435292 0.0522315 -0.0160325
0.8593329 0.0521565 -0.0157116
0.8751572 0.0521074 -0.0153905
0.8909997 0.0520822 -0.0150709
0.9068579 0.0520792 -0.0147545
0.9227295 0.0520965 -0.0144427
0.9386121 0.0521324 -0.0141369
0.9545037 0.0521853 -0.0138383
0.9704026 0.0522538 -0.0135478
0.9863069 0.0523362 -0.0132663
0.0060999 0.0854470 -0.0089142
0.0217254 0.0859401 -0.0089217
0.0373305 0.0864253 -0.0089436
0.0529131 0.0868991 -0.0089814
0.0684709 0.0873577 -0.0090369
0.0840018 0.0877969 -0.0091118
0.0995038 0.0882126 -0.0092080
0.1149745 0.0886001 -0.0093270
0.1304120 0.0889549 -0.0094705
0.1458142 0.0892723 -0.0096399
0.1611792 0.0895473 -0.0098365
0.1765052 0.0897749 -0.0100613
0.1917903 0.0899500 -0.0103148
0.2070334 0.0900673 -0.0105972
0.2222334 0.0901220 -0.0109080
0.2373897 0.0901091 -0.0112461
0.2525025 0.0900244 -0.0116098
0.2675722 0.0898641 -0.0119968
0.2826002 0.0896254 -0.0124041
0.2975885 0.0893068 -0.0128284
0.3125396 0.0889078 -0.0132659
0.3274569 0.0884300 -0.0137124
0.3423444 0.0878764 -0.0141637
0.3572064 0.0872518 -0.0146155
0.3720478 0.0865627 -0.0150634
0.3868739 0.0858170 -0.0155034
0.4016901 0.0850235 -0.0159313
0.4165018 0.0841917 -0.0163434
0.4313147 0.0833316 -0.0167359
0.4461341 0.0824527 -0.0171054
0.4609652 0.0815642 -0.0174487
0.4758130 0.0806746 -0.0177630
0.4906820 0.0797914 -0.0180457
0.5055766 0.0789212 -0.0182946
0.5205007 0.0780694 -0.0185080
0.5354580 0.0772409 -0.0186845
0.5504516 0.0764394 -0.0188232
0.5654844 0.0756682 -0.0189238
0.5805591 0.0749300 -0.0189862
0.5956776 0.0742272 -0.0190111
0.6108417 0.0735617 -0.0189992
0.6260529 0.0729352 -0.0189518
0.6413120 0.0723488 -0.0188705
0.6566195 0.0718038 -0.0187569
0.6719755 0.0713007 -0.0186132
0.6873794 0.0708399 -0.0184414
0.7028305 0.0704211 -0.0182439
0.7183274 0.0700440 -0.0180232
0.7338685 0.0697079 -0.0177816
0.7494517 0.0694116 -0.0175217
0.7650748 0.0691539 -0.0172462
0.7807352 0.0689332 -0.0169575
0.7964304 0.0687478 -0.0166580
0.8121576 0.0685959 -0.0163502
0.8279139 0.0684756 -0.0160365
0.8436966 0.0683849 -0.0157189
0.8595029 0.0683218 -0.0153995
0.8753299 0.0682844 -0.0150803
0.8911750 0.0682706 -0.0147631
0.9070357 0.0682786 -0.0144494
0.9229096 0.0683066 -0.0141407
0.9387945 0.0683529 -0.0138383
0.9546882 0.0684157 -0.0135434
0.9705889 0.0684936 -0.0132569
0.9864949 0.0685852 -0.0129797
0.0065167 0.1014656 -0.0085440
0.0221502 0.1019535 -0.0085371
0.0377627 0.1024337 -0.0085448
0.0533523 0.1029027 -0.0085687
0.0689167 0.1033566 -0.0086107
0.0844537 0.1037916 -0.0086728
0.0999609 0.1042032 -0.0087569
0.1154361 0.1045872 -0.0088648
0.1308772 0.1049389 -0.0089983
0.1462820 0.1052535 -0.0091591
0.1616484 0.1055262 -0.0093487
0.1769742 0.1057518 -0.0095681
0.1922578 0.1059252 -0.0098182
0.2074976 0.1060409 -0.0100991
0.2226926 0.1060937 -0.0104105
0.2378421 0.1060788 -0.0107512
0.2529462 0.1059913 -0.0111194
0.2680054 0.1058273 -0.0115127
0.2830213 0.1055837 -0.0119279
0.2979960 0.1052588 -0.0123613
0.3129323 0.1048522 -0.0128088
0.3278339 0.1043652 -0.0132659
0.3427049 0.1038012 -0.0137282
0.3575501 0.1031652 -0.0141911
0.3723747 0.1024641 -0.0146500
0.3871841 0.1017062 -0.0151005
0.4019842 0.1009011 -0.0155386
0.4167805 0.1000588 -0.0159601
0.4315788 0.0991896 -0.0163613
0.4463846 0.0983038 -0.0167388
0.4612031 0.0974107 -0.0170893
0.4760394 0.0965189 -0.0174100
0.4908981 0.0956362 -0.0176981
0.5057834 0.0947688 -0.0179515
0.5206993 0.0939224 -0.0181684
0.5356494 0.0931012 -0.0183476
0.5506369 0.0923089 -0.0184882
0.5656645 0.0915484 -0.0185898
0.5807347 0.0908223 -0.0186526
0.5958496 0.0901325 -0.0186772
0.6110109 0.0894807 -0.0186647
0.6262200 0.0888684 -0.0186162
0.6414775 0.0882967 -0.0185335
0.6567841 0.0877665 -0.0184186
0.6721397 0.0872784 -0.0182734
0.6875437 0.0868327 -0.0181003
0.7029954 0.0864292 -0.0179016
0.7184932 0.0860673 -0.0176798
0.7340355 0.0857462 -0.0174376
0.7496203 0.0854648 -0.0171773
0.7652452 0.0852219 -0.0169018
0.7809077 0.0850159 -0.0166134
0.7966051 0.0848449 -0.0163147
0.8123345 0.0847071 -0.0160081
0.8280932 0.0846006 -0.0156960
0.8438782 0.0845234 -0.0153804
0.8596868 0.0844734 -0.0150635
0.8755161 0.0844487 -0.0147471
0.8913634 0.0844472 -0.0144331
0.9072261 0.0844671 -0.0141231
0.9231020 0.0845065 -0.0138184
0.9389886 0.0845637 -0.0135203
0.9548839 0.0846370 -0.0132301
0.9707859 0.0847250 -0.0129485
0.9866930 0.0848260 -0.0126765
0.0069078 0.1173973 -0.0081731
0.0225484 0.1178762 -0.0081516
0.0381678 0.1183474 -0.0081446
0.0537639 0.1188077 -0.0081543
0.0693343 0.1192532 -0.0081824
0.0848767 0.1196800 -0.0082312
0.1003887 0.1200838 -0.0083026
0.1158681 0.1204605 -0.0083988
0.1313124 0.1208053 -0.0085217
0.1467194 0.1211138 -0.0086731
0.1620867 0.1213808 -0.0088548
0.1774122 0.1216013 -0.0090682
0.1926940 0.1217699 -0.0093140
0.2079303 0.1218812 -0.0095927
0.2231201 0.1219300 -0.0099039
0.2382626 0.1219108 -0.0102464
0.2533579 0.1218190 -0.0106184
0.2684068 0.1216502 -0.0110171
0.2834108 0.1214012 -0.0114393
0.2983723 0.1210701 -0.0118809
0.3132944 0.1206565 -0.0123375
0.3281811 0.1201619 -0.0128045
0.3430368 0.1195895 -0.0132769
0.3578666 0.1189449 -0.0137499
0.3726760 0.1182352 -0.0142188
0.3874706 0.1174692 -0.0146790
0.4022565 0.1166569 -0.0151261
0.4170395 0.1158089 -0.0155562
0.4318254 0.1149360 -0.0159652
0.4466199 0.1140486 -0.0163498
0.4614281 0.1131564 -0.0167066
0.4762552 0.1122681 -0.0170327
0.4911058 0.1113914 -0.0173253
0.5059840 0.1105325 -0.0175825
0.5208939 0.1096967 -0.0178022
0.5358389 0.1088880 -0.0179833
0.5508222 0.1081099 -0.0181251
0.5658464 0.1073650 -0.0182271
0.5809140 0.1066553 -0.0182898
0.5960270 0.1059828 -0.0183137
0.6111871 0.1053489 -0.0183000
0.6263955 0.1047547 -0.0182502
0.6416529 0.1042014 -0.0181661
0.6569598 0.1036896 -0.0180496
0.6723160 0.1032198 -0.0179030
0.6877211 0.1027922 -0.0177286
0.7031740 0.1024067 -0.0175290
0.7186734 0.1020626 -0.0173066
0.7342175 0.1017590 -0.0170641
0.7498042 0.1014948 -0.0168040
0.7654311 0.1012687 -0.0165291
0.7810957 0.1010791 -0.0162417
0.7967952 0.1009242 -0.0159446
0.8125268 0.1008020 -0.0156400
0.8282876 0.1007106 -0.0153303
0.8440747 0.1006480 -0.0150176
0.8598852 0.1006122 -0.0147041
0.8757163 0.1006011 -0.0143915
0.8915653 0.1006128 -0.0140817
0.9074297 0.1006453 -0.0137762
0.9233069 0.1006968 -0.0134764
0.9391947 0.1007656 -0.0131837
0.9550910 0.1008500 -0.0128989
0.9709939 0.1009484 -0.0126232
0.9869016 0.1010594 -0.0123573
0.0072711 0.1332407 -0.0078037
0.0229181 0.1337067 -0.0077673
0.0385438 0.1341651 -0.0077456
0.0541456 0.1346127 -0.0077407
0.0697214 0.1350457 -0.0077546
0.0852686 0.1354603 -0.0077896
0.1007849 0.1358525 -0.0078479
0.1162678 0.1362179 -0.0079317
0.1317149 0.1365521 -0.0080433
0.1471236 0.1368505 -0.0081847
0.1624915 0.1371082 -0.0083579
0.1778163 0.1373200 -0.0085643
0.1930959 0.1374806 -0.0088051
0.2083284 0.1375846 -0.0090806
0.2235128 0.1376264 -0.0093907
0.2386482 0.1376007 -0.0097340
0.2537348 0.1375026 -0.0101087
0.2687735 0.1373277 -0.0105119
0.2837660 0.1370726 -0.0109399
0.2987150 0.1367355 -0.0113885
0.3136239 0.1363159 -0.0118531
0.3284969 0.1358154 -0.0123285
0.3433389 0.1352374 -0.0128098
0.3581551 0.1345875 -0.0132918
0.3729512 0.1338734 -0.0137696
0.3877332 0.1331042 -0.0142383
0.4025073 0.1322900 -0.0146936
0.4172794 0.1314421 -0.0151312
0.4320554 0.1305714 -0.0155471
0.4468410 0.1296886 -0.0159378
0.4616415 0.1288035 -0.0163000
0.4764618 0.1279249 -0.0166306
0.4913066 0.1270602 -0.0169271
0.5061800 0.1262155 -0.0171871
0.5210860 0.1253959 -0.0174090
0.5360279 0.1246050 -0.0175914
0.5510089 0.1238461 -0.0177337
0.5660316 0.1231213 -0.0178357
0.5810984 0.1224326 -0.0178977
0.5962111 0.1217816 -0.0179206
0.6113715 0.1211694 -0.0179055
0.6265806 0.1205971 -0.0178541
0.6418392 0.1200656 -0.0177683
0.6571475 0.1195755 -0.0176503
0.6725054 0.1191272 -0.0175023
0.6879124 0.1187207 -0.0173269
0.7033674 0.1183558 -0.0171266
0.7188689 0.1180319 -0.0169040
0.7344152 0.1177481 -0.0166617
0.7500040 0.1175033 -0.0164024
0.7656331 0.1172959 -0.0161287
0.7812999 0.1171244 -0.0158432
0.7970014 0.1169871 -0.0155483
0.8127350 0.1168819 -0.0152465
0.8284976 0.1168069 -0.0149402
0.8442864 0.1167600 -0.0146313
0.8600985 0.1167394 -0.0143220
0.8759310 0.1167428 -0.0140142
0.8917813 0.1167685 -0.0137095
0.9076466 0.1168143 -0.0134095
0.9235247 0.1168784 -0.0131156
0.9394132 0.1169593 -0.0128290
0.9553099 0.1170551 -0.0125508
0.9712130 0.1171645 -0.0122818
0.9871207 0.1172858 -0.0120228
0.0076049 0.1489954 -0.0074381
0.0232577 0.1494446 -0.0073867
0.0388887 0.1498863 -0.0073501
0.0544956 0.1503172 -0.0073304
0.0700760 0.1507337 -0.0073298
0.0856274 0.1511321 -0.0073507
0.1011473 0.1515084 -0.0073954
0.1166331 0.1518586 -0.0074665
0.1320823 0.1521781 -0.0075663
0.1474921 0.1524625 -0.0076971
0.1628601 0.1527070 -0.0078610
0.1781836 0.1529063 -0.0080598
0.1934606 0.1530553 -0.0082946
0.2086890 0.1531485 -0.0085660
0.2238677 0.1531804 -0.0088738
0.2389959 0.1531455 -0.0092168
0.2540739 0.1530390 -0.0095929
0.2691027 0.1528565 -0.0099991
0.2840844 0.1525947 -0.0104314
0.2990219 0.1522518 -0.0108855
0.3139189 0.1518274 -0.0113564
0.3287800 0.1513231 -0.0118387
0.3436102 0.1507427 -0.0123273
0.3584150 0.1500918 -0.0128168
0.3732004 0.1493782 -0.0133021
0.3879724 0.1486112 -0.0137782
0.4027373 0.1478015 -0.0142404
0.4175012 0.1469601 -0.0146844
0.4322700 0.1460983 -0.0151063
0.4470495 0.1452270 -0.0155022
0.4618448 0.1443558 -0.0158689
0.4766608 0.1434933 -0.0162033
0.4915022 0.1426469 -0.0165028
0.5063731 0.1418225 -0.0167652
0.5212773 0.1410245 -0.0169886
0.5362182 0.1402567 -0.0171718
0.5511987 0.1395218 -0.0173141
0.5662217 0.1388218 -0.0174155
0.5812892 0.1381583 -0.0174765
0.5964033 0.1375326 -0.0174979
0.6115653 0.1369459 -0.0174813
0.6267765 0.1363990 -0.0174282
0.6420374 0.1358926 -0.0173407
0.6573483 0.1354272 -0.0172212
0.6727089 0.1350032 -0.0170721
0.6881186 0.1346205 -0.0168959
0.7035763 0.1342788 -0.0166953
0.7190804 0.1339776 -0.0164729
0.7346293 0.1337157 -0.0162313
0.7502205 0.1334921 -0.0159734
0.7658519 0.1333052 -0.0157016
0.7815208 0.1331535 -0.0154186
0.7972243 0.1330352 -0.0151268
0.8129596 0.1329483 -0.0148287
0.8287237 0.1328908 -0.0145266
0.8445138 0.1328607 -0.0142225
0.8603270 0.1328560 -0.0139184
0.8761605 0.1328748 -0.0136162
0.8920114 0.1329151 -0.0133176
0.9078772 0.1329748 -0.0130241
0.9237556 0.1330522 -0.0127370
0.9396441 0.1331456 -0.0124575
0.9555406 0.1332533 -0.0121866
0.9714434 0.1333738 -0.0119252
0.9873504 0.1335058 -0.0116740
0.0079078 0.1646620 -0.0070783
0.0235654 0.1650905 -0.0070120
0.0392009 0.1655115 -0.0069605
0.0548120 0.1659217 -0.0069260
0.0703962 0.1663177 -0.0069108
0.0859509 0.1666958 -0.0069174
0.1014736 0.1670522 -0.0069484
0.1169616 0.1673829 -0.0070065
0.1324120 0.1676837 -0.0070941
0.1478223 0.1679500 -0.0072138
0.1631896 0.1681772 -0.0073678
0.1785114 0.1683602 -0.0075581
0.1937852 0.1684938 -0.0077861
0.2090092 0.1685726 -0.0080523
0.2241820 0.1685913 -0.0083566
0.2393031 0.1685444 -0.0086978
0.2543727 0.1684272 -0.0090738
0.2693922 0.1682356 -0.0094812
0.2843640 0.1679664 -0.0099161
0.2992913 0.1676180 -0.0103737
0.3141783 0.1671904 -0.0108487
0.3290296 0.1666851 -0.0113359
0.3438505 0.1661061 -0.0118298
0.3586467 0.1654590 -0.0123250
0.3734241 0.1647515 -0.0128161
0.3881891 0.1639932 -0.0132981
0.4029478 0.1631945 -0.0137660
0.4177065 0.1623669 -0.0142154
0.4324711 0.1615214 -0.0146421
0.4472472 0.1606687 -0.0150424
0.4620400 0.1598184 -0.0154128
0.4768544 0.1589789 -0.0157503
0.4916947 0.1581572 -0.0160523
0.5065652 0.1573589 -0.0163163
0.5214696 0.1565882 -0.0165407
0.5364112 0.1558485 -0.0167243
0.5513932 0.1551422 -0.0168663
0.5664180 0.1544711 -0.0169669
0.5814878 0.1538367 -0.0170265
0.5966046 0.1532401 -0.0170464
0.6117698 0.1526822 -0.0170279
0.6269842 0.1521639 -0.0169731
0.6422486 0.1516856 -0.0168841
0.6575630 0.1512478 -0.0167632
0.6729272 0.1508508 -0.0166132
0.6883403 0.1504944 -0.0164365
0.7038013 0.1501783 -0.0162359
0.7193086 0.1499018 -0.0160142
0.7348603 0.1496638 -0.0157740
0.7504542 0.1494632 -0.0155180
0.7660879 0.1492985 -0.0152489
0.7817588 0.1491680 -0.0149692
0.7974641 0.1490700 -0.0146814
0.8132008 0.1490026 -0.0143878
