ref/imx226_3000K_jzazbz_203.cube
TITLE "4548717264"
LUT_3D_SIZE 5
0.0152516 -0.0013461 0.0031300
0.2642627 0.0037261 0.0058869
0.4994769 -0.0227882 -0.0014783
0.7360144 -0.0482917 -0.0101191
0.9846897 -0.0496790 -0.0150540
0.0131026 0.2568919 -0.0053657
0.2601713 0.2559426 -0.0023454
0.4950911 0.2278159 -0.0075601
0.7351578 0.2100734 -0.0109139
0.9871419 0.2166654 -0.0136587
-0.0050618 0.4793985 -0.0244488
0.2403493 0.4673127 -0.0233087
0.4857884 0.4633092 -0.0195428
0.7377522 0.4718685 -0.0130102
0.9932382 0.4868101 -0.0126335
-0.0231025 0.7098442 -0.0414102
0.2200433 0.6954284 -0.0453270
0.4773425 0.7123445 -0.0381798
0.7403851 0.7388877 -0.0243239
0.9978003 0.7569531 -0.0183301
-0.0285611 0.9682061 -0.0469769
0.2152347 0.9581579 -0.0537893
0.4739095 0.9754068 -0.0490402
0.7385181 1.0019542 -0.0344104
0.9966250 1.0195216 -0.0244824
0.0067396 -0.0244947 0.2631773
0.2512437 -0.0322056 0.2643985
0.4865949 -0.0560996 0.2577915
0.7273288 -0.0674374 0.2486354
0.9806123 -0.0569373 0.2428646
0.0061696 0.2400317 0.2543994
0.2483688 0.2267290 0.2548817
0.4863392 0.2061643 0.2512255
0.7305718 0.2013187 0.2485671
0.9855440 0.2156631 0.2454220
-0.0103249 0.4725782 0.2352958
0.2354460 0.4648740 0.2372197
0.4856471 0.4669777 0.2419054
0.7413478 0.4801391 0.2487533
0.9970079 0.4937294 0.2502780
-0.0264778 0.7091219 0.2194278
0.2180674 0.6998968 0.2174472
0.4803672 0.7211219 0.2284040
0.7475484 0.7505587 0.2413612
1.0048286 0.7671579 0.2462438
-0.0305952 0.9672689 0.2188692
0.2128121 0.9574165 0.2126470
0.4753923 0.9768493 0.2190912
0.7441504 1.0063435 0.2344448
1.0013548 1.0230823 0.2427493
-0.0084888 -0.0647498 0.5211328
0.2338075 -0.0834650 0.5234326
0.4751740 -0.0939628 0.5197159
0.7253333 -0.0785594 0.5089789
0.9821795 -0.0551843 0.4992932
-0.0051643 0.2132077 0.5120795
0.2381970 0.1996883 0.5127143
0.4819818 0.1914091 0.5119466
0.7336468 0.2062282 0.5051180
0.9894441 0.2259958 0.4978406
-0.0105115 0.4747108 0.5031496
0.2381333 0.4729080 0.5041053
0.4887668 0.4759187 0.5043054
0.7437128 0.4874731 0.5034781
0.9990639 0.4999988 0.5018959
-0.0166545 0.7333123 0.4968567
0.2330944 0.7318925 0.5002920
0.4869957 0.7341888 0.5058048
0.7475279 0.7511036 0.5074159
1.0045892 0.7659200 0.5066824
-0.0224712 0.9828660 0.5018843
0.2241324 0.9744491 0.5080330
0.4793763 0.9757189 0.5152147
0.7424085 0.9951624 0.5175910
0.9994520 1.0138178 0.5146416
-0.0214796 -0.0993224 0.7808748
0.2226567 -0.1197486 0.7857736
0.4736408 -0.1097419 0.7791475
0.7307677 -0.0741133 0.7616732
0.9883885 -0.0451206 0.7498420
-0.0159608 0.1861684 0.7738205
0.2302020 0.1735988 0.7767107
0.4825550 0.1861022 0.7698126
0.7389821 0.2149364 0.7539657
0.9959371 0.2398643 0.7424833
-0.0086470 0.4784407 0.7722844
0.2417728 0.4803567 0.7710829
0.4915664 0.4809260 0.7648564
0.7445573 0.4910966 0.7559523
0.9992234 0.5050642 0.7476262
-0.0088061 0.7459712 0.7805033
0.2392748 0.7381078 0.7908859
0.4886239 0.7337566 0.7859876
0.7422673 0.7428568 0.7724908
0.9983579 0.7578642 0.7617248
-0.0159965 0.9892812 0.7908796
0.2293593 0.9732197 0.8116630
0.4779120 0.9645833 0.8189514
0.7335305 0.9754645 0.8033086
0.9924835 0.9992578 0.7841222
-0.0251413 -0.1073268 1.0383241
0.2228567 -0.1171492 1.0397986
0.4779245 -0.1003140 1.0300693
0.7374057 -0.0628855 1.0096625
0.9944095 -0.0353169 0.9988911
-0.0187627 0.1782216 1.0349029
0.2302662 0.1727948 1.0348452
0.4859721 0.1908921 1.0220194
0.7457259 0.2279427 0.9946415
1.0006302 0.2487038 0.9857282
-0.0102508 0.4706585 1.0370199
0.2414446 0.4753348 1.0349764
0.4935434 0.4826020 1.0227907
0.7464744 0.4950094 1.0047811
1.0003325 0.5095881 0.9934835
-0.0087901 0.7397489 1.0505385
0.2405456 0.7362823 1.0611921
0.4885049 0.7305559 1.0576407
0.7395988 0.7370073 1.0359461
0.9958134 0.7555858 1.0175202
-0.0140698 0.9875437 1.0640562
0.2317963 0.9733688 1.0848322
0.4778711 0.9615265 1.0920989
0.7309107 0.9708024 1.0711480
0.9899559 0.9965030 1.0463001
