ref/imx226_6500K_jzazbz_203.cube
TITLE "4523889936"
LUT_3D_SIZE 65
0.0051320 -0.0181779 -0.0118209
0.0208541 -0.0172349 -0.0117850
0.0365491 -0.0163120 -0.0117729
0.0522146 -0.0154147 -0.0117864
0.0678481 -0.0145489 -0.0118277
0.0834473 -0.0137207 -0.0118986
0.0990096 -0.0129369 -0.0120013
0.1145325 -0.0122045 -0.0121378
0.1300137 -0.0115306 -0.0123098
0.1454509 -0.0109224 -0.0125193
0.1608418 -0.0103872 -0.0127677
0.1761847 -0.0099321 -0.0130563
0.1914779 -0.0095637 -0.0133860
0.2067199 -0.0092883 -0.0137572
0.2219099 -0.0091118 -0.0141702
0.2370471 -0.0090393 -0.0146246
0.2521315 -0.0090748 -0.0151194
0.2671631 -0.0092218 -0.0156533
0.2821430 -0.0094824 -0.0162242
0.2970725 -0.0098573 -0.0168297
0.3119537 -0.0103459 -0.0174664
0.3267892 -0.0109464 -0.0181306
0.3415822 -0.0116551 -0.0188181
0.3563367 -0.0124671 -0.0195241
0.3710570 -0.0133761 -0.0202435
0.3857481 -0.0143743 -0.0209709
0.4004152 -0.0154532 -0.0217006
0.4150641 -0.0166032 -0.0224268
0.4297004 -0.0178142 -0.0231436
0.4443305 -0.0190755 -0.0238452
0.4589602 -0.0203765 -0.0245260
0.4735958 -0.0217065 -0.0251804
0.4882431 -0.0230551 -0.0258034
0.5029080 -0.0244123 -0.0263901
0.5175959 -0.0257686 -0.0269363
0.5323123 -0.0271151 -0.0274380
0.5470619 -0.0284436 -0.0278920
0.5618493 -0.0297465 -0.0282953
0.5766787 -0.0310171 -0.0286459
0.5915536 -0.0322491 -0.0289418
0.6064773 -0.0334373 -0.0291821
0.6214524 -0.0345772 -0.0293662
0.6364811 -0.0356648 -0.0294940
0.6515649 -0.0366970 -0.0295661
0.6667049 -0.0376714 -0.0295835
0.6819015 -0.0385861 -0.0295477
0.6971549 -0.0394399 -0.0294604
0.7124644 -0.0402323 -0.0293240
0.7278291 -0.0409633 -0.0291411
0.7432476 -0.0416333 -0.0289145
0.7587182 -0.0422434 -0.0286473
0.7742389 -0.0427948 -0.0283427
0.7898072 -0.0432893 -0.0280039
0.8054206 -0.0437288 -0.0276345
0.8210765 -0.0441156 -0.0272377
0.8367720 -0.0444520 -0.0268169
0.8525043 -0.0447405 -0.0263754
0.8682705 -0.0449835 -0.0259163
0.8840679 -0.0451838 -0.0254425
0.8998935 -0.0453438 -0.0249570
0.9157448 -0.0454661 -0.0244624
0.9316191 -0.0455531 -0.0239611
0.9475142 -0.0456072 -0.0234554
0.9634277 -0.0456307 -0.0229473
0.9793574 -0.0456256 -0.0224387
0.0057226 -0.0012877 -0.0113898
0.0214560 -0.0003223 -0.0113390
0.0371620 0.0006236 -0.0113122
0.0528379 0.0015445 -0.0113116
0.0684813 0.0024343 -0.0113394
0.0840895 0.0032865 -0.0113978
0.0996599 0.0040940 -0.0114889
0.1151898 0.0048497 -0.0116152
0.1306767 0.0055460 -0.0117785
0.1461182 0.0061753 -0.0119810
0.1615119 0.0067302 -0.0122242
0.1768559 0.0072033 -0.0125096
0.1921483 0.0075874 -0.0128384
0.2073877 0.0078760 -0.0132110
0.2225729 0.0080628 -0.0136278
0.2377032 0.0081424 -0.0140884
0.2527783 0.0081101 -0.0145921
0.2677985 0.0079623 -0.0151373
0.2827645 0.0076968 -0.0157220
0.2976778 0.0073123 -0.0163435
0.3125405 0.0068095 -0.0169984
0.3273554 0.0061903 -0.0176828
0.3421259 0.0054584 -0.0183920
0.3568562 0.0046191 -0.0191211
0.3715508 0.0036792 -0.0198646
0.3862150 0.0026468 -0.0206169
0.4008543 0.0015313 -0.0213718
0.4154748 0.0003430 -0.0221233
0.4300826 -0.0009073 -0.0228651
0.4446841 -0.0022083 -0.0235911
0.4592858 -0.0035486 -0.0242955
0.4738939 -0.0049168 -0.0249724
0.4885146 -0.0063022 -0.0256165
0.5031540 -0.0076942 -0.0262230
0.5178177 -0.0090830 -0.0267872
0.5325112 -0.0104597 -0.0273052
0.5472394 -0.0118158 -0.0277737
0.5620070 -0.0131437 -0.0281897
0.5768181 -0.0144366 -0.0285511
0.5916765 -0.0156884 -0.0288561
0.6065854 -0.0168938 -0.0291036
0.6215475 -0.0180482 -0.0292931
0.6365649 -0.0191479 -0.0294248
0.6516392 -0.0201898 -0.0294991
0.6667715 -0.0211715 -0.0295172
0.6819621 -0.0220914 -0.0294807
0.6972112 -0.0229483 -0.0293916
0.7125180 -0.0237419 -0.0292522
0.7278815 -0.0244722 -0.0290653
0.7433003 -0.0251398 -0.0288339
0.7587725 -0.0257460 -0.0285611
0.7742959 -0.0262921 -0.0282503
0.7898680 -0.0267800 -0.0279050
0.8054863 -0.0272118 -0.0275287
0.8211477 -0.0275899 -0.0271249
0.8368495 -0.0279168 -0.0266970
0.8525886 -0.0281952 -0.0262485
0.8683620 -0.0284276 -0.0257825
0.8841668 -0.0286170 -0.0253021
0.9000001 -0.0287658 -0.0248104
0.9158590 -0.0288769 -0.0243099
0.9317410 -0.0289528 -0.0238032
0.9476436 -0.0289959 -0.0232927
0.9635643 -0.0290087 -0.0227803
0.9795010 -0.0289932 -0.0222679
0.0062758 0.0154882 -0.0109698
0.0220199 0.0164720 -0.0109038
0.0377360 0.0174371 -0.0108622
0.0534217 0.0183778 -0.0108472
0.0690742 0.0192876 -0.0108612
0.0846908 0.0201600 -0.0109067
0.1002686 0.0209875 -0.0109860
0.1158049 0.0217629 -0.0111016
0.1312970 0.0224782 -0.0112558
0.1467423 0.0231256 -0.0114508
0.1621384 0.0236974 -0.0116884
0.1774831 0.0241859 -0.0119702
0.1927746 0.0245836 -0.0122975
0.2080111 0.0248836 -0.0126710
0.2231914 0.0250793 -0.0130911
0.2383147 0.0251649 -0.0135576
0.2533806 0.0251352 -0.0140696
0.2683892 0.0249864 -0.0146257
0.2833415 0.0247157 -0.0152238
0.2982388 0.0243219 -0.0158608
0.3130833 0.0238052 -0.0165334
0.3278780 0.0231678 -0.0172372
0.3426265 0.0224135 -0.0179675
0.3573330 0.0215478 -0.0187189
0.3720026 0.0205781 -0.0194858
0.3866407 0.0195130 -0.0202619
0.4012532 0.0183625 -0.0210409
0.4158465 0.0171378 -0.0218164
0.4304271 0.0158505 -0.0225819
0.4450016 0.0145127 -0.0233309
0.4595769 0.0131365 -0.0240573
0.4741594 0.0117337 -0.0247550
0.4887556 0.0103158 -0.0254186
0.5033717 0.0088935 -0.0260429
0.5180134 0.0074770 -0.0266233
0.5326864 0.0060754 -0.0271558
0.5473956 0.0046972 -0.0276369
0.5621457 0.0033500 -0.0280638
0.5769409 0.0020404 -0.0284343
0.5917851 0.0007746 -0.0287466
0.6066815 -0.0004422 -0.0289998
0.6216327 -0.0016056 -0.0291934
0.6366409 -0.0027119 -0.0293275
0.6517078 -0.0037581 -0.0294029
0.6668342 -0.0047421 -0.0294207
0.6820206 -0.0056623 -0.0293827
0.6972669 -0.0065177 -0.0292909
0.7125725 -0.0073080 -0.0291480
0.7279362 -0.0080334 -0.0289566
0.7433564 -0.0086948 -0.0287201
0.7588312 -0.0092933 -0.0284416
0.7743583 -0.0098307 -0.0281247
0.7899351 -0.0103088 -0.0277730
0.8055588 -0.0107299 -0.0273900
0.8212265 -0.0110966 -0.0269795
0.8369350 -0.0114115 -0.0265449
0.8526813 -0.0116774 -0.0260899
0.8684623 -0.0118971 -0.0256175
0.8842748 -0.0120734 -0.0251312
0.9001160 -0.0122092 -0.0246338
0.9159828 -0.0123073 -0.0241281
0.9318726 -0.0123704 -0.0236167
0.9477827 -0.0124010 -0.0231020
0.9637108 -0.0124016 -0.0225861
0.9796545 -0.0123744 -0.0220708
0.0067881 0.0321415 -0.0105642
0.0225418 0.0331393 -0.0104830
0.0382673 0.0341190 -0.0104264
0.0539618 0.0350749 -0.0103969
0.0696226 0.0360003 -0.0103970
0.0852467 0.0368885 -0.0104294
0.1008312 0.0377318 -0.0104966
0.1163732 0.0385227 -0.0106013
0.1318698 0.0392531 -0.0107461
0.1473183 0.0399150 -0.0109332
0.1627162 0.0405004 -0.0111647
0.1780613 0.0410014 -0.0114425
0.1933514 0.0414103 -0.0117678
0.2085848 0.0417197 -0.0121417
0.2237601 0.0419227 -0.0125646
0.2388763 0.0420130 -0.0130365
0.2539329 0.0419851 -0.0135564
0.2689301 0.0418348 -0.0141229
0.2838687 0.0415590 -0.0147337
0.2987502 0.0411560 -0.0153857
0.3135769 0.0406261 -0.0160753
0.3283518 0.0399714 -0.0167979
0.3430788 0.0391957 -0.0175484
0.3577624 0.0383050 -0.0183212
0.3724078 0.0373069 -0.0191103
0.3870208 0.0362109 -0.0199090
0.4016077 0.0350277 -0.0207108
0.4161752 0.0337692 -0.0215089
0.4307302 0.0324480 -0.0222964
0.4452797 0.0310768 -0.0230666
0.4598305 0.0296685 -0.0238130
0.4743897 0.0282356 -0.0245296
0.4889637 0.0267900 -0.0252105
0.5035590 0.0253428 -0.0258505
0.5181813 0.0239043 -0.0264450
0.5328364 0.0224838 -0.0269898
0.5475293 0.0210896 -0.0274815
0.5622647 0.0197294 -0.0279172
0.5770468 0.0184096 -0.0282947
0.5918794 0.0171362 -0.0286125
0.6067657 0.0159141 -0.0288696
0.6217085 0.0147479 -0.0290656
0.6367098 0.0136409 -0.0292008
0.6517713 0.0125959 -0.0292759
0.6668939 0.0116152 -0.0292923
0.6820779 0.0106999 -0.0292518
0.6973232 0.0098510 -0.0291567
0.7126291 0.0090687 -0.0290095
0.7279944 0.0083525 -0.0288133
0.7434173 0.0077016 -0.0285714
0.7588959 0.0071145 -0.0282871
0.7744276 0.0065896 -0.0279641
0.7900099 0.0061246 -0.0276061
0.8056398 0.0057172 -0.0272168
0.8213142 0.0053647 -0.0267999
0.8370300 0.0050645 -0.0263592
0.8527839 0.0048135 -0.0258981
0.8685727 0.0046088 -0.0254201
0.8843933 0.0044475 -0.0249284
0.9002424 0.0043266 -0.0244261
0.9161173 0.0042433 -0.0239160
0.9320149 0.0041947 -0.0234008
0.9479326 0.0041781 -0.0228827
0.9638679 0.0041911 -0.0223641
0.9798186 0.0042312 -0.0218467
0.0072559 0.0486642 -0.0101765
0.0230181 0.0496709 -0.0100802
0.0387519 0.0506603 -0.0100088
0.0544542 0.0516263 -0.0099647
0.0701223 0.0525624 -0.0099509
0.0857529 0.0534613 -0.0099700
0.1013431 0.0543155 -0.0100249
0.1168899 0.0551172 -0.0101186
0.1323902 0.0558584 -0.0102536
0.1478412 0.0565307 -0.0104326
0.1632404 0.0571260 -0.0106577
0.1785853 0.0576362 -0.0109309
0.1938737 0.0580534 -0.0112538
0.2091037 0.0583699 -0.0116276
0.2242737 0.0585782 -0.0120529
0.2393826 0.0586719 -0.0125295
0.2544300 0.0586449 -0.0130568
0.2694158 0.0584926 -0.0136330
0.2843409 0.0582115 -0.0142560
0.2992069 0.0577998 -0.0149223
0.3140162 0.0572574 -0.0156281
0.3287719 0.0565864 -0.0163686
0.3434781 0.0557907 -0.0171384
0.3581395 0.0548766 -0.0179315
0.3727618 0.0538524 -0.0187414
0.3873511 0.0527280 -0.0195613
0.4019140 0.0515149 -0.0203842
0.4164575 0.0502260 -0.0212030
0.4309888 0.0488745 -0.0220105
0.4455154 0.0474742 -0.0227997
0.4600443 0.0460386 -0.0235640
0.4745826 0.0445808 -0.0242971
0.4891372 0.0431132 -0.0249929
0.5037144 0.0416471 -0.0256463
0.5183203 0.0401929 -0.0262524
0.5329605 0.0387601 -0.0268071
0.5476401 0.0373568 -0.0273070
0.5623637 0.0359904 -0.0277492
0.5771357 0.0346674 -0.0281316
0.5919595 0.0333932 -0.0284528
0.6068386 0.0321728 -0.0287119
0.6217755 0.0310102 -0.0289085
0.6367724 0.0299089 -0.0290432
0.6518309 0.0288714 -0.0291166
0.6669517 0.0278996 -0.0291304
0.6821353 0.0269949 -0.0290865
0.6973815 0.0261577 -0.0289871
0.7126893 0.0253883 -0.0288352
0.7280576 0.0246859 -0.0286337
0.7434846 0.0240498 -0.0283861
0.7589680 0.0234782 -0.0280959
0.7745054 0.0229692 -0.0277668
0.7900940 0.0225208 -0.0274027
0.8057307 0.0221303 -0.0270074
0.8214124 0.0217950 -0.0265847
0.8371359 0.0215120 -0.0261383
0.8528977 0.0212783 -0.0256719
0.8686946 0.0210909 -0.0251890
0.8845233 0.0209466 -0.0246928
0.9003806 0.0208425 -0.0241864
0.9162634 0.0207756 -0.0236728
0.9321688 0.0207430 -0.0231545
0.9480941 0.0207419 -0.0226341
0.9640366 0.0207697 -0.0221136
0.9799941 0.0208241 -0.0215950
0.0076757 0.0650491 -0.0098101
0.0234453 0.0660593 -0.0096990
0.0391861 0.0670528 -0.0096129
0.0548951 0.0680233 -0.0095544
0.0705692 0.0689644 -0.0095267
0.0862053 0.0698686 -0.0095326
0.1018002 0.0707283 -0.0095753
0.1173507 0.0715358 -0.0096577
0.1328538 0.0722827 -0.0097828
0.1483067 0.0729609 -0.0099533
0.1637065 0.0735620 -0.0101716
0.1790506 0.0740778 -0.0104399
0.1943368 0.0745000 -0.0107600
0.2095629 0.0748207 -0.0111332
0.2247273 0.0750322 -0.0115603
0.2398288 0.0751274 -0.0120412
0.2548667 0.0751001 -0.0125751
0.2698412 0.0749452 -0.0131605
0.2847531 0.0746587 -0.0137949
0.2996039 0.0742385 -0.0144747
0.3143962 0.0736844 -0.0151958
0.3291333 0.0729984 -0.0159532
0.3438196 0.0721846 -0.0167410
0.3584601 0.0712495 -0.0175529
0.3730607 0.0702018 -0.0183822
0.3876278 0.0690522 -0.0192215
0.4021685 0.0678130 -0.0200635
0.4166901 0.0664978 -0.0209009
0.4312002 0.0651208 -0.0217260
0.4457064 0.0636966 -0.0225319
0.4602161 0.0622393 -0.0233115
0.4747366 0.0607627 -0.0240584
0.4892748 0.0592795 -0.0247665
0.5038372 0.0578013 -0.0254305
0.5184298 0.0563386 -0.0260456
0.5330583 0.0549007 -0.0266076
0.5477278 0.0534957 -0.0271130
0.5624429 0.0521307 -0.0275593
0.5772078 0.0508119 -0.0279442
0.5920260 0.0495444 -0.0282665
0.6069007 0.0483327 -0.0285255
0.6218346 0.0471808 -0.0287209
0.6368297 0.0460918 -0.0288533
0.6518875 0.0450680 -0.0289237
0.6670090 0.0441114 -0.0289336
0.6821943 0.0432229 -0.0288851
0.6974431 0.0424029 -0.0287807
0.7127546 0.0416514 -0.0286234
0.7281274 0.0409677 -0.0284161
0.7435597 0.0403506 -0.0281626
0.7590491 0.0397986 -0.0278664
0.7745931 0.0393095 -0.0275315
0.7901888 0.0388810 -0.0271616
0.8058330 0.0385105 -0.0267607
0.8215226 0.0381952 -0.0263326
0.8372541 0.0379322 -0.0258812
0.8530242 0.0377182 -0.0254102
0.8688293 0.0375501 -0.0249231
0.8846662 0.0374249 -0.0244233
0.9005316 0.0373394 -0.0239138
0.9164224 0.0372905 -0.0233976
0.9323355 0.0372754 -0.0228773
0.9482682 0.0372912 -0.0223555
0.9642177 0.0373351 -0.0218342
0.9801817 0.0374049 -0.0213154
0.0080445 0.0812899 -0.0094685
0.0238200 0.0822976 -0.0093429
0.0395665 0.0832890 -0.0092424
0.0552808 0.0842581 -0.0091698
0.0709597 0.0851980 -0.0091284
0.0866000 0.0861015 -0.0091214
0.1021983 0.0869610 -0.0091518
0.1177516 0.0877686 -0.0092230
0.1332566 0.0885161 -0.0093380
0.1487104 0.0891951 -0.0094998
0.1641100 0.0897974 -0.0097109
0.1794527 0.0903146 -0.0099739
0.1947361 0.0907381 -0.0102907
0.2099579 0.0910598 -0.0106628
0.2251163 0.0912716 -0.0110911
0.2402100 0.0913663 -0.0115757
0.2552385 0.0913370 -0.0121157
0.2702016 0.0911784 -0.0127096
0.2851003 0.0908862 -0.0133545
0.2999363 0.0904579 -0.0140469
0.3147122 0.0898931 -0.0147822
0.3294316 0.0891937 -0.0155552
0.3440991 0.0883639 -0.0163596
0.3587200 0.0874107 -0.0171887
0.3733005 0.0863430 -0.0180353
0.3878475 0.0851724 -0.0188920
0.4023683 0.0839118 -0.0197509
0.4168706 0.0825757 -0.0206042
0.4313623 0.0811790 -0.0214445
0.4458511 0.0797372 -0.0222641
0.4603448 0.0782649 -0.0230562
0.4748507 0.0767766 -0.0238140
0.4893759 0.0752851 -0.0245314
0.5039269 0.0738025 -0.0252031
0.5185097 0.0723390 -0.0258242
0.5331301 0.0709040 -0.0263906
0.5477929 0.0695052 -0.0268989
0.5625029 0.0681495 -0.0273466
0.5772639 0.0668426 -0.0277316
0.5920797 0.0655894 -0.0280527
0.6069532 0.0643940 -0.0283094
0.6218870 0.0632600 -0.0285016
0.6368830 0.0621902 -0.0286300
0.6519427 0.0611868 -0.0286957
0.6670671 0.0602515 -0.0287004
0.6822561 0.0593851 -0.0286464
0.6975096 0.0585878 -0.0285361
0.7128265 0.0578594 -0.0283727
0.7282053 0.0571991 -0.0281593
0.7436442 0.0566056 -0.0278997
0.7591408 0.0560772 -0.0275975
0.7746924 0.0556117 -0.0272568
0.7902960 0.0552067 -0.0268814
0.8059483 0.0548594 -0.0264754
0.8216462 0.0545670 -0.0260426
0.8373861 0.0543264 -0.0255869
0.8531646 0.0541345 -0.0251121
0.8689781 0.0539880 -0.0246218
0.8848232 0.0538837 -0.0241192
0.9006967 0.0538184 -0.0236076
0.9165953 0.0537892 -0.0230898
0.9325159 0.0537929 -0.0225687
0.9484557 0.0538268 -0.0220465
0.9644120 0.0538881 -0.0215255
0.9803824 0.0539743 -0.0210076
0.0083593 0.0973810 -0.0091549
0.0241393 0.0983798 -0.0090153
0.0398900 0.0993628 -0.0089009
0.0556081 0.1003239 -0.0088147
0.0712904 0.1012563 -0.0087600
0.0869335 0.1021528 -0.0087402
0.1025341 0.1030058 -0.0087586
0.1180890 0.1038076 -0.0088185
0.1335948 0.1045498 -0.0089234
0.1490485 0.1052244 -0.0090762
0.1644471 0.1058228 -0.0092799
0.1797876 0.1063366 -0.0095372
0.1950675 0.1067571 -0.0098503
0.2102843 0.1070759 -0.0102208
0.2254363 0.1072849 -0.0106498
0.2405219 0.1073762 -0.0111374
0.2555406 0.1073430 -0.0116828
0.2704924 0.1071794 -0.0122841
0.2853781 0.1068808 -0.0129387
0.3001996 0.1064445 -0.0136425
0.3149599 0.1058700 -0.0143908
0.3296627 0.1051591 -0.0151778
0.3443127 0.1043162 -0.0159970
0.3589158 0.1033484 -0.0168414
0.3734784 0.1022653 -0.0177032
0.3880076 0.1010788 -0.0185747
0.4025113 0.0998027 -0.0194477
0.4169973 0.0984522 -0.0203143
0.4314737 0.0970429 -0.0211666
0.4459486 0.0955909 -0.0219970
0.4604298 0.0941116 -0.0227983
0.4749248 0.0926196 -0.0235638
0.4894407 0.0911283 -0.0242874
0.5039840 0.0896495 -0.0249636
0.5185608 0.0881938 -0.0255877
0.5331766 0.0867701 -0.0261555
0.5478364 0.0853859 -0.0266639
0.5625447 0.0840477 -0.0271102
0.5773053 0.0827608 -0.0274927
0.5921219 0.0815298 -0.0278103
0.6069973 0.0803583 -0.0280624
0.6219339 0.0792496 -0.0282494
0.6369337 0.0782060 -0.0283720
0.6519980 0.0772297 -0.0284315
0.6671276 0.0763219 -0.0284298
0.6823226 0.0754835 -0.0283690
0.6975826 0.0747144 -0.0282521
0.7129066 0.0740143 -0.0280820
0.7282931 0.0733822 -0.0278621
0.7437399 0.0728167 -0.0275962
0.7592447 0.0723160 -0.0272881
0.7748048 0.0718778 -0.0269418
0.7904170 0.0714996 -0.0265613
0.8060781 0.0711786 -0.0261507
0.8217847 0.0709119 -0.0257138
0.8375333 0.0706963 -0.0252547
0.8533203 0.0705287 -0.0247769
0.8691422 0.0704058 -0.0242843
0.8849955 0.0703242 -0.0237800
0.9008769 0.0702809 -0.0232674
0.9167831 0.0702728 -0.0227492
0.9327109 0.0702967 -0.0222282
0.9486576 0.0703499 -0.0217069
0.9646203 0.0704296 -0.0211873
0.9805966 0.0705331 -0.0206715
0.0086177 0.1133182 -0.0088724
0.0244005 0.1143014 -0.0087196
0.0401538 0.1152693 -0.0085919
0.0558742 0.1162156 -0.0084926
0.0715583 0.1171337 -0.0084251
0.0872029 0.1180165 -0.0083929
0.1028044 0.1188566 -0.0083994
0.1183596 0.1196462 -0.0084482
0.1338652 0.1203772 -0.0085428
0.1493178 0.1210413 -0.0086866
0.1647143 0.1216303 -0.0088827
0.1800517 0.1221354 -0.0091340
0.1953273 0.1225481 -0.0094429
0.2105385 0.1228597 -0.0098113
0.2256834 0.1230618 -0.0102404
0.2407605 0.1231466 -0.0107303
0.2557692 0.1231069 -0.0112802
0.2707094 0.1229364 -0.0118881
0.2855824 0.1226305 -0.0125511
0.3003901 0.1221864 -0.0132650
0.3151356 0.1216033 -0.0140246
0.3298229 0.1208831 -0.0148238
0.3444573 0.1200304 -0.0156558
0.3590447 0.1190524 -0.0165129
0.3735918 0.1179593 -0.0173873
0.3881063 0.1167633 -0.0182708
0.4025960 0.1154789 -0.0191550
0.4170691 0.1141217 -0.0200316
0.4315340 0.1127082 -0.0208927
0.4459988 0.1112548 -0.0217304
0.4604715 0.1097775 -0.0225376
0.4749595 0.1082911 -0.0233074
0.4894701 0.1068091 -0.0240338
0.5040097 0.1053435 -0.0247113
0.5185843 0.1039046 -0.0253351
0.5331994 0.1025011 -0.0259014
0.5478598 0.1011402 -0.0264069
0.5625699 0.0998279 -0.0268492
0.5773336 0.0985693 -0.0272266
0.5921543 0.0973684 -0.0275382
0.6070347 0.0962285 -0.0277836
0.6219772 0.0951524 -0.0279634
0.6369836 0.0941421 -0.0280784
0.6520550 0.0931995 -0.0281302
0.6671922 0.0923255 -0.0281206
0.6823954 0.0915209 -0.0280522
0.6976639 0.0907855 -0.0279277
0.7129967 0.0901188 -0.0277503
0.7283922 0.0895196 -0.0275237
0.7438482 0.0889864 -0.0272514
0.7593624 0.0885173 -0.0269374
0.7749318 0.0881101 -0.0265858
0.7905533 0.0877620 -0.0262007
0.8062236 0.0874703 -0.0257860
0.8219393 0.0872320 -0.0253458
0.8376968 0.0870438 -0.0248840
0.8534924 0.0869027 -0.0244043
0.8693227 0.0868052 -0.0239103
0.8851841 0.0867482 -0.0234055
0.9010732 0.0867283 -0.0228929
0.9169867 0.0867426 -0.0223755
0.9329215 0.0867880 -0.0218559
0.9488746 0.0868615 -0.0213365
0.9648433 0.0869605 -0.0208196
0.9808251 0.0870823 -0.0203070
0.0088173 0.1290982 -0.0086240
0.0246013 0.1300591 -0.0084588
0.0403555 0.1310048 -0.0083186
0.0560765 0.1319293 -0.0082069
0.0717609 0.1328263 -0.0081272
0.0874055 0.1336886 -0.0080829
0.1030066 0.1345090 -0.0080779
0.1185608 0.1352797 -0.0081158
0.1340648 0.1359930 -0.0082003
0.1495152 0.1366405 -0.0083349
0.1649086 0.1372139 -0.0085232
0.1802419 0.1377047 -0.0087682
0.1955123 0.1381041 -0.0090726
0.2107170 0.1384035 -0.0094384
0.2258542 0.1385944 -0.0098669
0.2409222 0.1386688 -0.0103583
0.2559205 0.1386194 -0.0109117
0.2708493 0.1384399 -0.0115251
0.2857098 0.1381256 -0.0121951
0.3005043 0.1376735 -0.0129174
0.3152362 0.1370832 -0.0136863
0.3299098 0.1363564 -0.0144955
0.3445306 0.1354978 -0.0153375
0.3591049 0.1345150 -0.0162046
0.3736397 0.1334183 -0.0170886
0.3881427 0.1322203 -0.0179807
0.4026222 0.1309360 -0.0188727
0.4170864 0.1295813 -0.0197558
0.4315438 0.1281732 -0.0206221
0.4460028 0.1267285 -0.0214637
0.4604711 0.1252633 -0.0222731
0.4749565 0.1237927 -0.0230438
0.4894659 0.1223302 -0.0237696
0.5040059 0.1208876 -0.0244450
0.5185822 0.1194751 -0.0250655
0.5332004 0.1181011 -0.0256271
0.5478652 0.1167724 -0.0261268
0.5625807 0.1154948 -0.0265623
0.5773509 0.1142726 -0.0269321
0.5921789 0.1131097 -0.0272354
0.6070674 0.1120088 -0.0274720
0.6220187 0.1109725 -0.0276426
0.6370343 0.1100024 -0.0277483
0.6521155 0.1090999 -0.0277908
0.6672628 0.1082659 -0.0277722
0.6824762 0.1075008 -0.0276950
0.6977551 0.1068044 -0.0275623
0.7130984 0.1061759 -0.0273772
0.7285043 0.1056142 -0.0271434
0.7439708 0.1051175 -0.0268648
0.7594953 0.1046839 -0.0265451
0.7750748 0.1043111 -0.0261885
0.7907063 0.1039963 -0.0257991
0.8063863 0.1037367 -0.0253811
0.8221113 0.1035293 -0.0249383
0.8378778 0.1033708 -0.0244747
0.8536821 0.1032582 -0.0239941
0.8695207 0.1031880 -0.0234999
0.8853900 0.1031571 -0.0229955
0.9012865 0.1031621 -0.0224842
0.9172070 0.1032001 -0.0219687
0.9331483 0.1032679 -0.0214518
0.9491074 0.1033628 -0.0209357
0.9650817 0.1034819 -0.0204226
0.9810684 0.1036227 -0.0199145
0.0089564 0.1447196 -0.0084124
0.0247398 0.1456510 -0.0082357
0.0404931 0.1465675 -0.0080840
0.0562131 0.1474633 -0.0079607
0.0718962 0.1483319 -0.0078693
0.0875392 0.1491667 -0.0078137
0.1031384 0.1499604 -0.0077975
0.1186903 0.1507056 -0.0078248
0.1341914 0.1513943 -0.0078993
0.1496383 0.1520186 -0.0080250
0.1650274 0.1525701 -0.0082054
0.1803556 0.1530404 -0.0084439
0.1956197 0.1534206 -0.0087434
0.2108171 0.1537023 -0.0091061
0.2259458 0.1538770 -0.0095332
0.2410042 0.1539367 -0.0100252
0.2559919 0.1538741 -0.0105810
0.2709092 0.1536830 -0.0111983
0.2857576 0.1533589 -0.0118737
0.3005399 0.1528990 -0.0126022
0.3152596 0.1523028 -0.0133780
0.3299216 0.1515725 -0.0141942
0.3445315 0.1507128 -0.0150433
0.3590958 0.1497314 -0.0159170
0.3736218 0.1486387 -0.0168069
0.3881173 0.1474476 -0.0177042
0.4025907 0.1461729 -0.0186001
0.4170504 0.1448311 -0.0194861
0.4315049 0.1434392 -0.0203538
0.4459624 0.1420142 -0.0211954
0.4604310 0.1405722 -0.0220035
0.4749181 0.1391284 -0.0227715
0.4894307 0.1376962 -0.0234932
0.5039751 0.1362871 -0.0241633
0.5185572 0.1349110 -0.0247773
0.5331823 0.1335760 -0.0253313
0.5478550 0.1322886 -0.0258224
0.5625795 0.1310540 -0.0262485
0.5773594 0.1298765 -0.0266082
0.5921979 0.1287592 -0.0269009
0.6070975 0.1277047 -0.0271267
0.6220603 0.1267151 -0.0272864
0.6370879 0.1257917 -0.0273812
0.6521813 0.1249356 -0.0274130
0.6673409 0.1241473 -0.0273841
0.6825666 0.1234272 -0.0272973
0.6978578 0.1227748 -0.0271556
0.7132132 0.1221894 -0.0269624
0.7286310 0.1216694 -0.0267213
0.7441090 0.1212132 -0.0264361
0.7596447 0.1208187 -0.0261110
0.7752352 0.1204835 -0.0257498
0.7908771 0.1202051 -0.0253568
0.8065672 0.1199803 -0.0249361
0.8223018 0.1198061 -0.0244916
0.8380774 0.1196795 -0.0240271
0.8538904 0.1195972 -0.0235465
0.8697371 0.1195560 -0.0230531
0.8856140 0.1195527 -0.0225505
0.9015176 0.1195839 -0.0220416
0.9174446 0.1196466 -0.0215293
0.9333920 0.1197379 -0.0210162
0.9493566 0.1198550 -0.0205047
0.9653358 0.1199950 -0.0199968
0.9813270 0.1201554 -0.0194943
0.0090336 0.1601819 -0.0082400
0.0248145 0.1610770 -0.0080530
0.0405652 0.1619573 -0.0078907
0.0562824 0.1628171 -0.0077567
0.0719627 0.1636504 -0.0076546
0.0876025 0.1644506 -0.0075882
0.1031982 0.1652106 -0.0075615
0.1187463 0.1659231 -0.0075786
0.1342431 0.1665804 -0.0076435
0.1496851 0.1671746 -0.0077604
0.1650687 0.1676976 -0.0079329
0.1803905 0.1681408 -0.0081648
0.1956474 0.1684958 -0.0084590
0.2108365 0.1687541 -0.0088180
0.2259559 0.1689073 -0.0092431
0.2410043 0.1689476 -0.0097346
0.2559811 0.1688680 -0.0102913
0.2708871 0.1686627 -0.0109109
0.2857242 0.1683273 -0.0115894
0.3004955 0.1678597 -0.0123216
0.3152051 0.1672596 -0.0131013
0.3298580 0.1665295 -0.0139211
0.3444601 0.1656742 -0.0147734
0.3590182 0.1647013 -0.0156498
0.3735394 0.1636212 -0.0165417
0.3880318 0.1624466 -0.0174400
0.4025037 0.1611924 -0.0183359
0.4169636 0.1598749 -0.0192206
0.4314199 0.1585109 -0.0200859
0.4458808 0.1571175 -0.0209237
0.4603542 0.1557106 -0.0217268
0.4748475 0.1543052 -0.0224885
0.4893675 0.1529144 -0.0232028
0.5039205 0.1515494 -0.0238645
0.5185123 0.1502198 -0.0244690
0.5331479 0.1489333 -0.0250126
0.5478321 0.1476961 -0.0254924
0.5625689 0.1465131 -0.0259067
0.5773617 0.1453880 -0.0262540
0.5922137 0.1443238 -0.0265341
0.6071272 0.1433226 -0.0267472
0.6221043 0.1423861 -0.0268942
0.6371464 0.1415156 -0.0269766
0.6522544 0.1407117 -0.0269965
0.6674284 0.1399748 -0.0269564
0.6826684 0.1393048 -0.0268591
0.6979735 0.1387012 -0.0267078
0.7133425 0.1381631 -0.0265060
0.7287735 0.1376890 -0.0262574
0.7442642 0.1372769 -0.0259659
0.7598120 0.1369249 -0.0256354
0.7754139 0.1366305 -0.0252702
0.7910669 0.1363910 -0.0248741
