ref/imx226_5500K_jzazbz_203.cube
TITLE "4480882448"
LUT_3D_SIZE 65
0.0061179 -0.0186520 -0.0091087
0.0218660 -0.0177088 -0.0090073
0.0375870 -0.0167890 -0.0089287
0.0532783 -0.0158983 -0.0088751
0.0689373 -0.0150430 -0.0088489
0.0845614 -0.0142298 -0.0088522
0.1001479 -0.0134658 -0.0088875
0.1156942 -0.0127582 -0.0089570
0.1311977 -0.0121146 -0.0090629
0.1466559 -0.0115424 -0.0092071
0.1620666 -0.0110490 -0.0093917
0.1774278 -0.0106417 -0.0096181
0.1927375 -0.0103273 -0.0098874
0.2079945 -0.0101121 -0.0102006
0.2231975 -0.0100018 -0.0105580
0.2383459 -0.0100013 -0.0109595
0.2534393 -0.0101146 -0.0114045
0.2684782 -0.0103448 -0.0118918
0.2834632 -0.0106935 -0.0124197
0.2983958 -0.0111612 -0.0129858
0.3132781 -0.0117468 -0.0135872
0.3281126 -0.0124476 -0.0142202
0.3429027 -0.0132597 -0.0148810
0.3576522 -0.0141774 -0.0155649
0.3723656 -0.0151937 -0.0162670
0.3870478 -0.0163003 -0.0169821
0.4017041 -0.0174879 -0.0177046
0.4163401 -0.0187464 -0.0184289
0.4309619 -0.0200648 -0.0191493
0.4455755 -0.0214320 -0.0198602
0.4601869 -0.0228366 -0.0205559
0.4748025 -0.0242673 -0.0212312
0.4894281 -0.0257129 -0.0218809
0.5040696 -0.0271630 -0.0225004
0.5187327 -0.0286073 -0.0230854
0.5334227 -0.0300363 -0.0236320
0.5481447 -0.0314414 -0.0241369
0.5629032 -0.0328143 -0.0245971
0.5777027 -0.0341478 -0.0250103
0.5925468 -0.0354354 -0.0253747
0.6074389 -0.0366713 -0.0256890
0.6223818 -0.0378507 -0.0259523
0.6373778 -0.0389695 -0.0261644
0.6524287 -0.0400244 -0.0263255
0.6675356 -0.0410127 -0.0264361
0.6826994 -0.0419328 -0.0264974
0.6979201 -0.0427834 -0.0265109
0.7131974 -0.0435642 -0.0264783
0.7285305 -0.0442752 -0.0264018
0.7439183 -0.0449174 -0.0262837
0.7593591 -0.0454918 -0.0261266
0.7748510 -0.0460002 -0.0259334
0.7903919 -0.0464447 -0.0257068
0.8059792 -0.0468276 -0.0254500
0.8216105 -0.0471515 -0.0251657
0.8372830 -0.0474193 -0.0248571
0.8529940 -0.0476338 -0.0245269
0.8687407 -0.0477979 -0.0241782
0.8845203 -0.0479147 -0.0238135
0.9003301 -0.0479870 -0.0234356
0.9161675 -0.0480179 -0.0230468
0.9320299 -0.0480100 -0.0226494
0.9479149 -0.0479660 -0.0222456
0.9638203 -0.0478886 -0.0218373
0.9797440 -0.0477800 -0.0214264
0.0066816 -0.0016565 -0.0087525
0.0224414 -0.0006888 -0.0086358
0.0381736 0.0002562 -0.0085422
0.0538758 0.0011724 -0.0084741
0.0695449 0.0020533 -0.0084340
0.0851784 0.0028920 -0.0084242
0.1007734 0.0036809 -0.0084474
0.1163270 0.0044126 -0.0085060
0.1318366 0.0050793 -0.0086024
0.1472994 0.0056730 -0.0087388
0.1627132 0.0061860 -0.0089173
0.1780757 0.0066107 -0.0091396
0.1933851 0.0069401 -0.0094070
0.2086396 0.0071673 -0.0097204
0.2238381 0.0072864 -0.0100803
0.2389798 0.0072920 -0.0104868
0.2540644 0.0071796 -0.0109392
0.2690919 0.0069461 -0.0114364
0.2840633 0.0065894 -0.0119764
0.2989800 0.0061089 -0.0125570
0.3138441 0.0055057 -0.0131748
0.3286584 0.0047824 -0.0138262
0.3434264 0.0039433 -0.0145068
0.3581521 0.0029945 -0.0152119
0.3728402 0.0019432 -0.0159362
0.3874960 0.0007985 -0.0166742
0.4021250 -0.0004297 -0.0174201
0.4167333 -0.0017306 -0.0181677
0.4313270 -0.0030923 -0.0189113
0.4459127 -0.0045031 -0.0196446
0.4604966 -0.0059509 -0.0203621
0.4750852 -0.0074236 -0.0210580
0.4896848 -0.0089098 -0.0217270
0.5043014 -0.0103983 -0.0223645
0.5189407 -0.0118788 -0.0229658
0.5336083 -0.0133415 -0.0235271
0.5483093 -0.0147775 -0.0240450
0.5630483 -0.0161786 -0.0245165
0.5778299 -0.0175375 -0.0249393
0.5926577 -0.0188476 -0.0253116
0.6075352 -0.0201033 -0.0256320
0.6224653 -0.0212996 -0.0259000
0.6374502 -0.0224326 -0.0261151
0.6524917 -0.0234991 -0.0262778
0.6675911 -0.0244965 -0.0263887
0.6827489 -0.0254232 -0.0264490
0.6979653 -0.0262781 -0.0264603
0.7132399 -0.0270609 -0.0264245
0.7285718 -0.0277720 -0.0263438
0.7439598 -0.0284122 -0.0262209
0.7594021 -0.0289830 -0.0260584
0.7748967 -0.0294862 -0.0258591
0.7904413 -0.0299239 -0.0256261
0.8060334 -0.0302988 -0.0253624
0.8216701 -0.0306137 -0.0250713
0.8373488 -0.0308715 -0.0247557
0.8530665 -0.0310753 -0.0244186
0.8688203 -0.0312282 -0.0240630
0.8846074 -0.0313334 -0.0236918
0.9004248 -0.0313938 -0.0233075
0.9162698 -0.0314127 -0.0229128
0.9321398 -0.0313929 -0.0225099
0.9480324 -0.0313372 -0.0221011
0.9639450 -0.0312483 -0.0216883
0.9798757 -0.0311287 -0.0212734
0.0072056 0.0152242 -0.0084124
0.0229762 0.0162127 -0.0082806
0.0387189 0.0171789 -0.0081721
0.0544310 0.0181168 -0.0080895
0.0701096 0.0190195 -0.0080353
0.0857517 0.0198798 -0.0080124
0.1013544 0.0206901 -0.0080234
0.1169146 0.0214425 -0.0080710
0.1324296 0.0221288 -0.0081578
0.1478966 0.0227409 -0.0082863
0.1633129 0.0232709 -0.0084585
0.1786764 0.0237107 -0.0086765
0.1939850 0.0240529 -0.0089415
0.2092369 0.0242905 -0.0092549
0.2244308 0.0244170 -0.0096171
0.2395657 0.0244267 -0.0100282
0.2546412 0.0243147 -0.0104877
0.2696575 0.0240774 -0.0109944
0.2846154 0.0237126 -0.0115462
0.2995164 0.0232195 -0.0121407
0.3143626 0.0225991 -0.0127745
0.3291570 0.0218540 -0.0134436
0.3439033 0.0209888 -0.0141435
0.3586058 0.0200097 -0.0148691
0.3732694 0.0189247 -0.0156148
0.3878996 0.0177433 -0.0163747
0.4025024 0.0164763 -0.0171427
0.4170841 0.0151353 -0.0179125
0.4316513 0.0137327 -0.0186777
0.4462107 0.0122813 -0.0194320
0.4607689 0.0107939 -0.0201695
0.4753326 0.0092830 -0.0208842
0.4899084 0.0077608 -0.0215708
0.5045022 0.0062385 -0.0222241
0.5191202 0.0047271 -0.0228398
0.5337679 0.0032362 -0.0234138
0.5484504 0.0017749 -0.0239426
0.5631725 0.0003515 -0.0244234
0.5779387 -0.0010269 -0.0248537
0.5927527 -0.0023537 -0.0252320
0.6076181 -0.0036233 -0.0255568
0.6225376 -0.0048309 -0.0258276
0.6375137 -0.0059726 -0.0260442
0.6525479 -0.0070453 -0.0262070
0.6676416 -0.0080466 -0.0263169
0.6827954 -0.0089750 -0.0263750
0.6980092 -0.0098295 -0.0263832
0.7132827 -0.0106100 -0.0263434
0.7286149 -0.0113169 -0.0262580
0.7440043 -0.0119513 -0.0261296
0.7594493 -0.0125148 -0.0259612
0.7749476 -0.0130093 -0.0257556
0.7904969 -0.0134372 -0.0255160
0.8060944 -0.0138013 -0.0252456
0.8217374 -0.0141044 -0.0249476
0.8374228 -0.0143498 -0.0246252
0.8531477 -0.0145406 -0.0242814
0.8689091 -0.0146801 -0.0239194
0.8847039 -0.0147716 -0.0235419
0.9005292 -0.0148183 -0.0231518
0.9163821 -0.0148235 -0.0227517
0.9322600 -0.0147902 -0.0223438
0.9481601 -0.0147213 -0.0219306
0.9640802 -0.0146196 -0.0215139
0.9800179 -0.0144877 -0.0210955
0.0076861 0.0319815 -0.0080922
0.0234665 0.0329862 -0.0079454
0.0392187 0.0339692 -0.0078222
0.0549398 0.0349243 -0.0077252
0.0706268 0.0358444 -0.0076572
0.0862766 0.0367221 -0.0076212
0.1018861 0.0375495 -0.0076201
0.1174521 0.0383184 -0.0076567
0.1329718 0.0390206 -0.0077339
0.1484422 0.0396476 -0.0078543
0.1638605 0.0401913 -0.0080201
0.1792245 0.0406434 -0.0082335
0.1945319 0.0409961 -0.0084960
0.2097809 0.0412421 -0.0088090
0.2249699 0.0413745 -0.0091732
0.2400979 0.0413870 -0.0095887
0.2551643 0.0412746 -0.0100549
0.2701694 0.0410333 -0.0105706
0.2851139 0.0406604 -0.0111338
0.2999994 0.0401551 -0.0117418
0.3148281 0.0395180 -0.0123909
0.3296031 0.0387520 -0.0130771
0.3443284 0.0378617 -0.0137954
0.3590083 0.0368538 -0.0145405
0.3736483 0.0357367 -0.0153065
0.3882541 0.0345207 -0.0160871
0.4028320 0.0332171 -0.0168759
0.4173887 0.0318387 -0.0176662
0.4319310 0.0303985 -0.0184513
0.4464661 0.0289103 -0.0192247
0.4610008 0.0273874 -0.0199802
0.4755419 0.0258430 -0.0207116
0.4900963 0.0242898 -0.0214135
0.5046701 0.0227394 -0.0220805
0.5192695 0.0212028 -0.0227082
0.5339000 0.0196900 -0.0232925
0.5485670 0.0182099 -0.0238299
0.5632750 0.0167706 -0.0243176
0.5780287 0.0153794 -0.0247534
0.5928317 0.0140424 -0.0251354
0.6076876 0.0127653 -0.0254626
0.6225991 0.0115527 -0.0257344
0.6375687 0.0104083 -0.0259508
0.6525980 0.0093353 -0.0261122
0.6676882 0.0083357 -0.0262195
0.6828398 0.0074109 -0.0262743
0.6980529 0.0065618 -0.0262782
0.7133270 0.0057884 -0.0262335
0.7286609 0.0050900 -0.0261426
0.7440533 0.0044656 -0.0260083
0.7595021 0.0039132 -0.0258335
0.7750052 0.0034309 -0.0256214
0.7905600 0.0030161 -0.0253751
0.8061638 0.0026659 -0.0250980
0.8218136 0.0023773 -0.0247933
0.8375064 0.0021469 -0.0244643
0.8532390 0.0019714 -0.0241142
0.8690083 0.0018474 -0.0237461
0.8848111 0.0017715 -0.0233629
0.9006445 0.0017402 -0.0229675
0.9165055 0.0017504 -0.0225625
0.9323913 0.0017987 -0.0221503
0.9482991 0.0018822 -0.0217332
0.9642266 0.0019980 -0.0213133
0.9801713 0.0021435 -0.0208923
0.0081196 0.0486070 -0.0077953
0.0239085 0.0496229 -0.0076340
0.0396690 0.0506177 -0.0074964
0.0553979 0.0515850 -0.0073854
0.0710922 0.0525174 -0.0073039
0.0867486 0.0534075 -0.0072550
0.1023639 0.0542472 -0.0072420
0.1179348 0.0550281 -0.0072678
0.1334583 0.0557418 -0.0073353
0.1489312 0.0563797 -0.0074475
0.1643510 0.0569335 -0.0076069
0.1797149 0.0573947 -0.0078155
0.1950207 0.0577552 -0.0080753
0.2102663 0.0580073 -0.0083877
0.2254502 0.0581437 -0.0087536
0.2405710 0.0581578 -0.0091730
0.2556284 0.0580441 -0.0096455
0.2706223 0.0577983 -0.0101699
0.2855536 0.0574173 -0.0107439
0.3004238 0.0569000 -0.0113647
0.3152354 0.0562471 -0.0120285
0.3299916 0.0554612 -0.0127308
0.3446965 0.0545473 -0.0134666
0.3593549 0.0535124 -0.0142301
0.3739724 0.0523655 -0.0150151
0.3885551 0.0511174 -0.0158149
0.4031097 0.0497805 -0.0166227
0.4176432 0.0483681 -0.0174316
0.4321629 0.0468944 -0.0182346
0.4466759 0.0453738 -0.0190250
0.4611895 0.0438204 -0.0197961
0.4757109 0.0422481 -0.0205418
0.4902467 0.0406698 -0.0212564
0.5048035 0.0390976 -0.0219346
0.5193873 0.0375425 -0.0225717
0.5340038 0.0360146 -0.0231637
0.5486583 0.0345228 -0.0237071
0.5633554 0.0330749 -0.0241992
0.5780996 0.0316780 -0.0246378
0.5928947 0.0303381 -0.0250213
0.6077439 0.0290604 -0.0253487
0.6226503 0.0278495 -0.0256195
0.6376160 0.0267090 -0.0258337
0.6526428 0.0256418 -0.0259920
0.6677318 0.0246498 -0.0260954
0.6828835 0.0237343 -0.0261454
0.6980978 0.0228959 -0.0261440
0.7133742 0.0221345 -0.0260935
0.7287114 0.0214493 -0.0259963
0.7441081 0.0208391 -0.0258555
0.7595621 0.0203019 -0.0256740
0.7750710 0.0198355 -0.0254551
0.7906324 0.0194371 -0.0252021
0.8062432 0.0191038 -0.0249183
0.8219005 0.0188325 -0.0246071
0.8376011 0.0186196 -0.0242718
0.8533418 0.0184618 -0.0239158
0.8691193 0.0183554 -0.0235421
0.8849304 0.0182969 -0.0231538
0.9007720 0.0182829 -0.0227537
0.9166412 0.0183099 -0.0223444
0.9325348 0.0183747 -0.0219286
0.9484504 0.0184742 -0.0215084
0.9643851 0.0186053 -0.0210860
0.9803368 0.0187654 -0.0206631
0.0085024 0.0650929 -0.0075254
0.0242986 0.0661146 -0.0073501
0.0400660 0.0671156 -0.0071987
0.0558015 0.0680894 -0.0070741
0.0715018 0.0690287 -0.0069795
0.0871636 0.0699257 -0.0069182
0.1027835 0.0707723 -0.0068935
0.1183582 0.0715601 -0.0069086
0.1338844 0.0722805 -0.0069667
0.1493592 0.0729250 -0.0070708
0.1647796 0.0734848 -0.0072235
0.1801428 0.0739515 -0.0074273
0.1954464 0.0743166 -0.0076842
0.2106883 0.0745721 -0.0079958
0.2258666 0.0747103 -0.0083629
0.2409801 0.0747244 -0.0087860
0.2560282 0.0746083 -0.0092644
0.2710110 0.0743573 -0.0097968
0.2859292 0.0739681 -0.0103810
0.3007845 0.0734392 -0.0110139
0.3155794 0.0727713 -0.0116915
0.3303175 0.0719670 -0.0124090
0.3450030 0.0710314 -0.0131611
0.3596411 0.0699719 -0.0139416
0.3742375 0.0687981 -0.0147439
0.3887989 0.0675213 -0.0155611
0.4033321 0.0661549 -0.0163860
0.4178447 0.0647131 -0.0172113
0.4323440 0.0632108 -0.0180299
0.4468377 0.0616632 -0.0188346
0.4613332 0.0600853 -0.0196187
0.4758377 0.0584914 -0.0203760
0.4903582 0.0568948 -0.0211004
0.5049012 0.0553079 -0.0217868
0.5194729 0.0537418 -0.0224305
0.5340788 0.0522065 -0.0230273
0.5487242 0.0507106 -0.0235740
0.5634138 0.0492619 -0.0240678
0.5781518 0.0478670 -0.0245067
0.5929421 0.0465317 -0.0248891
0.6077879 0.0452609 -0.0252143
0.6226920 0.0440590 -0.0254818
0.6376566 0.0429292 -0.0256919
0.6526835 0.0418743 -0.0258453
0.6677737 0.0408961 -0.0259431
0.6829276 0.0399957 -0.0259871
0.6981452 0.0391736 -0.0259792
0.7134257 0.0384293 -0.0259219
0.7287680 0.0377621 -0.0258178
0.7441704 0.0371705 -0.0256699
0.7596307 0.0366525 -0.0254813
0.7751466 0.0362056 -0.0252554
0.7907154 0.0358271 -0.0249956
0.8063340 0.0355139 -0.0247052
0.8219994 0.0352626 -0.0243878
0.8377083 0.0350699 -0.0240467
0.8534574 0.0349319 -0.0236851
0.8692434 0.0348452 -0.0233064
0.8850629 0.0348061 -0.0229136
0.9009129 0.0348109 -0.0225095
0.9167901 0.0348564 -0.0220969
0.9326917 0.0349390 -0.0216782
0.9486148 0.0350556 -0.0212557
0.9645568 0.0352032 -0.0208316
0.9805152 0.0353790 -0.0204076
0.0088315 0.0814325 -0.0072860
0.0246334 0.0824539 -0.0070974
0.0404062 0.0834551 -0.0069328
0.0561468 0.0844294 -0.0067952
0.0718517 0.0853694 -0.0066881
0.0875175 0.0862673 -0.0066148
0.1031408 0.0871151 -0.0065789
0.1187181 0.0879042 -0.0065837
0.1342461 0.0886261 -0.0066326
0.1497218 0.0892722 -0.0067286
0.1651419 0.0898336 -0.0068747
0.1805037 0.0903017 -0.0070736
0.1958045 0.0906678 -0.0073273
0.2110421 0.0909235 -0.0076378
0.2262145 0.0910609 -0.0080060
0.2413203 0.0910727 -0.0084322
0.2563590 0.0909527 -0.0089160
0.2713306 0.0906956 -0.0094559
0.2862358 0.0902979 -0.0100496
0.3010766 0.0897579 -0.0106937
0.3158556 0.0890760 -0.0113841
0.3305764 0.0882550 -0.0121156
0.3452436 0.0873001 -0.0128825
0.3598627 0.0862190 -0.0136783
0.3744399 0.0850219 -0.0144960
0.3889819 0.0837210 -0.0153285
0.4034962 0.0823300 -0.0161681
0.4179905 0.0808643 -0.0170073
0.4324724 0.0793395 -0.0178386
0.4469498 0.0777716 -0.0186548
0.4614305 0.0761761 -0.0194490
0.4759216 0.0745680 -0.0202147
0.4904303 0.0729609 -0.0209460
0.5049632 0.0713672 -0.0216375
0.5195262 0.0697982 -0.0222846
0.5341251 0.0682636 -0.0228833
0.5487650 0.0667720 -0.0234303
0.5634506 0.0653306 -0.0239229
0.5781860 0.0639459 -0.0243592
0.5929748 0.0626232 -0.0247380
0.6078204 0.0613671 -0.0250585
0.6227253 0.0601815 -0.0253205
0.6376918 0.0590696 -0.0255244
0.6527214 0.0580338 -0.0256710
0.6678153 0.0570758 -0.0257617
0.6829738 0.0561965 -0.0257982
0.6981967 0.0553962 -0.0257827
0.7134832 0.0546743 -0.0257176
0.7288321 0.0540299 -0.0256058
0.7442416 0.0534614 -0.0254503
0.7597097 0.0529667 -0.0252543
0.7752336 0.0525432 -0.0250213
0.7908107 0.0521879 -0.0247547
0.8064379 0.0518978 -0.0244579
0.8221119 0.0516694 -0.0241346
0.8378295 0.0514992 -0.0237880
0.8535874 0.0513834 -0.0234215
0.8693820 0.0513184 -0.0230384
0.8852100 0.0513003 -0.0226418
0.9010683 0.0513257 -0.0222345
0.9169536 0.0513909 -0.0218192
0.9328629 0.0514927 -0.0213985
0.9487933 0.0516276 -0.0209746
0.9647423 0.0517927 -0.0205497
0.9807072 0.0519850 -0.0201256
0.0091038 0.0976198 -0.0070802
0.0249098 0.0986345 -0.0068793
0.0406865 0.0996293 -0.0067023
0.0564306 0.1005975 -0.0065526
0.0721386 0.1015318 -0.0064337
0.0878070 0.1024243 -0.0063491
0.1034322 0.1032671 -0.0063025
0.1190109 0.1040517 -0.0062973
0.1345396 0.1047694 -0.0063371
0.1500150 0.1054117 -0.0064252
0.1654340 0.1059697 -0.0065648
0.1807935 0.1064345 -0.0067586
0.1960908 0.1067974 -0.0070091
0.2113234 0.1070496 -0.0073182
0.2264894 0.1071830 -0.0076871
0.2415872 0.1071900 -0.0081161
0.2566163 0.1070641 -0.0086048
0.2715766 0.1067997 -0.0091515
0.2864691 0.1063929 -0.0097538
0.3012957 0.1058421 -0.0104082
0.3160594 0.1051473 -0.0111100
0.3307640 0.1043116 -0.0118540
0.3454145 0.1033403 -0.0126340
0.3600164 0.1022415 -0.0134431
0.3745764 0.1010258 -0.0142741
0.3891017 0.0997060 -0.0151192
0.4035999 0.0982967 -0.0159708
0.4180789 0.0968139 -0.0168210
0.4325467 0.0952740 -0.0176620
0.4470115 0.0936936 -0.0184865
0.4614809 0.0920888 -0.0192875
0.4759625 0.0904749 -0.0200583
0.4904632 0.0888659 -0.0207930
0.5049897 0.0872743 -0.0214863
0.5195480 0.0857112 -0.0221336
0.5341437 0.0841862 -0.0227309
0.5487819 0.0827075 -0.0232751
0.5634670 0.0812821 -0.0237636
0.5782033 0.0799159 -0.0241946
0.5929941 0.0786140 -0.0245670
0.6078427 0.0773805 -0.0248803
0.6227516 0.0762190 -0.0251345
0.6377229 0.0751322 -0.0253301
0.6527581 0.0741224 -0.0254682
0.6678582 0.0731910 -0.0255501
0.6830235 0.0723389 -0.0255777
0.6982538 0.0715660 -0.0255533
0.7135482 0.0708718 -0.0254796
0.7289054 0.0702550 -0.0253594
0.7443236 0.0697140 -0.0251958
0.7598005 0.0692466 -0.0249921
0.7753335 0.0688502 -0.0247518
0.7909198 0.0685216 -0.0244785
0.8065561 0.0682576 -0.0241756
0.8222394 0.0680548 -0.0238466
0.8379661 0.0679095 -0.0234951
0.8537329 0.0678180 -0.0231242
0.8695362 0.0677765 -0.0227375
0.8853728 0.0677813 -0.0223378
0.9012393 0.0678286 -0.0219281
0.9171325 0.0679150 -0.0215111
0.9330493 0.0680370 -0.0210893
0.9489869 0.0681913 -0.0206650
0.9649425 0.0683747 -0.0202403
0.9809136 0.0685845 -0.0198170
0.0093169 0.1136500 -0.0069114
0.0251252 0.1146513 -0.0066991
0.0409040 0.1156329 -0.0065108
0.0566499 0.1165882 -0.0063499
0.0723594 0.1175099 -0.0062200
0.0880288 0.1183904 -0.0061248
0.1036546 0.1192216 -0.0060679
0.1192334 0.1199953 -0.0060532
0.1347615 0.1207028 -0.0060843
0.1502356 0.1213355 -0.0061647
0.1656524 0.1218846 -0.0062978
0.1810087 0.1223410 -0.0064866
0.1963016 0.1226957 -0.0067338
0.2115285 0.1229401 -0.0070414
0.2266874 0.1230658 -0.0074106
0.2417767 0.1230648 -0.0078419
0.2567958 0.1229304 -0.0083348
0.2717448 0.1226569 -0.0088875
0.2866248 0.1222404 -0.0094975
0.3014379 0.1216789 -0.0101608
0.3161872 0.1209726 -0.0108726
0.3308770 0.1201246 -0.0116273
0.3455124 0.1191404 -0.0124182
0.3600994 0.1180285 -0.0132383
0.3746449 0.1167999 -0.0140797
0.3891564 0.1154680 -0.0149348
0.4036417 0.1140479 -0.0157952
0.4181091 0.1125561 -0.0166530
0.4325667 0.1110098 -0.0175004
0.4470227 0.1094260 -0.0183297
0.4614849 0.1078214 -0.0191338
0.4759610 0.1062113 -0.0199062
0.4904578 0.1046100 -0.0206409
0.5049820 0.1030300 -0.0213326
0.5195396 0.1014823 -0.0219767
0.5341361 0.0999762 -0.0225694
0.5487763 0.0985195 -0.0231076
0.5634648 0.0971189 -0.0235889
0.5782054 0.0957798 -0.0240118
0.5930017 0.0945070 -0.0243753
0.6078567 0.0933041 -0.0246789
0.6227727 0.0921742 -0.0249230
0.6377517 0.0911199 -0.0251082
0.6527952 0.0901429 -0.0252358
0.6679041 0.0892447 -0.0253072
0.6830786 0.0884257 -0.0253246
0.6983183 0.0876859 -0.0252903
0.7136225 0.0870245 -0.0252070
0.7289896 0.0864401 -0.0250777
0.7444178 0.0859310 -0.0249056
0.7599048 0.0854949 -0.0246940
0.7754478 0.0851290 -0.0244464
0.7910440 0.0848303 -0.0241665
0.8066902 0.0845954 -0.0238577
0.8223831 0.0844207 -0.0235235
0.8381192 0.0843027 -0.0231676
0.8538951 0.0842376 -0.0227931
0.8697073 0.0842215 -0.0224033
0.8855524 0.0842506 -0.0220014
0.9014269 0.0843213 -0.0215902
0.9173278 0.0844301 -0.0211724
0.9332519 0.0845733 -0.0207505
0.9491962 0.0847479 -0.0203268
0.9651581 0.0849505 -0.0199033
0.9811351 0.0851784 -0.0194819
0.0094684 0.1295196 -0.0067824
0.0252773 0.1305003 -0.0065599
0.0410564 0.1314617 -0.0063614
0.0568024 0.1323970 -0.0061903
0.0725116 0.1332992 -0.0060503
0.0881804 0.1341607 -0.0059452
0.1038054 0.1349737 -0.0058789
0.1193828 0.1357298 -0.0058552
0.1349090 0.1364206 -0.0058780
0.1503806 0.1370375 -0.0059510
0.1657941 0.1375715 -0.0060778
0.1811461 0.1380137 -0.0062617
0.1964336 0.1383551 -0.0065054
0.2116540 0.1385867 -0.0068111
0.2268051 0.1387002 -0.0071803
0.2418853 0.1386874 -0.0076134
0.2568942 0.1385416 -0.0081098
0.2718318 0.1382570 -0.0086676
0.2866996 0.1378296 -0.0092839
0.3014998 0.1372576 -0.0099546
0.3162361 0.1365413 -0.0106746
0.3309127 0.1356839 -0.0114376
0.3455353 0.1346912 -0.0122370
0.3601101 0.1335719 -0.0130651
0.3746442 0.1323373 -0.0139140
0.3891454 0.1310011 -0.0147755
0.4036217 0.1295790 -0.0156413
0.4180815 0.1280878 -0.0165032
0.4325330 0.1265451 -0.0173531
0.4469845 0.1249683 -0.0181835
0.4614440 0.1233743 -0.0189872
0.4759188 0.1217787 -0.0197575
0.4904161 0.1201956 -0.0204885
0.5049422 0.1186375 -0.0211751
0.5195031 0.1171151 -0.0218126
0.5341043 0.1156375 -0.0223973
0.5487504 0.1142122 -0.0229265
0.5634459 0.1128454 -0.0233978
0.5781945 0.1115421 -0.0238097
0.5929996 0.1103065 -0.0241616
0.6078642 0.1091421 -0.0244532
0.6227904 0.1080514 -0.0246849
0.6377801 0.1070366 -0.0248577
0.6528346 0.1060993 -0.0249730
0.6679547 0.1052404 -0.0250325
0.6831406 0.1044604 -0.0250383
0.6983919 0.1037591 -0.0249930
0.7137076 0.1031356 -0.0248993
0.7290862 0.1025882 -0.0247603
0.7445257 0.1021153 -0.0245793
0.7600239 0.1017143 -0.0243596
0.7755780 0.1013825 -0.0241047
0.7911849 0.1011167 -0.0238183
0.8068415 0.1009136 -0.0235039
0.8225444 0.1007696 -0.0231651
0.8382901 0.1006810 -0.0228053
0.8540753 0.1006441 -0.0224278
0.8698963 0.1006551 -0.0220359
0.8857497 0.1007101 -0.0216327
0.9016321 0.1008054 -0.0212209
0.9175404 0.1009376 -0.0208033
0.9334714 0.1011031 -0.0203823
0.9494221 0.1012986 -0.0199602
0.9653898 0.1015211 -0.0195390
0.9813721 0.1017677 -0.0191204
0.0095566 0.1452263 -0.0066958
0.0253641 0.1461795 -0.0064644
0.0411417 0.1471134 -0.0062569
0.0568859 0.1480216 -0.0060767
0.0725932 0.1488971 -0.0059277
0.0882599 0.1497325 -0.0058137
0.1038823 0.1505201 -0.0057386
0.1194569 0.1512517 -0.0057066
0.1349799 0.1519190 -0.0057216
0.1504476 0.1525134 -0.0057876
0.1658564 0.1530260 -0.0059084
0.1812030 0.1534479 -0.0060874
0.1964841 0.1537700 -0.0063276
0.2116970 0.1539834 -0.0066313
0.2268395 0.1540796 -0.0070000
0.2419102 0.1540509 -0.0074342
0.2569085 0.1538902 -0.0079331
0.2718348 0.1535920 -0.0084948
0.2866908 0.1531526 -0.0091159
0.3014792 0.1525703 -0.0097921
0.3162039 0.1518459 -0.0105178
0.3308696 0.1509826 -0.0112866
0.3454821 0.1499865 -0.0120912
0.3600479 0.1488664 -0.0129240
0.3745744 0.1476338 -0.0137768
0.3890693 0.1463026 -0.0146411
0.4035408 0.1448885 -0.0155084
0.4179974 0.1434087 -0.0163704
0.4324475 0.1418809 -0.0172190
0.4468992 0.1403226 -0.0180466
0.4613605 0.1387508 -0.0188459
0.4758386 0.1371811 -0.0196104
0.4903407 0.1356274 -0.0203341
0.5048730 0.1341020 -0.0210120
0.5194413 0.1326153 -0.0216396
0.5340510 0.1311762 -0.0222133
0.5487068 0.1297917 -0.0227304
0.5634129 0.1284676 -0.0231887
0.5781730 0.1272085 -0.0235871
0.5929902 0.1260183 -0.0239249
0.6078674 0.1248999 -0.0242022
0.6228068 0.1238556 -0.0244195
0.6378100 0.1228872 -0.0245780
0.6528781 0.1219960 -0.0246793
0.6680119 0.1211826 -0.0247253
0.6832115 0.1204473 -0.0247184
0.6984762 0.1197897 -0.0246611
0.7138052 0.1192088 -0.0245562
0.7291968 0.1187029 -0.0244070
0.7446490 0.1182701 -0.0242167
0.7601594 0.1179078 -0.0239888
0.7757253 0.1176133 -0.0237267
0.7913436 0.1173835 -0.0234341
0.8070110 0.1172148 -0.0231145
0.8227243 0.1171037 -0.0227715
0.8384799 0.1170466 -0.0224085
0.8542743 0.1170397 -0.0220288
0.8701040 0.1170792 -0.0216356
0.8859656 0.1171614 -0.0212319
0.9018557 0.1172825 -0.0208205
0.9177710 0.1174390 -0.0204041
0.9337084 0.1176276 -0.0199851
0.9496651 0.1178448 -0.0195656
0.9656382 0.1180878 -0.0191477
0.9816252 0.1183535 -0.0187331
0.0095802 0.1607696 -0.0066538
0.0253844 0.1616880 -0.0064150
0.0411585 0.1625873 -0.0061998
0.0568991 0.1634611 -0.0060118
0.0726027 0.1643026 -0.0058548
0.0882655 0.1651047 -0.0057328
0.1038839 0.1658598 -0.0056500
0.1194541 0.1665598 -0.0056104
0.1349722 0.1671965 -0.0056183
0.1504346 0.1677615 -0.0056778
0.1658376 0.1682460 -0.0057929
0.1811775 0.1686410 -0.0059672
0.1964511 0.1689375 -0.0062038
0.2116555 0.1691269 -0.0065053
0.2267887 0.1692008 -0.0068730
0.2418492 0.1691514 -0.0073075
0.2568367 0.1689721 -0.0078079
0.2717519 0.1686578 -0.0083719
0.2865969 0.1682052 -0.0089959
0.3013749 0.1676131 -0.0096751
0.3160900 0.1668828 -0.0104037
0.3307474 0.1660178 -0.0111748
0.3453531 0.1650243 -0.0119811
0.3599138 0.1639112 -0.0128147
0.3744368 0.1626898 -0.0136672
0.3889299 0.1613739 -0.0145300
0.4034015 0.1599792 -0.0153947
0.4178598 0.1585226 -0.0162528
0.4323133 0.1570219 -0.0170960
0.4467700 0.1554946 -0.0179167
0.4612377 0.1539572 -0.0187077
0.4757238 0.1524253 -0.0194627
0.4902350 0.1509125 -0.0201756
0.5047776 0.1494309 -0.0208415
0.5193574 0.1479905 -0.0214560
0.5339795 0.1465997 -0.0220157
0.5486486 0.1452653 -0.0225177
0.5633687 0.1439926 -0.0229605
0.5781435 0.1427861 -0.0233427
0.5929760 0.1416489 -0.0236641
0.6078689 0.1405839 -0.0239249
0.6228242 0.1395929 -0.0241259
0.6378434 0.1386774 -0.0242685
0.6529277 0.1378383 -0.0243543
0.6680775 0.1370762 -0.0243855
0.6832927 0.1363909 -0.0243647
0.6985729 0.1357819 -0.0242944
0.7139167 0.1352482 -0.0241777
0.7293227 0.1347879 -0.0240178
0.7447888 0.1343989 -0.0238180
0.7603124 0.1340788 -0.0235818
0.7758909 0.1338247 -0.0233126
0.7915211 0.1336334 -0.0230141
