ref/imx226_6500K_jzazbz_203.cube
TITLE "4523889936"
LUT_3D_SIZE 9
0.0051320 -0.0181779 -0.0118209
0.1300137 -0.0115306 -0.0123098
0.2521315 -0.0090748 -0.0151194
0.3710570 -0.0133761 -0.0202435
0.4882431 -0.0230551 -0.0258034
0.6064773 -0.0334373 -0.0291821
0.7278291 -0.0409633 -0.0291411
0.8525043 -0.0447405 -0.0263754
0.9793574 -0.0456256 -0.0224387
0.0086177 0.1133182 -0.0088724
0.1338652 0.1203772 -0.0085428
0.2557692 0.1231069 -0.0112802
0.3735918 0.1179593 -0.0173873
0.4894701 0.1068091 -0.0240338
0.6070347 0.0962285 -0.0277836
0.7283922 0.0895196 -0.0275237
0.8534924 0.0869027 -0.0244043
0.9808251 0.0870823 -0.0203070
0.0084754 0.2352074 -0.0080271
0.1333521 0.2394235 -0.0071438
0.2547101 0.2401577 -0.0095411
0.3723067 0.2353662 -0.0153989
0.4887716 0.2271811 -0.0214788
0.6073444 0.2204990 -0.0243383
0.7297576 0.2173880 -0.0233500
0.8555593 0.2173941 -0.0201321
0.9832098 0.2192375 -0.0164466
0.0046254 0.3492310 -0.0099644
0.1284528 0.3483398 -0.0091215
0.2496834 0.3465789 -0.0105382
0.3690304 0.3447152 -0.0138332
0.4875384 0.3428060 -0.0179084
0.6082199 0.3424850 -0.0191385
0.7322919 0.3443145 -0.0172747
0.8588175 0.3475249 -0.0142717
0.9864891 0.3511673 -0.0114772
-0.0015282 0.4609862 -0.0139291
0.1216331 0.4560327 -0.0129306
0.2436429 0.4529263 -0.0126921
0.3649107 0.4535709 -0.0135274
0.4862231 0.4581643 -0.0147838
0.6097871 0.4646341 -0.0137122
0.7355308 0.4712039 -0.0110906
0.8626097 0.4774056 -0.0084706
0.9900837 0.4827329 -0.0066520
-0.0084423 0.5750931 -0.0188414
0.1140717 0.5674724 -0.0180601
0.2367197 0.5635940 -0.0168434
0.3600422 0.5662473 -0.0154612
0.4849378 0.5758719 -0.0131887
0.6113189 0.5875802 -0.0098324
0.7384551 0.5980537 -0.0065990
0.8658890 0.6067297 -0.0042957
0.9931008 0.6135241 -0.0031824
-0.0145911 0.6941437 -0.0234647
0.1069148 0.6843449 -0.0236014
0.2296834 0.6793785 -0.0223489
0.3550363 0.6833694 -0.0190438
0.4829414 0.6959441 -0.0139556
0.6117454 0.7114136 -0.0086717
0.7401039 0.7249184 -0.0047334
0.8677904 0.7354222 -0.0024752
0.9948196 0.7433809 -0.0016388
-0.0185276 0.8198084 -0.0263956
0.1025427 0.8095133 -0.0270953
0.2253813 0.8039703 -0.0260104
0.3516357 0.8077239 -0.0220443
0.4809622 0.8207639 -0.0158320
0.6110713 0.8374623 -0.0096223
0.7401583 0.8522947 -0.0052023
0.8680342 0.8638101 -0.0027777
0.9950265 0.8725729 -0.0018571
-0.0199978 0.9517553 -0.0271503
0.1015053 0.9429327 -0.0276821
0.2247219 0.9382610 -0.0265402
0.3509993 0.9412893 -0.0228199
0.4800607 0.9522956 -0.0170787
0.6099485 0.9670940 -0.0112608
0.7390104 0.9811068 -0.0069395
0.8669372 0.9926074 -0.0043903
0.9939755 1.0016586 -0.0032459
0.0025208 -0.0176890 0.1147480
0.1265340 -0.0124753 0.1134238
0.2477695 -0.0118068 0.1097864
0.3662040 -0.0171824 0.1041044
0.4833963 -0.0266882 0.0982521
0.6019763 -0.0361927 0.0948341
0.7240760 -0.0427628 0.0953297
0.8498875 -0.0455006 0.0990271
0.9779442 -0.0452569 0.1039485
0.0058891 0.1148903 0.1172177
0.1300169 0.1201689 0.1164633
0.2507019 0.1201232 0.1126893
0.3680170 0.1131729 0.1062290
0.4843236 0.1025068 0.0997221
0.6024862 0.0936232 0.0960765
0.7246827 0.0883839 0.0968204
0.8510355 0.0869743 0.1009697
0.9796328 0.0882644 0.1061572
0.0056424 0.2379375 0.1174186
0.1294016 0.2407827 0.1171735
0.2493758 0.2382568 0.1136180
0.3669086 0.2316170 0.1079583
0.4847290 0.2250578 0.1029792
0.6040910 0.2202104 0.1005191
0.7271678 0.2182791 0.1019892
0.8539643 0.2191595 0.1060512
0.9826556 0.2217612 0.1106117
0.0016370 0.3527345 0.1146703
0.1245634 0.3516269 0.1144659
0.2450955 0.3490663 0.1123327
0.3651294 0.3466756 0.1097015
0.4852478 0.3456426 0.1072178
0.6069481 0.3461530 0.1070315
0.7316036 0.3483355 0.1096863
0.8586969 0.3517603 0.1133632
0.9870041 0.3555612 0.1166452
-0.0046401 0.4646517 0.1099821
0.1180189 0.4605398 0.1101548
0.2400275 0.4591001 0.1100943
0.3619426 0.4599944 0.1097306
0.4849242 0.4644773 0.1103138
0.6100195 0.4713235 0.1133005
0.7365407 0.4779387 0.1172367
0.8641156 0.4841032 0.1206223
0.9918759 0.4891064 0.1225958
-0.0115782 0.5783982 0.1046781
0.1105643 0.5716314 0.1046992
0.2334525 0.5694453 0.1059273
0.3576669 0.5731728 0.1080195
0.4845956 0.5837710 0.1124852
0.6125777 0.5959065 0.1179846
0.7407188 0.6065851 0.1227220
0.8686894 0.6151818 0.1257619
0.9959094 0.6213377 0.1267575
-0.0176034 0.6969911 0.1001232
0.1032469 0.6869191 0.0990573
0.2260727 0.6825829 0.1003516
0.3527526 0.6882106 0.1049406
0.4829002 0.7028309 0.1123436
0.6136357 0.7199424 0.1198783
0.7430943 0.7341465 0.1251596
0.8711577 0.7444963 0.1278577
0.9979571 0.7516467 0.1283560
-0.0212114 0.8226588 0.0977286
0.0991121 0.8112822 0.0961696
0.2218204 0.8052501 0.0972689
0.3493043 0.8100674 0.1026203
0.4808718 0.8256012 0.1110608
0.6130379 0.8449005 0.1192893
0.7431464 0.8608897 0.1247354
0.8711501 0.8723185 0.1272638
0.9977950 0.8804003 0.1277296
-0.0222624 0.9549799 0.0977330
0.0986812 0.9451020 0.0966601
0.2217306 0.9395050 0.0978461
0.3489091 0.9429169 0.1026566
0.4798175 0.9559194 0.1102017
0.6114195 0.9730074 0.1175724
0.7412718 0.9882378 0.1225653
0.8692161 0.9999113 0.1250265
0.9959901 1.0086667 0.1257390
-0.0019205 -0.0224056 0.2409593
0.1209574 -0.0199733 0.2387807
0.2412390 -0.0220202 0.2345848
0.3596857 -0.0281931 0.2291970
0.4780482 -0.0359402 0.2243163
0.5982997 -0.0424646 0.2217564
0.7219755 -0.0461846 0.2227203
0.8489951 -0.0467577 0.2266827
0.9779123 -0.0449440 0.2317763
0.0014278 0.1117256 0.2427897
0.1241644 0.1139067 0.2407364
0.2436695 0.1103105 0.2362139
0.3612779 0.1022942 0.2304731
0.4795743 0.0941859 0.2259012
0.5997178 0.0888105 0.2234261
0.7233485 0.0865219 0.2243271
0.8508250 0.0872099 0.2285967
0.9800812 0.0897634 0.2338947
0.0014744 0.2374004 0.2425016
0.1238294 0.2378640 0.2407463
0.2431304 0.2330291 0.2366156
0.3616342 0.2263192 0.2321216
0.4818821 0.2218083 0.2296955
0.6035724 0.2198051 0.2288046
0.7274002 0.2196283 0.2300264
0.8547209 0.2216449 0.2338875
0.9836590 0.2247487 0.2383917
-0.0018755 0.3553194 0.2395837
0.1203325 0.3541395 0.2383671
0.2406064 0.3512340 0.2355917
0.3615956 0.3491251 0.2336100
0.4841387 0.3486427 0.2335891
0.6080804 0.3502424 0.2350303
0.7334800 0.3533143 0.2379650
0.8604946 0.3566991 0.2415232
0.9886336 0.3601765 0.2446887
-0.0073911 0.4700522 0.2347766
0.1152472 0.4680217 0.2344191
0.2371598 0.4677857 0.2336507
0.3600365 0.4688986 0.2338811
0.4853825 0.4728350 0.2366674
0.6118274 0.4788198 0.2405299
0.7390802 0.4853230 0.2451380
0.8666920 0.4909988 0.2489922
0.9941911 0.4953049 0.2510080
-0.0134229 0.5861361 0.2294844
0.1090221 0.5820965 0.2291975
0.2325419 0.5826555 0.2305706
0.3577970 0.5874696 0.2335104
0.4856508 0.5959162 0.2387728
0.6142637 0.6055813 0.2446559
0.7432968 0.6155146 0.2504222
0.8716708 0.6235191 0.2543034
0.9987295 0.6288053 0.2553897
-0.0184096 0.7065440 0.2254574
0.1028329 0.6989969 0.2243260
0.2262688 0.6973322 0.2261791
0.3536491 0.7043257 0.2315827
0.4839482 0.7163988 0.2391094
0.6151282 0.7305853 0.2469948
0.7453892 0.7436291 0.2530812
0.8740311 0.7533670 0.2564112
1.0007185 0.7595941 0.2568613
-0.0214565 0.8329154 0.2237428
0.0991738 0.8234850 0.2222429
0.2221076 0.8190274 0.2238146
0.3497581 0.8239553 0.2298172
0.4818665 0.8380915 0.2387613
0.6145447 0.8553994 0.2473217
0.7451437 0.8700668 0.2530752
0.8734545 0.8807922 0.2557025
0.9999160 0.8880195 0.2558866
-0.0225446 0.9647354 0.2242502
0.0985233 0.9560531 0.2232866
0.2215572 0.9509879 0.2248284
0.3488160 0.9539146 0.2301945
0.4803157 0.9660100 0.2383541
0.6125524 0.9821139 0.2460682
0.7427129 0.9964688 0.2510610
0.8706569 1.0075053 0.2532448
0.9972337 1.0156224 0.2535216
-0.0072581 -0.0314855 0.3679054
0.1148408 -0.0321284 0.3656150
0.2346796 -0.0365250 0.3616333
0.3536195 -0.0428737 0.3571825
0.4738414 -0.0479079 0.3538479
0.5968535 -0.0499807 0.3527123
0.7225363 -0.0497880 0.3539138
0.8505141 -0.0475816 0.3571668
0.9797547 -0.0440505 0.3613311
-0.0036948 0.1043958 0.3693171
0.1184078 0.1038622 0.3668727
0.2376179 0.0982230 0.3624432
0.3559654 0.0904010 0.3578658
0.4764895 0.0855270 0.3552418
0.6001156 0.0849356 0.3547888
0.7256243 0.0858483 0.3558164
0.8534838 0.0884785 0.3589388
0.9826383 0.0921462 0.3631068
-0.0028604 0.2338164 0.3689589
0.1190733 0.2325537 0.3666079
0.2386295 0.2270077 0.3626062
0.3586178 0.2215969 0.3595882
0.4805441 0.2188626 0.3584259
0.6050080 0.2195369 0.3590722
0.7307302 0.2218473 0.3605535
0.8581268 0.2250147 0.3633222
0.9865387 0.2283829 0.3667574
-0.0049900 0.3568214 0.3662914
0.1170822 0.3554682 0.3644824
0.2382285 0.3530835 0.3619266
0.3606385 0.3514844 0.3610561
0.4843034 0.3512305 0.3614928
0.6098466 0.3535624 0.3634099
0.7365320 0.3572961 0.3662351
0.8637188 0.3610635 0.3692166
0.9913239 0.3644005 0.3718879
-0.0089972 0.4769996 0.3617925
0.1140407 0.4765417 0.3612574
0.2369257 0.4770675 0.3607383
0.3612286 0.4783386 0.3618079
0.4866257 0.4811141 0.3638243
0.6135189 0.4855981 0.3671416
0.7412262 0.4908250 0.3710788
0.8691006 0.4959544 0.3748434
0.9963325 0.4998253 0.3770867
-0.0130512 0.5984892 0.3571236
0.1102588 0.5972052 0.3571475
0.2348098 0.5996667 0.3589998
0.3602223 0.6032029 0.3617257
0.4867268 0.6077464 0.3652360
0.6151296 0.6147003 0.3698927
0.7444612 0.6226137 0.3750571
0.8731980 0.6294956 0.3792621
1.0002847 0.6340136 0.3808375
-0.0163249 0.7228886 0.3538757
0.1063071 0.7193639 0.3535959
0.2304582 0.7198993 0.3560007
0.3568270 0.7248077 0.3604452
0.4849793 0.7319978 0.3657432
0.6148551 0.7412964 0.3716802
0.7454335 0.7516587 0.3775161
0.8746627 0.7600955 0.3812495
1.0015909 0.7654113 0.3821039
-0.0189449 0.8503269 0.3525215
0.1030989 0.8452184 0.3520510
0.2263569 0.8429461 0.3541399
0.3524768 0.8459998 0.3591562
0.4824961 0.8554216 0.3660308
0.6138816 0.8672221 0.3728827
0.7443989 0.8785362 0.3781618
0.8731630 0.8877417 0.3808309
1.0000007 0.8940710 0.3812004
-0.0207882 0.9805875 0.3528493
0.1011456 0.9752064 0.3526757
0.2242578 0.9719146 0.3546532
0.3503362 0.9733962 0.3594719
0.4802698 0.9814978 0.3663265
0.6116989 0.9935662 0.3727361
0.7415878 1.0050102 0.3769769
0.8697318 1.0144657 0.3788836
0.9966332 1.0216636 0.3790733
-0.0129625 -0.0436816 0.4958463
0.1087951 -0.0475225 0.4944810
0.2290767 -0.0534394 0.4918249
0.3493773 -0.0587610 0.4889200
0.4721890 -0.0597540 0.4870424
0.5979291 -0.0568794 0.4866085
0.7253780 -0.0526255 0.4874245
0.8540864 -0.0475436 0.4893796
0.9832706 -0.0424207 0.4919556
-0.0093209 0.0935125 0.4968744
0.1128703 0.0906101 0.4953010
0.2330249 0.0847946 0.4921016
0.3529142 0.0788203 0.4890079
0.4759649 0.0779600 0.4876533
0.6020824 0.0813047 0.4877536
0.7294256 0.0854576 0.4886015
0.8580240 0.0904641 0.4905182
0.9868941 0.0952196 0.4930446
-0.0074445 0.2274089 0.4964625
0.1152308 0.2254144 0.4949190
0.2362171 0.2210070 0.4919773
0.3578107 0.2174207 0.4899072
0.4810600 0.2164207 0.4890824
0.6069591 0.2190253 0.4896544
0.7344350 0.2234400 0.4910303
0.8626567 0.2281362 0.4929067
0.9907578 0.2321676 0.4950694
-0.0078822 0.3574195 0.4941655
0.1151715 0.3560647 0.4929799
0.2378509 0.3542877 0.4913143
0.3611663 0.3533962 0.4903465
0.4857787 0.3541806 0.4904418
0.6118520 0.3565727 0.4917050
0.7391531 0.3601178 0.4937240
0.8668237 0.3639909 0.4958114
0.9943393 0.3676035 0.4977962
-0.0095369 0.4856851 0.4906186
0.1142471 0.4854040 0.4902724
0.2383903 0.4858095 0.4901349
0.3628363 0.4866787 0.4902980
0.4883557 0.4885633 0.4913999
0.6150854 0.4915569 0.4934778
0.7426300 0.4952155 0.4960403
0.8701531 0.4986231 0.4984494
0.9975212 0.5021810 0.5005290
-0.0110957 0.6142594 0.4871172
0.1131006 0.6144459 0.4874019
0.2377121 0.6155559 0.4885072
0.3623883 0.6165974 0.4899491
0.4881188 0.6188637 0.4919523
0.6153859 0.6228095 0.4946254
0.7439620 0.6277000 0.4977255
0.8726909 0.6327571 0.5008151
0.9999686 0.6365678 0.5027312
-0.0129145 0.7427197 0.4845048
0.1111456 0.7426799 0.4849152
0.2351603 0.7428806 0.4867287
0.3601239 0.7442082 0.4893866
0.4860896 0.7469327 0.4923515
0.6138880 0.7516812 0.4955304
0.7437109 0.7585076 0.4991289
0.8726019 0.7644302 0.5021487
0.9999873 0.7687070 0.5036141
-0.0155327 0.8707329 0.4830418
0.1078162 0.8696809 0.4834679
0.2310238 0.8686240 0.4854069
0.3554319 0.8690267 0.4887183
0.4823888 0.8728916 0.4926080
0.6117159 0.8797863 0.4964413
0.7410656 0.8867435 0.4998513
0.8698326 0.8931205 0.5022416
0.9975285 0.8982248 0.5032110
-0.0184026 0.9990960 0.4826852
0.1043089 0.9971477 0.4832325
0.2273054 0.9956368 0.4851802
0.3517759 0.9958178 0.4886400
0.4788982 0.9993744 0.4929675
0.6086134 1.0067942 0.4969818
0.7376329 1.0141520 0.4997961
0.8659940 1.0207909 0.5014165
0.9938075 1.0265635 0.5019806
-0.0183253 -0.0561390 0.6242405
0.1032696 -0.0630546 0.6243519
0.2247273 -0.0697717 0.6238549
0.3474865 -0.0728612 0.6230180
0.4732479 -0.0694087 0.6221336
0.6011620 -0.0621243 0.6213717
0.7299453 -0.0541270 0.6210806
0.8590127 -0.0466374 0.6214796
0.9878551 -0.0402657 0.6224534
-0.0150195 0.0816596 0.6247052
0.1070943 0.0758169 0.6245930
0.2290202 0.0703922 0.6236802
0.3519488 0.0683900 0.6222948
0.4776316 0.0715834 0.6213972
0.6052147 0.0777814 0.6208183
0.7341838 0.0854355 0.6207735
0.8634944 0.0927466 0.6214210
0.9920246 0.0984298 0.6224638
-0.0122348 0.2198489 0.6240153
0.1108012 0.2161292 0.6237291
0.2339360 0.2133256 0.6226508
0.3579461 0.2130090 0.6212615
0.4828682 0.2144105 0.6203312
0.6097872 0.2185821 0.6202223
0.7382978 0.2246433 0.6206979
0.8674886 0.2309799 0.6215733
0.9955246 0.2357406 0.6225894
-0.0104164 0.3575987 0.6223246
0.1135244 0.3560982 0.6220427
0.2378314 0.3551828 0.6211529
0.3623197 0.3549088 0.6200817
0.4876140 0.3560216 0.6195136
0.6139516 0.3585963 0.6196463
0.7416750 0.3624632 0.6206683
0.8697111 0.3665428 0.6217523
0.9974678 0.3705306 0.6228170
-0.0093529 0.4943676 0.6201908
0.1151453 0.4943548 0.6201322
0.2397155 0.4937771 0.6194333
0.3644713 0.4933933 0.6187611
0.4899137 0.4940858 0.6186417
0.6163385 0.4961058 0.6192267
0.7434996 0.4985511 0.6203706
0.8708030 0.5011177 0.6216793
0.9983858 0.5043164 0.6229157
-0.0092886 0.6290793 0.6177296
0.1148453 0.6293591 0.6178152
0.2395015 0.6290883 0.6176236
0.3640783 0.6284060 0.6176228
0.4891106 0.6282281 0.6179453
0.6153754 0.6294887 0.6187412
0.7432427 0.6325109 0.6200040
0.8711956 0.6354399 0.6214141
0.9986593 0.6382532 0.6229854
-0.0106355 0.7605441 0.6153386
0.1133233 0.7616534 0.6155283
0.2369716 0.7609028 0.6160041
0.3611713 0.7598836 0.6169494
0.4858919 0.7594148 0.6178644
0.6124084 0.7608255 0.6187592
0.7405723 0.7640656 0.6196683
0.8689034 0.7674183 0.6212510
0.9969152 0.7706140 0.6230289
-0.0134949 0.8890061 0.6135030
0.1099043 0.8900160 0.6139626
0.2327392 0.8894841 0.6149491
0.3558938 0.8880770 0.6165551
0.4808205 0.8882359 0.6180254
0.6082387 0.8909126 0.6189594
0.7360751 0.8937595 0.6199182
0.8647982 0.8973035 0.6214862
0.9935009 0.9010717 0.6230624
-0.0169939 1.0162694 0.6124089
0.1056298 1.0164065 0.6130459
0.2279881 1.0159019 0.6142534
0.3509786 1.0154372 0.6159713
0.4760194 1.0165511 0.6176904
0.6036564 1.0197174 0.6191212
0.7317946 1.0228631 0.6204071
0.8605896 1.0264206 0.6217305
0.9895957 1.0305623 0.6229417
-0.0220490 -0.0648770 0.7525857
0.0996626 -0.0735564 0.7540263
0.2223559 -0.0804033 0.7554917
0.3476840 -0.0814386 0.7566730
0.4761389 -0.0750732 0.7567036
0.6058523 -0.0648323 0.7553004
0.7355013 -0.0542345 0.7535062
0.8645224 -0.0450879 0.7522937
0.9927938 -0.0378158 0.7519531
-0.0191139 0.0733302 0.7525904
0.1028616 0.0654254 0.7537157
0.2259689 0.0598205 0.7548041
0.3517525 0.0602064 0.7554115
0.4804994 0.0670429 0.7549387
0.6100016 0.0760234 0.7534476
0.7400555 0.0861906 0.7517016
0.8693366 0.0949599 0.7506580
0.9972331 0.1013260 0.7505230
-0.0156172 0.2146848 0.7517483
0.1074002 0.2094568 0.7524935
0.2317756 0.2065907 0.7530451
0.3580667 0.2081401 0.7527311
0.4853826 0.2126693 0.7514440
0.6135812 0.2185773 0.7503181
0.7431347 0.2260286 0.7491382
0.8724420 0.2333403 0.7484530
1.0001393 0.2387203 0.7486246
-0.0119551 0.3581807 0.7505489
0.1123902 0.3564479 0.7510316
0.2378011 0.3556813 0.7508639
0.3636405 0.3559151 0.7496783
0.4896729 0.3574018 0.7481392
0.6166796 0.3604757 0.7470259
0.7445378 0.3645037 0.7465823
0.8726756 0.3688571 0.7463544
1.0005662 0.3733000 0.7467263
-0.0091292 0.5010373 0.7491878
0.1158168 0.5018322 0.7494436
0.2410581 0.5012641 0.7485010
0.3659190 0.4993021 0.7467334
0.4913098 0.4987456 0.7451613
0.6175966 0.4996142 0.7441471
0.7445180 0.5015180 0.7440658
0.8716833 0.5037178 0.7443766
0.9994456 0.5067659 0.7449301
-0.0084619 0.6398144 0.7472977
0.1156489 0.6411398 0.7472784
0.2396695 0.6397500 0.7460028
0.3641721 0.6373111 0.7441966
0.4891938 0.6357475 0.7427942
0.6149266 0.6352355 0.7420492
0.7420494 0.6363646 0.7418435
0.8696608 0.6377889 0.7420447
0.9974336 0.6400518 0.7432650
-0.0101388 0.7732455 0.7449372
0.1128157 0.7746365 0.7447462
0.2349171 0.7725523 0.7436020
0.3585561 0.7699623 0.7424170
0.4834252 0.7681437 0.7415514
0.6095736 0.7678986 0.7406768
0.7367902 0.7683326 0.7399340
0.8652363 0.7697332 0.7404988
0.9939369 0.7723341 0.7424180
-0.0133379 0.9025822 0.7427321
0.1090066 0.9041648 0.7427496
0.2305056 0.9034093 0.7421828
0.3524471 0.9011609 0.7414168
0.4765417 0.8994525 0.7408187
0.6030873 0.8992176 0.7398516
0.7307388 0.8993323 0.7394847
0.8599718 0.9007615 0.7404986
0.9895902 0.9035533 0.7426042
-0.0169341 1.0299746 0.7411251
0.1048775 1.0310492 0.7413651
0.2260623 1.0309712 0.7413801
0.3476594 1.0304183 0.7410879
0.4712454 1.0303579 0.7403908
0.5975936 1.0303122 0.7398090
0.7258145 1.0302084 0.7401857
0.8553862 1.0313267 0.7414670
0.9855162 1.0342219 0.7433861
-0.0233851 -0.0678056 0.8805010
0.0990769 -0.0761408 0.8828064
0.2229534 -0.0821997 0.8854061
0.3498043 -0.0824220 0.8877708
0.4796353 -0.0757199 0.8885319
0.6105666 -0.0646577 0.8868818
0.7407947 -0.0529737 0.8839899
0.8696318 -0.0429817 0.8815479
0.9972893 -0.0351925 0.8802705
-0.0205611 0.0708745 0.8803349
0.1020020 0.0630794 0.8823197
0.2261231 0.0577607 0.8845980
0.3533958 0.0582458 0.8866143
0.4836831 0.0651655 0.8869145
0.6152977 0.0762701 0.8845649
0.7460891 0.0877702 0.8809957
0.8747447 0.0970019 0.8783861
1.0017821 0.1037794 0.8773824
-0.0167723 0.2136465 0.8794566
0.1066878 0.2083839 0.8809353
0.2316853 0.2052218 0.8823756
0.3590807 0.2062643 0.8830905
0.4882049 0.2114463 0.8820668
0.6185279 0.2194769 0.8793287
0.7487349 0.2280343 0.8761776
0.8772322 0.2353777 0.8739547
1.0041075 0.2409509 0.8735273
-0.0125491 0.3592907 0.8783313
0.1121679 0.3575945 0.8793115
0.2379615 0.3565896 0.8794949
0.3648764 0.3570695 0.8784231
0.4922649 0.3589275 0.8761186
0.6199365 0.3622105 0.8734961
0.7479289 0.3665661 0.8714529
0.8759647 0.3710348 0.8697055
1.0034079 0.3754900 0.8697318
-0.0094209 0.5044446 0.8769750
0.1157776 0.5056746 0.8774247
0.2412744 0.5055222 0.8763332
0.3669216 0.5041511 0.8737213
0.4925273 0.5026617 0.8705381
0.6189804 0.5027096 0.8682904
0.7459989 0.5042032 0.8669575
0.8729966 0.5057793 0.8660811
1.0006299 0.5088545 0.8666133
-0.0088799 0.6453289 0.8750469
0.1153650 0.6477154 0.8749699
0.2392577 0.6472855 0.8731498
0.3635439 0.6447312 0.8698633
0.4881046 0.6413313 0.8662644
0.6141091 0.6395269 0.8642950
0.7410752 0.6391720 0.8629165
0.8685873 0.6397198 0.8627150
0.9967593 0.6420686 0.8641996
-0.0108938 0.7805536 0.8726294
0.1117481 0.7828628 0.8722149
0.2334632 0.7820209 0.8703055
0.3560862 0.7793561 0.8673459
0.4803600 0.7760414 0.8641280
0.6065908 0.7739623 0.8613987
0.7338672 0.7722024 0.8599629
0.8626868 0.7723784 0.8606484
0.9919904 0.7747126 0.8630023
-0.0141912 0.9113918 0.8703180
0.1073707 0.9134345 0.8698819
0.2279139 0.9132451 0.8683275
0.3490163 0.9115754 0.8658350
0.4724482 0.9093030 0.8630633
0.5987487 0.9071608 0.8604916
0.7269319 0.9049400 0.8595492
0.8566925 0.9045406 0.8606731
0.9869875 0.9066771 0.8633150
-0.0175838 1.0397881 0.8685374
0.1035442 1.0414152 0.8682523
0.2237764 1.0417586 0.8672169
0.3444073 1.0414403 0.8653448
0.4671017 1.0406336 0.8629337
0.5930352 1.0387765 0.8611097
0.7216915 1.0366030 0.8608821
0.8519253 1.0361444 0.8622332
0.9828379 1.0383438 0.8647182
-0.0229029 -0.0658196 1.0075487
0.1007698 -0.0723494 1.0101695
0.2258045 -0.0767852 1.0129892
0.3533066 -0.0766265 1.0154804
0.4833039 -0.0708630 1.0164399
0.6143648 -0.0609776 1.0150558
0.7446710 -0.0499384 1.0121102
0.8733322 -0.0401382 1.0092975
1.0005722 -0.0324011 1.0076073
-0.0201177 0.0731328 1.0073058
0.1036684 0.0670494 1.0096472
0.2288699 0.0629670 1.0121704
0.3567365 0.0633758 1.0143448
0.4873555 0.0692162 1.0148469
0.6192995 0.0792201 1.0125909
0.7501302 0.0901092 1.0085785
0.8784137 0.0991915 1.0052533
1.0049115 0.1060851 1.0038160
-0.0165813 0.2157971 1.0063133
0.1077947 0.2116214 1.0080772
0.2334325 0.2089411 1.0096571
0.3612373 0.2095308 1.0105521
0.4912299 0.2140132 1.0098607
0.6225308 0.2217005 1.0068179
0.7530040 0.2301982 1.0024935
0.8807184 0.2372633 0.9993928
1.0068579 0.2429072 0.9986582
-0.0129096 0.3609417 1.0048799
0.1122696 0.3595950 1.0059432
0.2383100 0.3586951 1.0061231
0.3655668 0.3590578 1.0050677
0.4939490 0.3610605 1.0027507
0.6228195 0.3644736 0.9993974
0.7513952 0.3687285 0.9959198
0.8788989 0.3730440 0.9934757
1.0055811 0.3775612 0.9935295
-0.0104338 0.5057301 1.0031047
0.1148944 0.5069143 1.0034235
0.2405122 0.5072250 1.0022107
0.3665554 0.5067757 0.9993526
0.4930808 0.5061093 0.9956556
0.6201205 0.5058424 0.9922679
0.7472415 0.5062894 0.9898201
0.8743745 0.5078009 0.9885379
1.0018419 0.5112442 0.9894905
-0.0102663 0.6471178 1.0009428
0.1140587 0.6495885 1.0005918
0.2380842 0.6501889 0.9985115
0.3623884 0.6489075 0.9947605
0.4874725 0.6464523 0.9903801
0.6136508 0.6438433 0.9867607
0.7406051 0.6421343 0.9847974
0.8683985 0.6423698 0.9848134
0.9968799 0.6449452 0.9868044
-0.0122412 0.7837631 0.9986000
0.1105098 0.7863829 0.9978287
0.2324807 0.7868476 0.9955441
0.3548865 0.7853935 0.9918708
0.4788918 0.7827179 0.9874544
0.6049100 0.7794812 0.9835435
0.7327049 0.7766364 0.9819775
0.8617896 0.7761739 0.9829077
0.9914202 0.7782695 0.9856453
-0.0152492 0.9162853 0.9964821
0.1063186 0.9186295 0.9955995
0.2268803 0.9191785 0.9935014
0.3478609 0.9183170 0.9902429
0.4708633 0.9163317 0.9862983
0.5968787 0.9133511 0.9830009
0.7255416 0.9102172 0.9819431
0.8555746 0.9091440 0.9831739
0.9861817 0.9109625 0.9861229
-0.0182861 1.0460428 0.9948077
0.1028507 1.0480311 0.9940576
0.2230439 1.0487138 0.9923484
0.3435781 1.0484987 0.9896933
0.4661275 1.0473030 0.9865868
0.5918844 1.0448478 0.9842483
0.7205790 1.0421834 0.9837319
0.8509973 1.0413941 0.9851025
0.9821661 1.0434055 0.9878648
