ref/imx226_5000K_jzazbz_203.cube
TITLE "4483550352"
LUT_3D_SIZE 65
0.0066138 -0.0182393 -0.0075282
0.0223910 -0.0172791 -0.0073844
0.0381403 -0.0163455 -0.0072628
0.0538592 -0.0154443 -0.0071655
0.0695450 -0.0145821 -0.0070951
0.0851951 -0.0137658 -0.0070537
0.1008067 -0.0130026 -0.0070439
0.1163773 -0.0123001 -0.0070680
0.1319042 -0.0116659 -0.0071284
0.1473849 -0.0111076 -0.0072271
0.1628170 -0.0106329 -0.0073662
0.1781986 -0.0102491 -0.0075474
0.1935276 -0.0099630 -0.0077720
0.2088027 -0.0097811 -0.0080410
0.2240227 -0.0097089 -0.0083551
0.2391867 -0.0097516 -0.0087143
0.2542946 -0.0099128 -0.0091182
0.2693465 -0.0101956 -0.0095659
0.2843431 -0.0106013 -0.0100558
0.2992859 -0.0111301 -0.0105859
0.3141769 -0.0117805 -0.0111534
0.3290188 -0.0125495 -0.0117549
0.3438149 -0.0134326 -0.0123867
0.3585692 -0.0144234 -0.0130442
0.3732862 -0.0155145 -0.0137229
0.3879709 -0.0166969 -0.0144174
0.4026287 -0.0179606 -0.0151225
0.4172655 -0.0192946 -0.0158326
0.4318873 -0.0206875 -0.0165419
0.4465003 -0.0221273 -0.0172450
0.4611109 -0.0236019 -0.0179362
0.4757254 -0.0250994 -0.0186102
0.4903499 -0.0266080 -0.0192621
0.5049903 -0.0281167 -0.0198870
0.5196524 -0.0296147 -0.0204808
0.5343416 -0.0310922 -0.0210396
0.5490630 -0.0325401 -0.0215600
0.5638212 -0.0339500 -0.0220391
0.5786204 -0.0353144 -0.0224747
0.5934644 -0.0366269 -0.0228648
0.6083564 -0.0378818 -0.0232082
0.6232990 -0.0390742 -0.0235041
0.6382943 -0.0402004 -0.0237521
0.6533441 -0.0412571 -0.0239525
0.6684493 -0.0422423 -0.0241059
0.6836104 -0.0431544 -0.0242132
0.6988274 -0.0439927 -0.0242759
0.7141000 -0.0447571 -0.0242957
0.7294271 -0.0454481 -0.0242746
0.7448075 -0.0460671 -0.0242147
0.7602395 -0.0466154 -0.0241187
0.7757213 -0.0470953 -0.0239890
0.7912505 -0.0475089 -0.0238282
0.8068249 -0.0478590 -0.0236393
0.8224419 -0.0481483 -0.0234248
0.8380990 -0.0483799 -0.0231876
0.8537935 -0.0485568 -0.0229303
0.8695228 -0.0486819 -0.0226555
0.8852844 -0.0487584 -0.0223656
0.9010757 -0.0487892 -0.0220631
0.9168942 -0.0487772 -0.0217502
0.9327375 -0.0487254 -0.0214289
0.9486035 -0.0486363 -0.0211012
0.9644901 -0.0485125 -0.0207688
0.9803952 -0.0483564 -0.0204334
0.0071698 -0.0011829 -0.0072215
0.0229584 -0.0001977 -0.0070626
0.0387188 0.0007615 -0.0069260
0.0544482 0.0016884 -0.0068142
0.0701439 0.0025764 -0.0067298
0.0858032 0.0034181 -0.0066752
0.1014230 0.0042061 -0.0066531
0.1170007 0.0049325 -0.0066660
0.1325334 0.0055893 -0.0067165
0.1480186 0.0061685 -0.0068069
0.1634537 0.0066621 -0.0069393
0.1788365 0.0070626 -0.0071156
0.1941650 0.0073625 -0.0073374
0.2094377 0.0075552 -0.0076057
0.2246532 0.0076347 -0.0079212
0.2398107 0.0075955 -0.0082841
0.2549096 0.0074333 -0.0086942
0.2699503 0.0071452 -0.0091503
0.2849334 0.0067292 -0.0096510
0.2998605 0.0061853 -0.0101940
0.3147335 0.0055147 -0.0107764
0.3295554 0.0047205 -0.0113947
0.3443296 0.0038077 -0.0120447
0.3590602 0.0027828 -0.0127219
0.3737521 0.0016538 -0.0134212
0.3884106 0.0004304 -0.0141371
0.4030414 -0.0008769 -0.0148640
0.4176506 -0.0022562 -0.0155959
0.4322446 -0.0036954 -0.0163269
0.4468300 -0.0051816 -0.0170511
0.4614134 -0.0067021 -0.0177626
0.4760012 -0.0082442 -0.0184560
0.4906000 -0.0097958 -0.0191259
0.5052158 -0.0113453 -0.0197675
0.5198545 -0.0128816 -0.0203765
0.5345217 -0.0143946 -0.0209488
0.5492225 -0.0158751 -0.0214812
0.5639616 -0.0173146 -0.0219706
0.5787434 -0.0187057 -0.0224147
0.5935716 -0.0200418 -0.0228118
0.6084495 -0.0213171 -0.0231606
0.6233798 -0.0225270 -0.0234603
0.6383647 -0.0236677 -0.0237107
0.6534056 -0.0247362 -0.0239122
0.6685037 -0.0257303 -0.0240653
0.6836595 -0.0266488 -0.0241712
0.6988728 -0.0274909 -0.0242314
0.7141432 -0.0282569 -0.0242477
0.7294695 -0.0289474 -0.0242223
0.7448505 -0.0295638 -0.0241575
0.7602844 -0.0301078 -0.0240560
0.7757691 -0.0305816 -0.0239202
0.7913024 -0.0309877 -0.0237532
0.8068816 -0.0313291 -0.0235577
0.8225043 -0.0316086 -0.0233365
0.8381676 -0.0318295 -0.0230926
0.8538688 -0.0319950 -0.0228286
0.8696053 -0.0321082 -0.0225473
0.8853742 -0.0321724 -0.0222512
0.9011729 -0.0321908 -0.0219428
0.9169989 -0.0321664 -0.0216243
0.9328498 -0.0321021 -0.0212978
0.9487231 -0.0320009 -0.0209655
0.9646167 -0.0318652 -0.0206289
0.9805286 -0.0316977 -0.0202899
0.0076842 0.0157565 -0.0069339
0.0234833 0.0167628 -0.0067600
0.0392539 0.0177436 -0.0066088
0.0549930 0.0186924 -0.0064827
0.0706978 0.0196022 -0.0063843
0.0863653 0.0204657 -0.0063166
0.1019926 0.0212748 -0.0062823
0.1175766 0.0220216 -0.0062841
0.1331145 0.0226977 -0.0063247
0.1486035 0.0232948 -0.0064067
0.1640410 0.0238046 -0.0065324
0.1794247 0.0242193 -0.0067038
0.1947524 0.0245311 -0.0069226
0.2100224 0.0247330 -0.0071899
0.2252332 0.0248185 -0.0075067
0.2403839 0.0247818 -0.0078732
0.2554739 0.0246183 -0.0082891
0.2705035 0.0243244 -0.0087535
0.2854732 0.0238983 -0.0092646
0.3003847 0.0233394 -0.0098201
0.3152400 0.0226491 -0.0104169
0.3300422 0.0218306 -0.0110514
0.3447949 0.0208889 -0.0117192
0.3595026 0.0198310 -0.0124153
0.3741702 0.0186655 -0.0131344
0.3888034 0.0174025 -0.0138707
0.4034082 0.0160536 -0.0146183
0.4179911 0.0146312 -0.0153708
0.4325588 0.0131485 -0.0161220
0.4471183 0.0116190 -0.0168658
0.4616762 0.0100562 -0.0175959
0.4762395 0.0084734 -0.0183068
0.4908147 0.0068833 -0.0189929
0.5054082 0.0052980 -0.0196492
0.5200259 0.0037287 -0.0202712
0.5346735 0.0021856 -0.0208550
0.5493563 0.0006782 -0.0213972
0.5640790 -0.0007851 -0.0218947
0.5788459 -0.0021968 -0.0223454
0.5936608 -0.0035505 -0.0227475
0.6085271 -0.0048405 -0.0230998
0.6234474 -0.0060623 -0.0234015
0.6384239 -0.0072119 -0.0236527
0.6534582 -0.0082868 -0.0238536
0.6685513 -0.0092847 -0.0240050
0.6837035 -0.0102046 -0.0241082
0.6989148 -0.0110461 -0.0241648
0.7141846 -0.0118092 -0.0241768
0.7295117 -0.0124950 -0.0241463
0.7448946 -0.0131049 -0.0240759
0.7603316 -0.0136408 -0.0239683
0.7758204 -0.0141052 -0.0238262
0.7913586 -0.0145008 -0.0236525
0.8069435 -0.0148305 -0.0234503
0.8225726 -0.0150975 -0.0232223
0.8382428 -0.0153052 -0.0229717
0.8539513 -0.0154570 -0.0227012
0.8696954 -0.0155562 -0.0224136
0.8854721 -0.0156062 -0.0221115
0.9012787 -0.0156102 -0.0217974
0.9171125 -0.0155716 -0.0214737
0.9329710 -0.0154933 -0.0211426
0.9488518 -0.0153784 -0.0208060
0.9647527 -0.0152295 -0.0204657
0.9806715 -0.0150493 -0.0201235
0.0081534 0.0325698 -0.0066690
0.0239619 0.0335927 -0.0064807
0.0397415 0.0345905 -0.0063151
0.0554892 0.0355567 -0.0061749
0.0712020 0.0364840 -0.0060631
0.0868769 0.0373648 -0.0059825
0.1025106 0.0381909 -0.0059362
0.1181001 0.0389540 -0.0059270
0.1336423 0.0396456 -0.0059580
0.1491345 0.0402570 -0.0060317
0.1645738 0.0407800 -0.0061507
0.1799578 0.0412062 -0.0063171
0.1952842 0.0415276 -0.0065327
0.2105512 0.0417368 -0.0067990
0.2257571 0.0418269 -0.0071169
0.2409009 0.0417917 -0.0074867
0.2559820 0.0416261 -0.0079082
0.2710004 0.0413264 -0.0083804
0.2859569 0.0408902 -0.0089015
0.3008530 0.0403168 -0.0094690
0.3156910 0.0396075 -0.0100798
0.3304740 0.0387656 -0.0107298
0.3452059 0.0377962 -0.0114145
0.3598913 0.0367068 -0.0121286
0.3745355 0.0355065 -0.0128666
0.3891445 0.0342061 -0.0136221
0.4037247 0.0328179 -0.0143890
0.4182829 0.0313554 -0.0151606
0.4328261 0.0298325 -0.0159303
0.4473615 0.0282635 -0.0166918
0.4618962 0.0266628 -0.0174386
0.4764373 0.0250441 -0.0181648
0.4909915 0.0234208 -0.0188648
0.5055653 0.0218053 -0.0195335
0.5201648 0.0202089 -0.0201663
0.5347957 0.0186421 -0.0207592
0.5494634 0.0171143 -0.0213087
0.5641724 0.0156338 -0.0218121
0.5789273 0.0142080 -0.0222670
0.5937317 0.0128432 -0.0226718
0.6085890 0.0115449 -0.0230255
0.6235019 0.0103177 -0.0233273
0.6384725 0.0091650 -0.0235773
0.6535025 0.0080897 -0.0237760
0.6685926 0.0070934 -0.0239243
0.6837433 0.0061773 -0.0240234
0.6989544 0.0053417 -0.0240753
0.7142253 0.0045860 -0.0240818
0.7295547 0.0039094 -0.0240454
0.7449410 0.0033101 -0.0239687
0.7603823 0.0027859 -0.0238544
0.7758763 0.0023345 -0.0237055
0.7914204 0.0019527 -0.0235250
0.8070120 0.0016377 -0.0233159
0.8226481 0.0013859 -0.0230812
0.8383259 0.0011939 -0.0228240
0.8540423 0.0010582 -0.0225471
0.8697943 0.0009752 -0.0222535
0.8855792 0.0009414 -0.0219457
0.9013939 0.0009535 -0.0216264
0.9172358 0.0010080 -0.0212979
0.9331023 0.0011018 -0.0209624
0.9489908 0.0012318 -0.0206221
0.9648990 0.0013953 -0.0202787
0.9808248 0.0015894 -0.0199339
0.0085735 0.0492485 -0.0064306
0.0243902 0.0502829 -0.0062283
0.0401776 0.0512927 -0.0060489
0.0559327 0.0522713 -0.0058952
0.0716524 0.0532110 -0.0057703
0.0873333 0.0541041 -0.0056773
0.1029724 0.0549423 -0.0056193
0.1185664 0.0557172 -0.0055996
0.1341121 0.0564200 -0.0056210
0.1496065 0.0570419 -0.0056866
0.1650469 0.0575745 -0.0057989
0.1804307 0.0580091 -0.0059603
0.1957554 0.0583375 -0.0061728
0.2110190 0.0585519 -0.0064378
0.2262198 0.0586449 -0.0067566
0.2413564 0.0586099 -0.0071296
0.2564284 0.0584416 -0.0075563
0.2714357 0.0581357 -0.0080360
0.2863791 0.0576894 -0.0085666
0.3012602 0.0571021 -0.0091457
0.3160812 0.0563747 -0.0097697
0.3308456 0.0555106 -0.0104345
0.3455574 0.0545152 -0.0111352
0.3602215 0.0533962 -0.0118662
0.3748435 0.0521634 -0.0126217
0.3894298 0.0508284 -0.0133950
0.4039869 0.0494042 -0.0141795
0.4185222 0.0479052 -0.0149683
0.4330430 0.0463462 -0.0157546
0.4475567 0.0447424 -0.0165316
0.4620708 0.0431088 -0.0172927
0.4765924 0.0414599 -0.0180318
0.4911284 0.0398094 -0.0187433
0.5056855 0.0381700 -0.0194217
0.5202699 0.0365533 -0.0200627
0.5348872 0.0349698 -0.0206620
0.5495428 0.0334287 -0.0212163
0.5642414 0.0319383 -0.0217228
0.5789873 0.0305056 -0.0221794
0.5937843 0.0291369 -0.0225846
0.6086355 0.0278374 -0.0229373
0.6235438 0.0266113 -0.0232370
0.6385111 0.0254621 -0.0234840
0.6535391 0.0243924 -0.0236786
0.6686286 0.0234038 -0.0238221
0.6837800 0.0224972 -0.0239157
0.6989929 0.0216725 -0.0239615
0.7142667 0.0209293 -0.0239616
0.7296000 0.0202663 -0.0239184
0.7449911 0.0196819 -0.0238347
0.7604380 0.0191735 -0.0237133
0.7759383 0.0187386 -0.0235572
0.7914893 0.0183741 -0.0233696
0.8070883 0.0180767 -0.0231535
0.8227323 0.0178429 -0.0229120
0.8384182 0.0176692 -0.0226483
0.8541429 0.0175518 -0.0223654
0.8699034 0.0174871 -0.0220660
0.8856967 0.0174714 -0.0217529
0.9015198 0.0175013 -0.0214288
0.9173700 0.0175733 -0.0210960
0.9332445 0.0176842 -0.0207569
0.9491407 0.0178307 -0.0204134
0.9650564 0.0180099 -0.0200674
0.9809892 0.0182191 -0.0197206
0.0089412 0.0657846 -0.0062221
0.0247646 0.0668250 -0.0060066
0.0405584 0.0678413 -0.0058141
0.0563195 0.0688265 -0.0056476
0.0720447 0.0697730 -0.0055102
0.0877305 0.0706730 -0.0054054
0.1033737 0.0715180 -0.0053363
0.1189710 0.0722996 -0.0053064
0.1345191 0.0730088 -0.0053187
0.1500151 0.0736370 -0.0053763
0.1654558 0.0741752 -0.0054821
0.1808387 0.0746148 -0.0056385
0.1961611 0.0749472 -0.0058477
0.2114208 0.0751642 -0.0061115
0.2266160 0.0752580 -0.0064310
0.2417454 0.0752219 -0.0068067
0.2568082 0.0750498 -0.0072385
0.2718044 0.0747372 -0.0077251
0.2867349 0.0742810 -0.0082648
0.3016011 0.0736802 -0.0088547
0.3164058 0.0729358 -0.0094912
0.3311523 0.0720511 -0.0101698
0.3458449 0.0710317 -0.0108854
0.3604888 0.0698857 -0.0116320
0.3750901 0.0686235 -0.0124034
0.3896552 0.0672574 -0.0131928
0.4041914 0.0658013 -0.0139930
0.4187060 0.0642703 -0.0147969
0.4332068 0.0626803 -0.0155973
0.4477016 0.0610472 -0.0163873
0.4621978 0.0593868 -0.0171601
0.4767030 0.0577142 -0.0179094
0.4912241 0.0560434 -0.0186294
0.5057678 0.0543874 -0.0193148
0.5203404 0.0527579 -0.0199609
0.5349475 0.0511653 -0.0205637
0.5495945 0.0496187 -0.0211200
0.5642860 0.0481262 -0.0216269
0.5790263 0.0466944 -0.0220825
0.5938189 0.0453294 -0.0224854
0.6086672 0.0440360 -0.0228347
0.6235738 0.0428183 -0.0231301
0.6385406 0.0416795 -0.0233718
0.6535693 0.0406219 -0.0235606
0.6686606 0.0396471 -0.0236975
0.6838148 0.0387556 -0.0237842
0.6990315 0.0379474 -0.0238227
0.7143100 0.0372218 -0.0238152
0.7296488 0.0365772 -0.0237643
0.7450463 0.0360119 -0.0236728
0.7605001 0.0355233 -0.0235437
0.7760079 0.0351087 -0.0233801
0.7915668 0.0347647 -0.0231852
0.8071741 0.0344880 -0.0229621
0.8228265 0.0342751 -0.0227139
0.8385211 0.0341221 -0.0224440
0.8542546 0.0340253 -0.0221551
0.8700239 0.0339810 -0.0218504
0.8858259 0.0339853 -0.0215326
0.9016576 0.0340347 -0.0212042
0.9175161 0.0341257 -0.0208677
0.9333986 0.0342549 -0.0205254
0.9493026 0.0344191 -0.0201794
0.9652256 0.0346153 -0.0198315
0.9811654 0.0348407 -0.0194835
0.0092532 0.0821711 -0.0060470
0.0250817 0.0832115 -0.0058193
0.0408804 0.0842280 -0.0056146
0.0566460 0.0852137 -0.0054360
0.0723752 0.0861610 -0.0052871
0.0880645 0.0870619 -0.0051711
0.1037105 0.0879080 -0.0050915
0.1193099 0.0886908 -0.0050518
0.1348594 0.0894014 -0.0050554
0.1503558 0.0900309 -0.0051053
0.1657961 0.0905704 -0.0052047
0.1811773 0.0910111 -0.0053562
0.1964967 0.0913440 -0.0055622
0.2117520 0.0915606 -0.0058246
0.2269413 0.0916529 -0.0061447
0.2420630 0.0916136 -0.0065230
0.2571164 0.0914364 -0.0069593
0.2721016 0.0911164 -0.0074525
0.2870192 0.0906503 -0.0080006
0.3018711 0.0900366 -0.0086006
0.3166599 0.0892763 -0.0092486
0.3313893 0.0883728 -0.0099399
0.3460639 0.0873320 -0.0106690
0.3606892 0.0861623 -0.0114297
0.3752714 0.0848745 -0.0122152
0.3898176 0.0834818 -0.0130184
0.4043351 0.0819989 -0.0138320
0.4188317 0.0804417 -0.0146485
0.4333155 0.0788270 -0.0154604
0.4477943 0.0771714 -0.0162605
0.4622760 0.0754913 -0.0170421
0.4767681 0.0738024 -0.0177985
0.4912778 0.0721191 -0.0185239
0.5058118 0.0704545 -0.0192130
0.5203762 0.0688204 -0.0198612
0.5349768 0.0672271 -0.0204645
0.5496187 0.0656833 -0.0210196
0.5643066 0.0641969 -0.0215240
0.5790447 0.0627742 -0.0219758
0.5938365 0.0614209 -0.0223737
0.6086850 0.0601414 -0.0227171
0.6235929 0.0589395 -0.0230057
0.6385622 0.0578182 -0.0232401
0.6535942 0.0567794 -0.0234209
0.6686897 0.0558247 -0.0235496
0.6838491 0.0549544 -0.0236278
0.6990717 0.0541682 -0.0236577
0.7143568 0.0534652 -0.0236415
0.7297029 0.0528439 -0.0235820
0.7451081 0.0523021 -0.0234821
0.7605702 0.0518374 -0.0233448
0.7760865 0.0514466 -0.0231734
0.7916543 0.0511265 -0.0229709
0.8072706 0.0508736 -0.0227408
0.8229322 0.0506842 -0.0224861
0.8386360 0.0505545 -0.0222101
0.8543786 0.0504805 -0.0219158
0.8701570 0.0504585 -0.0216062
0.8859678 0.0504846 -0.0212840
0.9018082 0.0505551 -0.0209519
0.9176751 0.0506665 -0.0206124
0.9335657 0.0508154 -0.0202677
0.9494774 0.0509984 -0.0199198
0.9654076 0.0512126 -0.0195708
0.9813541 0.0514550 -0.0192222
0.0095065 0.0984019 -0.0059087
0.0253385 0.0994358 -0.0056698
0.0411404 0.1004460 -0.0054539
0.0569089 0.1014257 -0.0052644
0.0726404 0.1023672 -0.0051047
0.0883317 0.1032627 -0.0049784
0.1039792 0.1041038 -0.0048890
0.1195795 0.1048819 -0.0048402
0.1351291 0.1055883 -0.0048354
0.1506250 0.1062139 -0.0048780
0.1660638 0.1067499 -0.0049713
0.1814424 0.1071871 -0.0051180
0.1967582 0.1075165 -0.0053208
0.2120084 0.1077292 -0.0055818
0.2271912 0.1078170 -0.0059022
0.2423048 0.1077722 -0.0062828
0.2573487 0.1075882 -0.0067234
0.2723227 0.1072597 -0.0072226
0.2872277 0.1067832 -0.0077784
0.3020656 0.1061572 -0.0083876
0.3168393 0.1053825 -0.0090460
0.3315528 0.1044624 -0.0097486
0.3462108 0.1034033 -0.0104895
0.3608192 0.1022138 -0.0112622
0.3753846 0.1009053 -0.0120596
0.3899142 0.0994917 -0.0128743
0.4044158 0.0979884 -0.0136986
0.4188976 0.0964120 -0.0145247
0.4333676 0.0947800 -0.0153451
0.4478341 0.0931098 -0.0161522
0.4623050 0.0914184 -0.0169392
0.4767878 0.0897218 -0.0176994
0.4912899 0.0880348 -0.0184269
0.5058179 0.0863706 -0.0191164
0.5203780 0.0847407 -0.0197634
0.5349758 0.0831555 -0.0203639
0.5496165 0.0816233 -0.0209148
0.5643044 0.0801516 -0.0214136
0.5790438 0.0787465 -0.0218587
0.5938381 0.0774130 -0.0222488
0.6086902 0.0761554 -0.0225836
0.6236026 0.0749769 -0.0228631
0.6385772 0.0738803 -0.0230879
0.6536153 0.0728673 -0.0232589
0.6687177 0.0719390 -0.0233775
0.6838845 0.0710958 -0.0234457
0.6991152 0.0703372 -0.0234656
0.7144088 0.0696621 -0.0234397
0.7297637 0.0690687 -0.0233708
0.7451782 0.0685549 -0.0232618
0.7606498 0.0681179 -0.0231159
0.7761758 0.0677547 -0.0229362
0.7917533 0.0674618 -0.0227262
0.8073794 0.0672357 -0.0224890
0.8230507 0.0670724 -0.0222280
0.8387641 0.0669683 -0.0219462
0.8545163 0.0669192 -0.0216468
0.8703039 0.0669214 -0.0213328
0.8861238 0.0669709 -0.0210069
0.9019728 0.0670640 -0.0206718
0.9178480 0.0671972 -0.0203299
0.9337466 0.0673668 -0.0199835
0.9496658 0.0675698 -0.0196346
0.9656031 0.0678028 -0.0192852
0.9815561 0.0680631 -0.0189369
0.0096986 0.1144720 -0.0058103
0.0255323 0.1154925 -0.0055614
0.0413356 0.1164896 -0.0053356
0.0571052 0.1174563 -0.0051362
0.0728375 0.1183853 -0.0049668
0.0885292 0.1192687 -0.0048310
0.1041766 0.1200983 -0.0047326
0.1197764 0.1208655 -0.0046753
0.1353250 0.1215617 -0.0046628
0.1508191 0.1221778 -0.0046985
0.1662554 0.1227048 -0.0047859
0.1816306 0.1231336 -0.0049280
0.1969417 0.1234548 -0.0051278
0.2121862 0.1236595 -0.0053872
0.2273617 0.1237392 -0.0057079
0.2424669 0.1236859 -0.0060906
0.2575008 0.1234929 -0.0065348
0.2724636 0.1231545 -0.0070395
0.2873562 0.1226671 -0.0076021
0.3021807 0.1220292 -0.0082193
0.3169403 0.1212415 -0.0088867
0.3316391 0.1203077 -0.0095988
0.3462823 0.1192340 -0.0103496
0.3608761 0.1180296 -0.0111320
0.3754272 0.1167065 -0.0119388
0.3899434 0.1152788 -0.0127620
0.4044325 0.1137627 -0.0135939
0.4189030 0.1121755 -0.0144264
0.4333630 0.1105351 -0.0152518
0.4478211 0.1088597 -0.0160624
0.4622851 0.1071666 -0.0168513
0.4767628 0.1054720 -0.0176117
0.4912614 0.1037910 -0.0183378
0.5057875 0.1021367 -0.0190243
0.5203473 0.1005207 -0.0196666
0.5349462 0.0989528 -0.0202610
0.5495893 0.0974414 -0.0208044
0.5642811 0.0959934 -0.0212946
0.5790254 0.0946144 -0.0217301
0.5938256 0.0933091 -0.0221098
0.6086846 0.0920812 -0.0224335
0.6236046 0.0909338 -0.0227014
0.6385875 0.0898691 -0.0229144
0.6536345 0.0888886 -0.0230735
0.6687462 0.0879932 -0.0231804
0.6839227 0.0871831 -0.0232371
0.6991635 0.0864576 -0.0232457
0.7144674 0.0858154 -0.0232090
0.7298330 0.0852547 -0.0231298
0.7452581 0.0847730 -0.0230112
0.7607404 0.0843678 -0.0228562
0.7762771 0.0840356 -0.0226682
0.7918653 0.0837731 -0.0224505
0.8075018 0.0835765 -0.0222064
0.8231834 0.0834420 -0.0219392
0.8389069 0.0833657 -0.0216520
0.8546688 0.0833436 -0.0213480
0.8704658 0.0833717 -0.0210301
0.8862947 0.0834462 -0.0207011
0.9021524 0.0835633 -0.0203636
0.9180359 0.0837193 -0.0200201
0.9339422 0.0839109 -0.0196728
0.9498687 0.0841346 -0.0193237
0.9658128 0.0843873 -0.0189748
0.9817721 0.0846662 -0.0186275
0.0098274 0.1303777 -0.0057547
0.0256608 0.1313777 -0.0054972
0.0414637 0.1323545 -0.0052626
0.0572325 0.1333013 -0.0050546
0.0729639 0.1342107 -0.0048766
0.0886543 0.1350751 -0.0047324
0.1043002 0.1358863 -0.0046259
0.1198981 0.1366361 -0.0045609
0.1354443 0.1373156 -0.0045411
0.1509354 0.1379160 -0.0045704
0.1663680 0.1384283 -0.0046524
0.1817386 0.1388430 -0.0047903
0.1970441 0.1391509 -0.0049870
0.2122819 0.1393429 -0.0052450
0.2274496 0.1394102 -0.0055658
0.2425457 0.1393449 -0.0059501
0.2575693 0.1391400 -0.0063975
0.2725208 0.1387899 -0.0069067
0.2874013 0.1382909 -0.0074751
0.3022132 0.1376415 -0.0080990
0.3169598 0.1368428 -0.0087736
0.3316458 0.1358983 -0.0094932
0.3462764 0.1348147 -0.0102513
0.3608583 0.1336015 -0.0110407
0.3753984 0.1322709 -0.0118537
0.3899045 0.1308374 -0.0126822
0.4043850 0.1293176 -0.0135182
0.4188481 0.1277292 -0.0143536
0.4333025 0.1260908 -0.0151802
0.4477564 0.1244206 -0.0159906
0.4622180 0.1227364 -0.0167776
0.4766949 0.1210547 -0.0175346
0.4911942 0.1193902 -0.0182556
0.5057226 0.1177562 -0.0189354
0.5202861 0.1161641 -0.0195696
0.5348901 0.1146234 -0.0201546
0.5495396 0.1131422 -0.0206874
0.5642388 0.1117268 -0.0211659
0.5789915 0.1103825 -0.0215889
0.5938010 0.1091136 -0.0219554
0.6086701 0.1079235 -0.0222655
0.6236008 0.1068146 -0.0225196
0.6385949 0.1057890 -0.0227186
0.6536535 0.1048477 -0.0228640
0.6687770 0.1039914 -0.0229575
0.6839655 0.1032201 -0.0230012
0.6992185 0.1025330 -0.0229974
0.7145346 0.1019287 -0.0229490
0.7299123 0.1014052 -0.0228587
0.7453494 0.1009599 -0.0227298
0.7608436 0.1005900 -0.0225654
0.7763920 0.1002923 -0.0223688
0.7919916 0.1000631 -0.0221434
0.8076392 0.0998988 -0.0218926
0.8233316 0.0997954 -0.0216195
0.8390654 0.0997490 -0.0213274
0.8548372 0.0997557 -0.0210192
0.8706438 0.0998114 -0.0206980
0.8864818 0.0999123 -0.0203666
0.9023480 0.1000546 -0.0200275
0.9182395 0.1002346 -0.0196832
0.9341534 0.1004489 -0.0193358
0.9500869 0.1006942 -0.0189874
0.9660374 0.1009673 -0.0186397
0.9820026 0.1012653 -0.0182945
0.0098909 0.1461165 -0.0057443
0.0257222 0.1470889 -0.0054796
0.0415227 0.1480382 -0.0052378
0.0572890 0.1489577 -0.0050224
0.0730177 0.1498404 -0.0048371
0.0887052 0.1506787 -0.0046856
0.1043479 0.1514646 -0.0045719
0.1199423 0.1521899 -0.0045000
0.1354847 0.1528461 -0.0044738
0.1509714 0.1534243 -0.0044973
0.1663989 0.1539153 -0.0045743
0.1817638 0.1543099 -0.0047082
0.1970626 0.1545988 -0.0049022
0.2122927 0.1547727 -0.0051587
0.2274517 0.1548230 -0.0054794
0.2425381 0.1547416 -0.0058649
0.2575512 0.1545216 -0.0063149
0.2724915 0.1541576 -0.0068277
0.2873603 0.1536461 -0.0074005
0.3021605 0.1529858 -0.0080292
0.3168958 0.1521782 -0.0087088
0.3315711 0.1512270 -0.0094333
0.3461920 0.1501391 -0.0101957
0.3607652 0.1489241 -0.0109887
0.3752979 0.1475944 -0.0118044
0.3897982 0.1461646 -0.0126346
0.4042743 0.1446515 -0.0134709
0.4187347 0.1430732 -0.0143050
0.4331879 0.1414482 -0.0151290
0.4476424 0.1397951 -0.0159352
0.4621061 0.1381315 -0.0167164
0.4765866 0.1364741 -0.0174661
0.4910911 0.1348375 -0.0181784
0.5056260 0.1332348 -0.0188480
0.5201973 0.1316770 -0.0194708
0.5348103 0.1301735 -0.0200431
0.5494699 0.1287318 -0.0205621
0.5641801 0.1273581 -0.0210261
0.5789448 0.1260571 -0.0214337
0.5937669 0.1248327 -0.0217846
0.6086491 0.1236878 -0.0220787
0.6235935 0.1226247 -0.0223168
0.6386016 0.1216449 -0.0224999
0.6536743 0.1207493 -0.0226297
0.6688121 0.1199382 -0.0227082
0.6840148 0.1192113 -0.0227375
0.6992819 0.1185678 -0.0227202
0.7146119 0.1180061 -0.0226591
0.7300033 0.1175240 -0.0225571
0.7454537 0.1171189 -0.0224175
0.7609609 0.1167879 -0.0222434
0.7765218 0.1165277 -0.0220381
0.7921336 0.1163348 -0.0218051
0.8077928 0.1162053 -0.0215477
0.8234963 0.1161352 -0.0212691
0.8392407 0.1161207 -0.0209724
0.8550227 0.1161578 -0.0206607
0.8708387 0.1162426 -0.0203369
0.8866857 0.1163712 -0.0200037
0.9025604 0.1165397 -0.0196638
0.9184597 0.1167446 -0.0193194
0.9343808 0.1169825 -0.0189728
0.9503209 0.1172500 -0.0186259
0.9662775 0.1175440 -0.0182806
0.9822481 0.1178617 -0.0179383
0.0098881 0.1616878 -0.0057812
0.0257151 0.1626253 -0.0055110
0.0415114 0.1635398 -0.0052635
0.0572733 0.1644248 -0.0050421
0.0729974 0.1652734 -0.0048507
0.0886802 0.1660783 -0.0046931
0.1043181 0.1668317 -0.0045734
0.1199074 0.1675255 -0.0044956
0.1354444 0.1681513 -0.0044639
0.1509253 0.1687003 -0.0044823
0.1663464 0.1691635 -0.0045549
0.1817041 0.1695315 -0.0046853
0.1969951 0.1697952 -0.0048767
0.2122165 0.1699454 -0.0051317
0.2273660 0.1699735 -0.0054519
0.2424421 0.1698715 -0.0058382
0.2574444 0.1696330 -0.0062898
0.2723736 0.1692527 -0.0068049
0.2872315 0.1687278 -0.0073804
0.3020214 0.1680576 -0.0080118
0.3167475 0.1672437 -0.0086937
0.3314147 0.1662904 -0.0094198
0.3460292 0.1652047 -0.0101830
0.3605977 0.1639961 -0.0109758
0.3751274 0.1626769 -0.0117901
0.3896264 0.1612617 -0.0126177
0.4041028 0.1597671 -0.0134500
0.4185653 0.1582110 -0.0142789
0.4330224 0.1566121 -0.0150961
0.4474822 0.1549886 -0.0158940
0.4619528 0.1533582 -0.0166655
0.4764416 0.1517373 -0.0174041
0.4909556 0.1501403 -0.0181039
0.5055012 0.1485801 -0.0187600
0.5200843 0.1470673 -0.0193680
0.5347101 0.1456109 -0.0199245
0.5493834 0.1442181 -0.0204269
0.5641081 0.1428948 -0.0208735
0.5788879 0.1416453 -0.0212634
0.5937258 0.1404732 -0.0215961
0.6086242 0.1393810 -0.0218720
0.6235850 0.1383705 -0.0220920
0.6386097 0.1374430 -0.0222574
0.6536990 0.1365991 -0.0223701
0.6688534 0.1358388 -0.0224321
0.6840724 0.1351616 -0.0224458
0.6993554 0.1345664 -0.0224140
0.7147010 0.1340517 -0.0223394
0.7301074 0.1336150 -0.0222251
0.7455725 0.1332538 -0.0220743
0.7610936 0.1329650 -0.0218903
0.7766679 0.1327453 -0.0216764
0.7922924 0.1325912 -0.0214358
