ref/imx226_3500K_jzazbz_203.cube
TITLE "4528947088"
LUT_3D_SIZE 9
0.0115205 -0.0103413 -0.0007315
0.1373879 -0.0041634 0.0013187
0.2600683 -0.0039968 0.0009886
0.3789493 -0.0124339 -0.0023944
0.4954771 -0.0269668 -0.0075797
0.6126014 -0.0411747 -0.0123356
0.7327092 -0.0501473 -0.0153452
0.8563202 -0.0529354 -0.0166280
0.9824375 -0.0512778 -0.0169539
0.0137674 0.1243271 -0.0014031
0.1398556 0.1309662 0.0013637
0.2622561 0.1309053 0.0012867
0.3801260 0.1205518 -0.0025145
0.4955985 0.1036300 -0.0081328
0.6122976 0.0885873 -0.0126846
0.7325744 0.0802012 -0.0151461
0.8567392 0.0787452 -0.0159366
0.9834582 0.0817760 -0.0159913
0.0113968 0.2477408 -0.0053737
0.1367021 0.2513578 -0.0029384
0.2583496 0.2488212 -0.0032713
0.3762505 0.2385486 -0.0065944
0.4928851 0.2247590 -0.0107421
0.6111705 0.2138164 -0.0133787
0.7329790 0.2092055 -0.0141919
0.8581923 0.2104298 -0.0141289
0.9854699 0.2151393 -0.0140142
0.0046963 0.3614797 -0.0127005
0.1285204 0.3595946 -0.0114177
0.2500717 0.3548751 -0.0115183
0.3700198 0.3486677 -0.0126914
0.4892955 0.3420046 -0.0141405
0.6104052 0.3382293 -0.0140412
0.7344979 0.3389649 -0.0128252
0.8609173 0.3432469 -0.0118371
0.9885288 0.3493878 -0.0116722
-0.0042269 0.4719010 -0.0215447
0.1186400 0.4659779 -0.0211133
0.2410509 0.4610678 -0.0204727
0.3630992 0.4588161 -0.0198108
0.4857047 0.4600904 -0.0183721
0.6103974 0.4643312 -0.0154134
0.7368292 0.4701665 -0.0123933
0.8643349 0.4771350 -0.0105350
0.9920721 0.4842844 -0.0101732
-0.0132762 0.5847350 -0.0301420
0.1086541 0.5764268 -0.0307210
0.2315236 0.5718718 -0.0301393
0.3558806 0.5735993 -0.0282249
0.4824734 0.5819209 -0.0241615
0.6105767 0.5923509 -0.0188356
0.7390711 0.6022018 -0.0142386
0.8674182 0.6111584 -0.0114000
0.9951562 0.6188973 -0.0104285
-0.0206633 0.7033571 -0.0372422
0.1000585 0.6934855 -0.0394115
0.2227995 0.6891322 -0.0399283
0.3491511 0.6939234 -0.0375161
0.4789848 0.7065884 -0.0317327
0.6100301 0.7213109 -0.0244130
0.7402774 0.7340293 -0.0182217
0.8692209 0.7441767 -0.0142235
0.9969498 0.7521854 -0.0122989
-0.0249387 0.8292642 -0.0415519
0.0953360 0.8195409 -0.0447919
0.2180232 0.8154974 -0.0463270
0.3451356 0.8209801 -0.0442601
0.4763711 0.8347923 -0.0380731
0.6088643 0.8510006 -0.0299128
0.7400357 0.8648269 -0.0227242
0.8693280 0.8754448 -0.0177404
0.9971320 0.8835900 -0.0148609
-0.0260505 0.9613348 -0.0424908
0.0948238 0.9533916 -0.0456852
0.2179566 0.9503711 -0.0472973
0.3449916 0.9552022 -0.0456772
0.4757034 0.9671352 -0.0403130
0.6077051 0.9816533 -0.0329029
0.7387065 0.9947022 -0.0258913
0.8680392 1.0051317 -0.0205644
0.9959470 1.0132760 -0.0170959
0.0088347 -0.0151585 0.1285505
0.1337915 -0.0112449 0.1301003
0.2554865 -0.0134773 0.1291849
0.3737863 -0.0230803 0.1254434
0.4902608 -0.0370979 0.1201083
0.6076550 -0.0498626 0.1152046
0.7284087 -0.0569502 0.1120945
0.8530664 -0.0575369 0.1109443
0.9803512 -0.0537053 0.1108962
0.0111426 0.1201970 0.1278044
0.1360790 0.1240548 0.1298406
0.2570506 0.1204346 0.1287914
0.3742332 0.1084351 0.1245408
0.4901085 0.0928665 0.1190757
0.6073572 0.0800215 0.1147099
0.7283841 0.0739721 0.1123082
0.8537046 0.0749717 0.1117563
0.9816497 0.0801811 0.1121191
0.0088331 0.2446934 0.1235672
0.1330612 0.2459950 0.1252867
0.2531220 0.2396138 0.1237236
0.3706602 0.2280213 0.1200589
0.4885615 0.2169694 0.1167062
0.6075966 0.2082911 0.1145722
0.7300084 0.2055250 0.1140433
0.8561631 0.2086959 0.1143887
0.9844395 0.2150626 0.1148488
0.0019970 0.3594090 0.1155843
0.1250592 0.3565592 0.1163072
0.2459229 0.3508118 0.1156730
0.3663961 0.3448510 0.1147660
0.4869864 0.3399100 0.1141418
0.6090805 0.3378935 0.1149286
0.7336963 0.3395639 0.1167238
0.8606150 0.3445753 0.1181232
0.9887950 0.3514490 0.1184084
-0.0072075 0.4702757 0.1059064
0.1153898 0.4647955 0.1060064
0.2379898 0.4612605 0.1069145
0.3606541 0.4597294 0.1079774
0.4847369 0.4622170 0.1102020
0.6108698 0.4680213 0.1142832
0.7380317 0.4744136 0.1182726
0.8659630 0.4816043 0.1207069
0.9938946 0.4887158 0.1210115
-0.0164986 0.5829744 0.0967638
0.1052250 0.5752647 0.0957969
0.2285539 0.5723027 0.0968520
0.3538704 0.5755362 0.0994241
0.4825020 0.5862247 0.1047916
0.6122533 0.5981444 0.1114993
0.7417932 0.6088336 0.1170897
0.8706374 0.6180159 0.1204185
0.9982765 0.6252071 0.1212435
-0.0238766 0.7014764 0.0897227
0.0961891 0.6912050 0.0867442
0.2190163 0.6874887 0.0863385
0.3467224 0.6943036 0.0896938
0.4790839 0.7103069 0.0971052
0.6123984 0.7277156 0.1061868
0.7439186 0.7417244 0.1133169
0.8732365 0.7519789 0.1176147
1.0006186 0.7591196 0.1193672
-0.0278205 0.8276775 0.0861146
0.0916076 0.8169719 0.0818791
0.2140674 0.8127369 0.0799979
0.3424016 0.8198182 0.0827978
0.4762113 0.8370778 0.0905568
0.6112329 0.8566043 0.1005039
0.7436981 0.8719068 0.1086857
0.8731662 0.8824809 0.1139475
1.0005249 0.8897701 0.1166967
-0.0284652 0.9601578 0.0862138
0.0917477 0.9513636 0.0822539
0.2146134 0.9479054 0.0801321
0.3425582 0.9537929 0.0820465
0.4753615 0.9683614 0.0885751
0.6094562 0.9855014 0.0974177
0.7415240 0.9997932 0.1053706
0.8709613 1.0102545 0.1110254
0.9985576 1.0179447 0.1144243
0.0037832 -0.0261223 0.2565804
0.1274458 -0.0259084 0.2573318
0.2480373 -0.0313534 0.2559232
0.3662329 -0.0414097 0.2524391
0.4837978 -0.0525552 0.2478549
0.6028681 -0.0608365 0.2434698
0.7252333 -0.0637016 0.2404193
0.8511646 -0.0610688 0.2391536
0.9794094 -0.0549371 0.2389986
0.0063106 0.1105102 0.2554637
0.1297366 0.1102757 0.2562954
0.2493869 0.1027946 0.2545146
0.3666772 0.0905101 0.2506817
0.4842737 0.0789497 0.2465117
0.6035396 0.0713541 0.2430080
0.7260774 0.0695097 0.2405733
0.8525299 0.0735135 0.2398345
0.9812291 0.0805118 0.2401610
0.0046569 0.2377970 0.2512999
0.1274649 0.2358087 0.2517992
0.2467778 0.2272494 0.2497680
0.3650311 0.2165616 0.2467709
0.4849089 0.2092050 0.2446397
0.6062320 0.2054010 0.2433539
0.7294210 0.2050455 0.2426870
0.8561324 0.2099793 0.2427592
0.9847355 0.2171349 0.2431549
-0.0012156 0.3562804 0.2437879
0.1212553 0.3528404 0.2439908
0.2417804 0.3466421 0.2429799
0.3630040 0.3416866 0.2423584
0.4856670 0.3394225 0.2427075
0.6097435 0.3404162 0.2437779
0.7350913 0.3435624 0.2456602
0.8619597 0.3486209 0.2471146
0.9899973 0.3551394 0.2474018
-0.0095014 0.4706360 0.2345336
0.1133464 0.4671011 0.2347460
0.2358732 0.4644876 0.2354720
0.3594603 0.4639504 0.2368476
0.4854843 0.4676587 0.2397550
0.6127093 0.4739179 0.2434545
0.7405924 0.4810130 0.2474618
0.8685194 0.4876915 0.2503280
0.9961226 0.4938535 0.2507881
-0.0178158 0.5862494 0.2257770
0.1045419 0.5812917 0.2250894
0.2287511 0.5811004 0.2268714
0.3551547 0.5856180 0.2304781
0.4843743 0.5947008 0.2358890
0.6144803 0.6053748 0.2416939
0.7448065 0.6162913 0.2472413
0.8739551 0.6251380 0.2508287
1.0013160 0.6313687 0.2516306
-0.0240778 0.7070222 0.2195536
0.0966722 0.6992530 0.2170391
0.2204203 0.6977323 0.2180357
0.3490013 0.7051491 0.2230780
0.4814091 0.7190835 0.2303315
0.6148380 0.7347513 0.2383104
0.7469867 0.7486199 0.2448572
0.8767083 0.7588574 0.2488384
1.0038285 0.7652347 0.2502391
-0.0274230 0.8338150 0.2170984
0.0925377 0.8249617 0.2133904
0.2154581 0.8217232 0.2127287
0.3440518 0.8280673 0.2169062
0.4783870 0.8442243 0.2248190
0.6138229 0.8626819 0.2340620
0.7465967 0.8774703 0.2414255
0.8761952 0.8879420 0.2459954
1.0032218 0.8946561 0.2481194
-0.0281609 0.9652112 0.2182702
0.0923223 0.9574262 0.2148592
0.2153060 0.9541183 0.2135396
0.3433784 0.9591466 0.2161842
0.4767804 0.9729719 0.2228931
0.6115128 0.9896448 0.2314572
0.7437990 1.0035222 0.2388237
0.8731210 1.0137264 0.2437617
1.0003983 1.0210952 0.2464122
-0.0027408 -0.0412817 0.3841053
0.1198769 -0.0446922 0.3844175
0.2398719 -0.0526915 0.3831258
0.3585089 -0.0623930 0.3804677
0.4779098 -0.0693660 0.3769464
0.5996687 -0.0712334 0.3732298
0.7241762 -0.0686191 0.3701436
0.8513231 -0.0623321 0.3682592
0.9801231 -0.0541140 0.3673584
0.0001697 0.0972112 0.3824635
0.1227089 0.0939054 0.3825025
0.2419261 0.0843576 0.3808196
0.3598836 0.0728524 0.3782135
0.4796180 0.0660510 0.3754192
0.6021744 0.0658058 0.3726325
0.7267016 0.0688170 0.3700335
0.8538353 0.0753349 0.3684994
0.9826768 0.0834963 0.3680452
-0.0002290 0.2287352 0.3787488
0.1220332 0.2250208 0.3784175
0.2414666 0.2159458 0.3766028
0.3610130 0.2072230 0.3749376
0.4825266 0.2030613 0.3736531
0.6063814 0.2043407 0.3724813
0.7314705 0.2082230 0.3713942
0.8583792 0.2145247 0.3706459
0.9866573 0.2217024 0.3704097
-0.0042589 0.3528432 0.3727828
0.1180516 0.3492838 0.3725078
0.2393255 0.3440188 0.3717173
0.3617084 0.3406108 0.3715609
0.4853373 0.3398231 0.3717284
0.6107759 0.3428810 0.3722985
0.7373348 0.3481609 0.3732078
0.8643791 0.3539714 0.3740112
0.9920111 0.3600522 0.3741627
-0.0104651 0.4731306 0.3654192
0.1128770 0.4712117 0.3657939
0.2363106 0.4700393 0.3665233
0.3610690 0.4707879 0.3679000
0.4869203 0.4737131 0.3696645
0.6142798 0.4792821 0.3719409
0.7424269 0.4860413 0.3744818
0.8705995 0.4927519 0.3767983
0.9979561 0.4982274 0.3775720
-0.0163638 0.5949111 0.3583991
0.1071475 0.5929373 0.3585417
0.2325447 0.5947881 0.3609947
0.3588755 0.5980038 0.3641094
0.4864222 0.6029429 0.3676311
0.6158711 0.6113513 0.3714897
0.7461724 0.6211812 0.3754107
0.8755651 0.6295008 0.3784939
1.0028868 0.6350986 0.3793041
-0.0206468 0.7199500 0.3537136
0.1018985 0.7162451 0.3527756
0.2268036 0.7164773 0.3552521
0.3544704 0.7211690 0.3600539
0.4841291 0.7287213 0.3654080
0.6156159 0.7395606 0.3706890
0.7477057 0.7520317 0.3755178
0.8777498 0.7618960 0.3785920
1.0049641 0.7679808 0.3794028
-0.0235109 0.8470875 0.3524885
0.0982759 0.8421481 0.3508248
0.2219381 0.8399421 0.3520728
0.3492506 0.8429223 0.3567697
0.4810867 0.8530927 0.3632226
0.6145861 0.8664677 0.3696611
0.7468310 0.8790081 0.3749569
0.8765387 0.8891232 0.3780000
1.0037466 0.8960117 0.3789402
-0.0251445 0.9756906 0.3543462
0.0965281 0.9703986 0.3529513
0.2198989 0.9674927 0.3535651
0.3469316 0.9695847 0.3569693
0.4785620 0.9786258 0.3626502
0.6121928 0.9919642 0.3690236
0.7437828 1.0037616 0.3743877
0.8729513 1.0134551 0.3775384
1.0003400 1.0211168 0.3786464
-0.0099615 -0.0588788 0.5118813
0.1120232 -0.0655530 0.5124750
0.2323298 -0.0747561 0.5120245
0.3523337 -0.0825892 0.5104707
0.4742339 -0.0840162 0.5076092
0.5986951 -0.0791507 0.5038494
0.7252143 -0.0710031 0.5002441
0.8533990 -0.0611194 0.4973647
0.9824162 -0.0511925 0.4953880
-0.0068862 0.0810910 0.5097450
0.1153941 0.0755300 0.5098543
0.2354322 0.0661712 0.5090479
0.3549750 0.0571130 0.5079316
0.4772748 0.0559667 0.5058724
0.6022715 0.0615846 0.5027387
0.7288097 0.0697060 0.4994504
0.8569403 0.0794607 0.4967760
0.9857387 0.0886545 0.4951667
-0.0057733 0.2175552 0.5065040
0.1169484 0.2136055 0.5061692
0.2376856 0.2061922 0.5052531
0.3588104 0.2001313 0.5044779
0.4817204 0.1988869 0.5033281
0.6070533 0.2035290 0.5015508
0.7338727 0.2113299 0.4994154
0.8617199 0.2202062 0.4973825
0.9898292 0.2278763 0.4961987
-0.0072512 0.3489711 0.5025792
0.1158620 0.3461495 0.5023666
0.2384490 0.3425972 0.5018672
0.3616103 0.3405222 0.5014350
0.4860519 0.3414257 0.5009526
0.6119835 0.3454123 0.5004397
0.7391323 0.3516436 0.4999041
0.8666813 0.3585866 0.4992226
0.9942466 0.3649687 0.4986708
-0.0101913 0.4777708 0.4982580
0.1138055 0.4766210 0.4985145
0.2382280 0.4764225 0.4988029
0.3629504 0.4769389 0.4991172
0.4886839 0.4793638 0.4995238
0.6156448 0.4838664 0.5001297
0.7434355 0.4896121 0.5008095
0.8711537 0.4949964 0.5013900
0.9986682 0.5006590 0.5015706
-0.0129327 0.6070409 0.4941027
0.1115150 0.6066903 0.4946876
0.2368142 0.6074353 0.4961128
0.3621923 0.6080250 0.4978352
0.4886837 0.6106957 0.4994851
0.6166493 0.6160179 0.5010192
0.7457411 0.6230074 0.5024466
0.8748911 0.6302989 0.5036950
1.0023822 0.6357401 0.5041253
-0.0154666 0.7356428 0.4915394
0.1087615 0.7351822 0.4920589
0.2336627 0.7345341 0.4944801
0.3597400 0.7353621 0.4974202
0.4867372 0.7375246 0.5004280
0.6156255 0.7432709 0.5029518
0.7464919 0.7530229 0.5048315
0.8759381 0.7609548 0.5063649
1.0034663 0.7669302 0.5064310
-0.0183191 0.8620577 0.4915283
0.1050910 0.8600849 0.4923536
0.2289207 0.8574624 0.4950674
0.3545379 0.8565230 0.4989445
0.4830185 0.8604648 0.5026783
0.6137515 0.8687706 0.5055043
0.7443541 0.8774567 0.5080514
0.8737977 0.8861634 0.5091818
1.0016247 0.8935655 0.5086227
-0.0211384 0.9873783 0.4936582
0.1015655 0.9838181 0.4950317
0.2250075 0.9805125 0.4978133
0.3505482 0.9794223 0.5016099
0.4792125 0.9829033 0.5054632
0.6107625 0.9922848 0.5083943
0.7410490 1.0010218 0.5108623
0.8700280 1.0096054 0.5115461
0.9980322 1.0179332 0.5105761
-0.0167866 -0.0760169 0.6401989
0.1048520 -0.0855015 0.6415799
0.2261954 -0.0946208 0.6422973
0.3484987 -0.0987798 0.6414997
0.4731936 -0.0940050 0.6383092
0.5999809 -0.0830501 0.6335534
0.7280604 -0.0701562 0.6288313
0.8568783 -0.0575808 0.6249595
0.9858179 -0.0466433 0.6222350
-0.0139337 0.0643366 0.6379262
0.1080325 0.0559337 0.6389105
0.2296544 0.0477560 0.6394791
0.3520999 0.0441949 0.6388378
0.4770809 0.0492704 0.6360164
0.6038214 0.0595058 0.6316690
0.7320891 0.0725082 0.6270015
0.8610787 0.0851136 0.6231538
0.9897329 0.0949742 0.6207509
-0.0115230 0.2051975 0.6351308
0.1112525 0.1995384 0.6355074
0.2339313 0.1946993 0.6355407
0.3575239 0.1938999 0.6344683
0.4821845 0.1965532 0.6325520
0.6086225 0.2038796 0.6296490
0.7365860 0.2147026 0.6260314
0.8654363 0.2261780 0.6225156
0.9935919 0.2345602 0.6204559
-0.0099899 0.3449185 0.6328515
0.1137823 0.3424628 0.6328524
0.2378094 0.3410874 0.6322318
0.3620799 0.3407866 0.6311745
0.4871593 0.3427915 0.6297191
0.6133101 0.3474824 0.6279266
0.7408673 0.3548071 0.6259239
0.8688041 0.3627729 0.6236856
0.9965931 0.3699484 0.6219551
-0.0092444 0.4829174 0.6314534
0.1153787 0.4827144 0.6316263
0.2399788 0.4820957 0.6309441
0.3647725 0.4819468 0.6299473
0.4902682 0.4835053 0.6288829
0.6167187 0.4871665 0.6277709
0.7439479 0.4919135 0.6267022
0.8713152 0.4968656 0.6257628
0.9989790 0.5029688 0.6244592
-0.0095395 0.6177996 0.6307179
0.1150019 0.6172853 0.6319775
0.2400982 0.6171996 0.6316305
0.3650532 0.6164912 0.6312427
0.4904908 0.6166902 0.6308072
0.6170716 0.6191470 0.6302024
0.7451430 0.6247168 0.6290814
0.8732161 0.6301109 0.6281726
1.0007779 0.6353594 0.6274898
-0.0112735 0.7478306 0.6307664
0.1130129 0.7470591 0.6330754
0.2371582 0.7443592 0.6348216
0.3623448 0.7433249 0.6352671
0.4878624 0.7427585 0.6355985
0.6150830 0.7455789 0.6350524
0.7438745 0.7519428 0.6335202
0.8724480 0.7579911 0.6327645
1.0003991 0.7640845 0.6318010
-0.0143755 0.8731073 0.6320523
0.1092957 0.8712084 0.6354342
0.2327892 0.8674799 0.6390370
0.3569939 0.8638347 0.6416489
0.4830992 0.8638745 0.6425417
0.6114465 0.8682976 0.6416207
0.7402211 0.8738735 0.6404988
0.8693283 0.8813116 0.6389754
0.9978878 0.8892337 0.6368652
-0.0179676 0.9962990 0.6342470
0.1048411 0.9924830 0.6384857
0.2277041 0.9876924 0.6432753
0.3517043 0.9840411 0.6473832
0.4782021 0.9846020 0.6492802
0.6072295 0.9899390 0.6486049
0.7363043 0.9961272 0.6471848
0.8654221 1.0040565 0.6446774
0.9943197 1.0131791 0.6415219
-0.0217710 -0.0884994 0.7686969
0.0999171 -0.0992043 0.7707133
0.2224014 -0.1072750 0.7722122
0.3470049 -0.1075711 0.7715855
0.4741856 -0.0979425 0.7675033
0.6028869 -0.0825272 0.7612340
0.7320313 -0.0664489 0.7550973
0.8610593 -0.0524400 0.7504746
0.9896871 -0.0412493 0.7476279
-0.0191240 0.0518130 0.7667626
0.1026562 0.0416004 0.7685594
0.2253888 0.0342516 0.7701190
0.3504296 0.0351593 0.7694316
0.4781728 0.0461544 0.7647990
0.6069656 0.0612545 0.7583055
0.7364435 0.0776981 0.7516809
0.8656084 0.0915370 0.7468860
0.9938678 0.1013541 0.7444907
-0.0157276 0.1957674 0.7645322
0.1069177 0.1887053 0.7655725
0.2307109 0.1847919 0.7661520
0.3564325 0.1875525 0.7646662
0.4834377 0.1956492 0.7608382
0.6111731 0.2061259 0.7560395
0.7401643 0.2195517 0.7499827
0.8692294 0.2321020 0.7450709
0.9972193 0.2407232 0.7429001
-0.0118467 0.3417542 0.7632994
0.1122077 0.3393459 0.7635861
0.2371294 0.3390049 0.7627024
0.3626485 0.3406734 0.7605368
0.4885155 0.3442535 0.7576246
0.6152550 0.3503254 0.7540998
0.7429557 0.3583108 0.7502274
0.8709816 0.3669481 0.7463178
0.9989049 0.3747880 0.7438972
-0.0085505 0.4861111 0.7637790
0.1165553 0.4870118 0.7641714
0.2417258 0.4873687 0.7627049
0.3664671 0.4862099 0.7603232
0.4916654 0.4867620 0.7575454
0.6178725 0.4899208 0.7543402
0.7447233 0.4944471 0.7516661
0.8717656 0.4993427 0.7492565
0.9994661 0.5057579 0.7467796
-0.0074190 0.6242354 0.7657330
0.1175257 0.6249694 0.7676567
0.2422142 0.6238639 0.7671542
0.3667817 0.6218246 0.7646673
0.4915668 0.6205397 0.7617677
0.6172212 0.6212708 0.7589917
0.7442161 0.6252414 0.7557278
0.8715718 0.6297660 0.7526429
0.9992242 0.6352520 0.7506381
-0.0089707 0.7544303 0.7684256
0.1149153 0.7528297 0.7726026
0.2379172 0.7477384 0.7750863
0.3621221 0.7445959 0.7739253
0.4870983 0.7431090 0.7713394
0.6136230 0.7454595 0.7673121
0.7408439 0.7492567 0.7628013
0.8689526 0.7547391 0.7590418
0.9973610 0.7615620 0.7566320
-0.0123110 0.8789903 0.7712179
0.1107689 0.8756816 0.7770334
0.2331666 0.8698284 0.7820031
0.3562426 0.8645938 0.7840066
0.4813067 0.8630675 0.7822121
0.6080579 0.8652235 0.7777909
0.7358536 0.8694622 0.7727763
0.8649628 0.8767601 0.7678980
0.9941943 0.8854044 0.7641481
-0.0161128 1.0016486 0.7735623
0.1062478 0.9967315 0.7801855
0.2281515 0.9901381 0.7868046
0.3508406 0.9847151 0.7913768
0.4757517 0.9833026 0.7918205
0.6027317 0.9854658 0.7881012
0.7313213 0.9908251 0.7824196
0.8609055 0.9990635 0.7764303
0.9906839 1.0091133 0.7712891
-0.0242178 -0.0940527 0.8967542
0.0981342 -0.1035425 0.8987303
0.2217256 -0.1095407 0.9001385
0.3477827 -0.1074535 0.8992518
0.4763603 -0.0960340 0.8946527
0.6062657 -0.0788823 0.8872808
0.7360784 -0.0614437 0.8799950
0.8651056 -0.0470025 0.8749461
0.9933361 -0.0360566 0.8723714
-0.0215140 0.0463789 0.8954014
0.1008390 0.0371442 0.8972584
0.2245822 0.0315893 0.8986832
0.3510380 0.0345509 0.8976178
0.4801329 0.0470292 0.8921971
0.6107881 0.0657444 0.8831131
0.7410318 0.0839978 0.8743334
0.8698126 0.0975532 0.8691399
0.9974842 0.1067619 0.8674076
-0.0176125 0.1914816 0.8938712
0.1054838 0.1850915 0.8950147
0.2299107 0.1820330 0.8954349
0.3565995 0.1857228 0.8935035
0.4850815 0.1959799 0.8881882
0.6147952 0.2109034 0.8797382
0.7444088 0.2260411 0.8711985
0.8728724 0.2378226 0.8657879
1.0002464 0.2456820 0.8643323
-0.0128521 0.3394925 0.8933773
0.1115891 0.3376249 0.8937135
0.2368443 0.3376146 0.8925622
0.3632495 0.3407309 0.8892926
0.4903561 0.3463480 0.8842579
0.6176921 0.3536805 0.8785856
0.7455107 0.3625232 0.8727398
0.8734264 0.3715214 0.8670478
1.0009333 0.3788905 0.8648142
-0.0087441 0.4857277 0.8948870
0.1167212 0.4873138 0.8953780
0.2422091 0.4884101 0.8936625
0.3676838 0.4890377 0.8897922
0.4930712 0.4894953 0.8851148
0.6191442 0.4922349 0.8802144
0.7459221 0.4972734 0.8753688
0.8726681 0.5020750 0.8711555
1.0001035 0.5082904 0.8685503
-0.0071239 0.6250188 0.8983689
0.1181722 0.6267655 0.9006017
0.2429323 0.6262889 0.9004352
0.3674007 0.6242582 0.8973036
0.4916779 0.6215547 0.8926559
0.6171948 0.6220131 0.8872904
0.7435794 0.6252390 0.8816215
0.8705123 0.6295485 0.8769711
0.9983097 0.6356582 0.8742100
-0.0084571 0.7558578 0.9027822
0.1156316 0.7550055 0.9076367
0.2387514 0.7508926 0.9107464
0.3620305 0.7461917 0.9102403
0.4863106 0.7433923 0.9061075
0.6121420 0.7443493 0.8991818
0.7385359 0.7466731 0.8919354
0.8665932 0.7527152 0.8857226
0.9954062 0.7605169 0.8820143
-0.0116222 0.8810545 0.9067865
0.1112768 0.8775343 0.9136508
0.2332307 0.8711983 0.9196402
0.3555614 0.8650682 0.9223370
0.4796415 0.8622984 0.9200537
0.6054567 0.8630627 0.9131255
0.7329839 0.8669278 0.9042285
0.8620961 0.8743157 0.8965202
0.9917955 0.8837162 0.8913399
-0.0152187 1.0043783 0.9095083
0.1069747 0.9992409 0.9171337
0.2283716 0.9919440 0.9246062
0.3502465 0.9854310 0.9295204
0.4739574 0.9823447 0.9295534
0.5999034 0.9830697 0.9240434
0.7282645 0.9882010 0.9151291
0.8580637 0.9967439 0.9066485
0.9883949 1.0075705 0.9001246
-0.0246601 -0.0938775 1.0241354
0.0987643 -0.1005516 1.0254233
0.2234263 -0.1038438 1.0260216
0.3502253 -0.1004876 1.0245782
0.4792200 -0.0894371 1.0199137
0.6094000 -0.0732268 1.0126250
0.7393596 -0.0564337 1.0052648
0.8682803 -0.0424596 1.0002313
0.9961835 -0.0320317 0.9979331
-0.0218539 0.0465539 1.0233266
0.1016527 0.0402613 1.0244808
0.2264328 0.0372839 1.0249555
0.3535577 0.0412475 1.0231130
0.4831206 0.0533467 1.0173133
0.6140388 0.0710984 1.0078691
0.7443436 0.0886941 0.9984497
0.8728596 0.1016950 0.9930710
1.0001354 0.1103959 0.9918833
-0.0180005 0.1910499 1.0225179
0.1060481 0.1868796 1.0231195
0.2311871 0.1854383 1.0227747
0.3583250 0.1895933 1.0201174
0.4875264 0.2002323 1.0138359
0.6179701 0.2157403 1.0038088
0.7478435 0.2312429 0.9934724
0.8756869 0.2419815 0.9880586
1.0024633 0.2489489 0.9876003
-0.0135692 0.3377742 1.0226847
0.1114284 0.3369695 1.0226794
0.2370769 0.3376936 1.0211049
0.3638689 0.3413608 1.0172699
0.4917925 0.3482927 1.0110543
0.6201242 0.3573473 1.0029723
0.7482763 0.3670816 0.9945063
0.8757058 0.3755185 0.9885455
1.0025882 0.3819241 0.9875378
-0.0098710 0.4826994 1.0247377
0.1158050 0.4844999 1.0249796
0.2415576 0.4862272 1.0231086
0.3675155 0.4881450 1.0188585
0.4937776 0.4906481 1.0129976
0.6203297 0.4943607 1.0061502
0.7469815 0.4990926 0.9993115
0.8737172 0.5043624 0.9939651
1.0009822 0.5106593 0.9919526
-0.0083329 0.6217108 1.0287757
0.1170748 0.6235853 1.0306504
0.2420377 0.6239123 1.0304568
0.3667638 0.6230342 1.0275002
0.4916918 0.6221729 1.0222075
0.6172682 0.6229245 1.0152985
0.7434148 0.6255764 1.0081203
0.8704079 0.6303016 1.0023410
0.9983527 0.6370867 0.9992881
-0.0092841 0.7536246 1.0338160
0.1150475 0.7533735 1.0380669
0.2385713 0.7506780 1.0408432
0.3619266 0.7468806 1.0405727
0.4860667 0.7443477 1.0363828
0.6114398 0.7443737 1.0288338
0.7379692 0.7470915 1.0202266
0.8660157 0.7533029 1.0129514
0.9949348 0.7615139 1.0085768
-0.0118680 0.8804837 1.0384215
0.1113367 0.8777734 1.0445846
0.2336060 0.8725062 1.0499402
0.3559038 0.8668129 1.0523814
0.4794520 0.8633914 1.0500725
0.6049326 0.8636204 1.0428278
0.7323966 0.8676666 1.0331596
0.8614010 0.8751451 1.0246539
0.9911987 0.8848799 1.0188395
-0.0149702 1.0052235 1.0415642
0.1075856 1.0009980 1.0485500
0.2292841 0.9945805 1.0551335
0.3511395 0.9882346 1.0592513
0.4744423 0.9845200 1.0587269
0.6000480 0.9849202 1.0528956
0.7280339 0.9897952 1.0438571
0.8576381 0.9983336 1.0350705
0.9880212 1.0093741 1.0282277
