ref/imx226_6500K_jzazbz_203.cube
TITLE "4523889936"
LUT_3D_SIZE 5
0.0051320 -0.0181779 -0.0118209
0.2521315 -0.0090748 -0.0151194
0.4882431 -0.0230551 -0.0258034
0.7278291 -0.0409633 -0.0291411
0.9793574 -0.0456256 -0.0224387
0.0084754 0.2352074 -0.0080271
0.2547101 0.2401577 -0.0095411
0.4887716 0.2271811 -0.0214788
0.7297576 0.2173880 -0.0233500
0.9832098 0.2192375 -0.0164466
-0.0015282 0.4609862 -0.0139291
0.2436429 0.4529263 -0.0126921
0.4862231 0.4581643 -0.0147838
0.7355308 0.4712039 -0.0110906
0.9900837 0.4827329 -0.0066520
-0.0145911 0.6941437 -0.0234647
0.2296834 0.6793785 -0.0223489
0.4829414 0.6959441 -0.0139556
0.7401039 0.7249184 -0.0047334
0.9948196 0.7433809 -0.0016388
-0.0199978 0.9517553 -0.0271503
0.2247219 0.9382610 -0.0265402
0.4800607 0.9522956 -0.0170787
0.7390104 0.9811068 -0.0069395
0.9939755 1.0016586 -0.0032459
-0.0019205 -0.0224056 0.2409593
0.2412390 -0.0220202 0.2345848
0.4780482 -0.0359402 0.2243163
0.7219755 -0.0461846 0.2227203
0.9779123 -0.0449440 0.2317763
0.0014744 0.2374004 0.2425016
0.2431304 0.2330291 0.2366156
0.4818821 0.2218083 0.2296955
0.7274002 0.2196283 0.2300264
0.9836590 0.2247487 0.2383917
-0.0073911 0.4700522 0.2347766
0.2371598 0.4677857 0.2336507
0.4853825 0.4728350 0.2366674
0.7390802 0.4853230 0.2451380
0.9941911 0.4953049 0.2510080
-0.0184096 0.7065440 0.2254574
0.2262688 0.6973322 0.2261791
0.4839482 0.7163988 0.2391094
0.7453892 0.7436291 0.2530812
1.0007185 0.7595941 0.2568613
-0.0225446 0.9647354 0.2242502
0.2215572 0.9509879 0.2248284
0.4803157 0.9660100 0.2383541
0.7427129 0.9964688 0.2510610
0.9972337 1.0156224 0.2535216
-0.0129625 -0.0436816 0.4958463
0.2290767 -0.0534394 0.4918249
0.4721890 -0.0597540 0.4870424
0.7253780 -0.0526255 0.4874245
0.9832706 -0.0424207 0.4919556
-0.0074445 0.2274089 0.4964625
0.2362171 0.2210070 0.4919773
0.4810600 0.2164207 0.4890824
0.7344350 0.2234400 0.4910303
0.9907578 0.2321676 0.4950694
-0.0095369 0.4856851 0.4906186
0.2383903 0.4858095 0.4901349
0.4883557 0.4885633 0.4913999
0.7426300 0.4952155 0.4960403
0.9975212 0.5021810 0.5005290
-0.0129145 0.7427197 0.4845048
0.2351603 0.7428806 0.4867287
0.4860896 0.7469327 0.4923515
0.7437109 0.7585076 0.4991289
0.9999873 0.7687070 0.5036141
-0.0184026 0.9990960 0.4826852
0.2273054 0.9956368 0.4851802
0.4788982 0.9993744 0.4929675
0.7376329 1.0141520 0.4997961
0.9938075 1.0265635 0.5019806
-0.0220490 -0.0648770 0.7525857
0.2223559 -0.0804033 0.7554917
0.4761389 -0.0750732 0.7567036
0.7355013 -0.0542345 0.7535062
0.9927938 -0.0378158 0.7519531
-0.0156172 0.2146848 0.7517483
0.2317756 0.2065907 0.7530451
0.4853826 0.2126693 0.7514440
0.7431347 0.2260286 0.7491382
1.0001393 0.2387203 0.7486246
-0.0091292 0.5010373 0.7491878
0.2410581 0.5012641 0.7485010
0.4913098 0.4987456 0.7451613
0.7445180 0.5015180 0.7440658
0.9994456 0.5067659 0.7449301
-0.0101388 0.7732455 0.7449372
0.2349171 0.7725523 0.7436020
0.4834252 0.7681437 0.7415514
0.7367902 0.7683326 0.7399340
0.9939369 0.7723341 0.7424180
-0.0169341 1.0299746 0.7411251
0.2260623 1.0309712 0.7413801
0.4712454 1.0303579 0.7403908
0.7258145 1.0302084 0.7401857
0.9855162 1.0342219 0.7433861
-0.0229029 -0.0658196 1.0075487
0.2258045 -0.0767852 1.0129892
0.4833039 -0.0708630 1.0164399
0.7446710 -0.0499384 1.0121102
1.0005722 -0.0324011 1.0076073
-0.0165813 0.2157971 1.0063133
0.2334325 0.2089411 1.0096571
0.4912299 0.2140132 1.0098607
0.7530040 0.2301982 1.0024935
1.0068579 0.2429072 0.9986582
-0.0104338 0.5057301 1.0031047
0.2405122 0.5072250 1.0022107
0.4930808 0.5061093 0.9956556
0.7472415 0.5062894 0.9898201
1.0018419 0.5112442 0.9894905
-0.0122412 0.7837631 0.9986000
0.2324807 0.7868476 0.9955441
0.4788918 0.7827179 0.9874544
0.7327049 0.7766364 0.9819775
0.9914202 0.7782695 0.9856453
-0.0182861 1.0460428 0.9948077
0.2230439 1.0487138 0.9923484
0.4661275 1.0473030 0.9865868
0.7205790 1.0421834 0.9837319
0.9821661 1.0434055 0.9878648
