ref/imx226_CNDIYLF_3030_4690K_honeycomb_jzazbz_203.cube
TITLE "4492571536"
LUT_3D_SIZE 5
0.0031710 -0.0123317 -0.0110106
0.2493398 -0.0083005 -0.0142289
0.4891832 -0.0171500 -0.0196187
0.7331234 -0.0271274 -0.0192251
0.9855087 -0.0290437 -0.0144356
0.0089188 0.2417467 -0.0054415
0.2552177 0.2433172 -0.0065469
0.4926701 0.2348044 -0.0134159
0.7362746 0.2291870 -0.0131423
0.9889450 0.2307218 -0.0093469
0.0068265 0.4806785 -0.0033206
0.2535213 0.4749575 -0.0010069
0.4958301 0.4764328 -0.0042887
0.7426163 0.4827817 -0.0041747
0.9941620 0.4892902 -0.0033638
0.0011589 0.7216078 -0.0049344
0.2482194 0.7113042 -0.0025196
0.4972756 0.7197709 -0.0014531
0.7472744 0.7355520 -0.0007305
0.9977830 0.7460393 -0.0011574
-0.0015914 0.9757136 -0.0058085
0.2460000 0.9664482 -0.0041661
0.4967857 0.9736719 -0.0021837
0.7478795 0.9895297 -0.0010927
0.9981936 1.0015516 -0.0012305
-0.0039296 -0.0168926 0.2415855
0.2399094 -0.0184805 0.2376027
0.4819739 -0.0264118 0.2339491
0.7302422 -0.0297660 0.2351290
0.9856175 -0.0279513 0.2401495
0.0007618 0.2414113 0.2441853
0.2443269 0.2375212 0.2412002
0.4873652 0.2315054 0.2390954
0.7351744 0.2312220 0.2409915
0.9897924 0.2346622 0.2451845
-0.0001861 0.4850234 0.2446867
0.2453703 0.4832693 0.2441356
0.4930099 0.4851439 0.2453285
0.7433343 0.4907381 0.2488579
0.9956227 0.4962071 0.2510444
-0.0033782 0.7292986 0.2438962
0.2438559 0.7224549 0.2459427
0.4951482 0.7310146 0.2493233
0.7475715 0.7449965 0.2517119
0.9989145 0.7542480 0.2521042
-0.0050186 0.9832213 0.2456241
0.2427358 0.9737513 0.2480298
0.4949874 0.9803236 0.2513984
0.7471379 0.9965650 0.2521694
0.9975280 1.0082800 0.2517952
-0.0112491 -0.0317088 0.4989524
0.2330190 -0.0397752 0.4983474
0.4807227 -0.0413980 0.4974989
0.7353368 -0.0329171 0.4967979
0.9910268 -0.0255811 0.4968274
-0.0065257 0.2341517 0.4985315
0.2396756 0.2300467 0.4971809
0.4876475 0.2283559 0.4968827
0.7411625 0.2344567 0.4975337
0.9956080 0.2402359 0.4982910
-0.0047968 0.4929880 0.4972903
0.2435598 0.4928168 0.4969313
0.4929721 0.4940811 0.4970494
0.7449094 0.4970782 0.4986710
0.9973724 0.5003556 0.5001605
-0.0041755 0.7499375 0.4964965
0.2438216 0.7484791 0.4980654
0.4922082 0.7484376 0.5001854
0.7441843 0.7536793 0.5007633
0.9967342 0.7591583 0.5011556
-0.0066338 1.0024363 0.4995504
0.2404867 0.9984871 0.5028837
0.4890252 0.9978645 0.5061681
0.7406147 1.0058483 0.5048652
0.9932452 1.0137862 0.5034390
-0.0156512 -0.0460007 0.7583557
0.2320070 -0.0572987 0.7630726
0.4868756 -0.0508008 0.7618235
0.7440052 -0.0338415 0.7544483
0.9983757 -0.0225978 0.7500017
-0.0113598 0.2254005 0.7556429
0.2383773 0.2206111 0.7577300
0.4919705 0.2261662 0.7545731
0.7477403 0.2364043 0.7494474
1.0022121 0.2448010 0.7463713
-0.0070932 0.5005842 0.7521234
0.2432065 0.5008343 0.7511957
0.4939641 0.4994975 0.7487922
0.7458950 0.5011644 0.7468538
0.9988810 0.5042123 0.7457335
-0.0067847 0.7648273 0.7525016
0.2397369 0.7626773 0.7541216
0.4882629 0.7594902 0.7526105
0.7391214 0.7596480 0.7490821
0.9932209 0.7620663 0.7474916
-0.0098643 1.0181092 0.7557523
0.2351705 1.0163837 0.7600825
0.4810190 1.0144529 0.7611099
0.7322562 1.0145853 0.7566479
0.9878278 1.0181984 0.7534251
-0.0153485 -0.0463539 1.0124431
0.2355301 -0.0539140 1.0170694
0.4925620 -0.0480138 1.0156781
0.7505760 -0.0317363 1.0060417
1.0034528 -0.0199483 1.0000144
-0.0116703 0.2254666 1.0097065
0.2398678 0.2214768 1.0119001
0.4968585 0.2267761 1.0079786
0.7548692 0.2392067 0.9962080
1.0066117 0.2472873 0.9924481
-0.0086855 0.5017709 1.0060907
0.2422979 0.5028821 1.0044566
0.4949551 0.5030365 0.9984948
0.7482154 0.5039127 0.9927421
1.0011503 0.5074522 0.9907146
-0.0099733 0.7688843 1.0066600
0.2366142 0.7694223 1.0074161
0.4848024 0.7667304 1.0039120
0.7375058 0.7642095 0.9978342
0.9929155 0.7662546 0.9952826
-0.0130747 1.0257754 1.0097115
0.2313925 1.0254770 1.0133191
0.4771328 1.0236767 1.0130424
0.7296191 1.0217593 1.0073226
0.9865766 1.0241108 1.0032234
