ref/imx226_4000K_jzazbz_203.cube
TITLE "4527060496"
LUT_3D_SIZE 65
0.0092985 -0.0147471 -0.0033884
0.0251212 -0.0137977 -0.0031288
0.0409149 -0.0128823 -0.0028888
0.0566768 -0.0120072 -0.0026711
0.0724041 -0.0111796 -0.0024782
0.0880938 -0.0104067 -0.0023130
0.1037430 -0.0096963 -0.0021783
0.1193489 -0.0090561 -0.0020769
0.1349086 -0.0084944 -0.0020114
0.1504195 -0.0080190 -0.0019845
0.1658790 -0.0076376 -0.0019986
0.1812851 -0.0073579 -0.0020558
0.1966356 -0.0071867 -0.0021580
0.2119291 -0.0071304 -0.0023067
0.2271643 -0.0071947 -0.0025029
0.2423403 -0.0073843 -0.0027472
0.2574569 -0.0077029 -0.0030397
0.2725143 -0.0081529 -0.0033799
0.2875132 -0.0087354 -0.0037669
0.3024549 -0.0094498 -0.0041989
0.3173417 -0.0102943 -0.0046738
0.3321760 -0.0112650 -0.0051888
0.3469613 -0.0123565 -0.0057405
0.3617014 -0.0135620 -0.0063250
0.3764009 -0.0148728 -0.0069382
0.3910646 -0.0162793 -0.0075754
0.4056980 -0.0177705 -0.0082317
0.4203068 -0.0193345 -0.0089019
0.4348969 -0.0209589 -0.0095810
0.4494747 -0.0226306 -0.0102637
0.4640462 -0.0243366 -0.0109449
0.4786179 -0.0260637 -0.0116198
0.4931958 -0.0277991 -0.0122836
0.5077859 -0.0295305 -0.0129319
0.5223941 -0.0312460 -0.0135608
0.5370260 -0.0329344 -0.0141665
0.5516869 -0.0345853 -0.0147457
0.5663816 -0.0361893 -0.0152956
0.5811147 -0.0377374 -0.0158138
0.5958904 -0.0392221 -0.0162981
0.6107122 -0.0406366 -0.0167471
0.6255832 -0.0419750 -0.0171595
0.6405062 -0.0432325 -0.0175346
0.6554832 -0.0444052 -0.0178719
0.6705158 -0.0454904 -0.0181713
0.6856050 -0.0464859 -0.0184333
0.7007512 -0.0473909 -0.0186585
0.7159545 -0.0482050 -0.0188477
0.7312143 -0.0489290 -0.0190022
0.7465297 -0.0495641 -0.0191235
0.7618994 -0.0501123 -0.0192132
0.7773216 -0.0505761 -0.0192731
0.7927944 -0.0509584 -0.0193052
0.8083155 -0.0512628 -0.0193117
0.8238824 -0.0514927 -0.0192946
0.8394925 -0.0516522 -0.0192562
0.8551433 -0.0517450 -0.0191986
0.8708320 -0.0517753 -0.0191242
0.8865558 -0.0517470 -0.0190349
0.9023120 -0.0516642 -0.0189329
0.9180980 -0.0515306 -0.0188203
0.9339113 -0.0513501 -0.0186987
0.9497495 -0.0511261 -0.0185702
0.9656102 -0.0508619 -0.0184363
0.9814913 -0.0505607 -0.0182985
0.0098176 0.0024864 -0.0032256
0.0256515 0.0034617 -0.0029498
0.0414559 0.0044033 -0.0026938
0.0572281 0.0053044 -0.0024602
0.0729649 0.0061579 -0.0022520
0.0886635 0.0069561 -0.0020720
0.1043205 0.0076908 -0.0019233
0.1199332 0.0083538 -0.0018088
0.1354984 0.0089368 -0.0017315
0.1510134 0.0094315 -0.0016942
0.1664756 0.0098296 -0.0016993
0.1818826 0.0101233 -0.0017493
0.1972324 0.0103053 -0.0018460
0.2125232 0.0103688 -0.0019912
0.2277537 0.0103078 -0.0021859
0.2429229 0.0101170 -0.0024308
0.2580304 0.0097926 -0.0027261
0.2730765 0.0093317 -0.0030714
0.2880618 0.0087330 -0.0034655
0.3029878 0.0079970 -0.0039067
0.3178567 0.0071257 -0.0043928
0.3326711 0.0061230 -0.0049207
0.3474347 0.0049946 -0.0054869
0.3621516 0.0037479 -0.0060873
0.3768263 0.0023918 -0.0067174
0.3914643 0.0009369 -0.0073723
0.4060712 -0.0006053 -0.0080467
0.4206530 -0.0022220 -0.0087353
0.4352160 -0.0039000 -0.0094325
0.4497666 -0.0056255 -0.0101330
0.4643115 -0.0073846 -0.0108314
0.4788570 -0.0091636 -0.0115225
0.4934097 -0.0109492 -0.0122015
0.5079755 -0.0127285 -0.0128639
0.5225607 -0.0144892 -0.0135054
0.5371707 -0.0162200 -0.0141225
0.5518110 -0.0179103 -0.0147116
0.5664867 -0.0195504 -0.0152701
0.5812022 -0.0211315 -0.0157955
0.5959618 -0.0226457 -0.0162857
0.6107692 -0.0240863 -0.0167392
0.6256275 -0.0254474 -0.0171549
0.6405395 -0.0267243 -0.0175320
0.6555071 -0.0279131 -0.0178703
0.6705321 -0.0290112 -0.0181698
0.6856152 -0.0300165 -0.0184308
0.7007571 -0.0309281 -0.0186541
0.7159577 -0.0317461 -0.0188406
0.7312163 -0.0324712 -0.0189918
0.7465319 -0.0331049 -0.0191091
0.7619032 -0.0336494 -0.0191943
0.7773282 -0.0341073 -0.0192493
0.7928049 -0.0344819 -0.0192761
0.8083309 -0.0347767 -0.0192770
0.8239036 -0.0349957 -0.0192541
0.8395203 -0.0351430 -0.0192099
0.8551782 -0.0352226 -0.0191465
0.8708744 -0.0352390 -0.0190662
0.8866061 -0.0351962 -0.0189712
0.9023705 -0.0350985 -0.0188637
0.9181648 -0.0349499 -0.0187458
0.9339864 -0.0347543 -0.0186193
0.9498327 -0.0345155 -0.0184862
0.9657014 -0.0342368 -0.0183481
0.9815902 -0.0339215 -0.0182066
0.0102898 0.0195967 -0.0030883
0.0261336 0.0205938 -0.0027970
0.0419477 0.0215575 -0.0025255
0.0577289 0.0224809 -0.0022768
0.0734743 0.0233563 -0.0020537
0.0891806 0.0241758 -0.0018596
0.1048446 0.0249311 -0.0016974
0.1204630 0.0256135 -0.0015705
0.1360329 0.0262145 -0.0014819
0.1515513 0.0267254 -0.0014345
0.1670155 0.0271376 -0.0014311
0.1824229 0.0274430 -0.0014741
0.1977714 0.0276338 -0.0015656
0.2130592 0.0277030 -0.0017074
0.2282847 0.0276439 -0.0019007
0.2434469 0.0274510 -0.0021463
0.2585453 0.0271201 -0.0024444
0.2735801 0.0266479 -0.0027946
0.2885520 0.0260330 -0.0031956
0.3034625 0.0252757 -0.0036459
0.3183137 0.0243780 -0.0041428
0.3331088 0.0233440 -0.0046832
0.3478513 0.0221797 -0.0052633
0.3625455 0.0208928 -0.0058789
0.3771966 0.0194930 -0.0065251
0.3918099 0.0179913 -0.0071967
0.4063915 0.0164004 -0.0078882
0.4209477 0.0147335 -0.0085938
0.4354853 0.0130051 -0.0093078
0.4500108 0.0112294 -0.0100245
0.4645310 0.0094212 -0.0107382
0.4790528 0.0075948 -0.0114437
0.4935826 0.0057641 -0.0121359
0.5081268 0.0039424 -0.0128100
0.5226916 0.0021422 -0.0134620
0.5372826 0.0003751 -0.0140880
0.5519053 -0.0013483 -0.0146848
0.5665647 -0.0030181 -0.0152494
0.5812655 -0.0046257 -0.0157795
0.5960118 -0.0061630 -0.0162733
0.6108075 -0.0076235 -0.0167290
0.6256557 -0.0090013 -0.0171459
0.6405591 -0.0102916 -0.0175231
0.6555198 -0.0114908 -0.0178604
0.6705393 -0.0125962 -0.0181580
0.6856186 -0.0136060 -0.0184164
0.7007582 -0.0145195 -0.0186364
0.7159578 -0.0153368 -0.0188190
0.7312168 -0.0160586 -0.0189656
0.7465342 -0.0166869 -0.0190779
0.7619084 -0.0172239 -0.0191577
0.7773374 -0.0176725 -0.0192070
0.7928191 -0.0180361 -0.0192279
0.8083510 -0.0183185 -0.0192227
0.8239304 -0.0185238 -0.0191937
0.8395544 -0.0186564 -0.0191433
0.8552200 -0.0187206 -0.0190738
0.8709244 -0.0187208 -0.0189876
0.8866646 -0.0186616 -0.0188869
0.9024376 -0.0185472 -0.0187740
0.9182405 -0.0183819 -0.0186509
0.9340706 -0.0181698 -0.0185197
0.9499254 -0.0179147 -0.0183822
0.9658022 -0.0176202 -0.0182402
0.9816989 -0.0172897 -0.0180952
0.0107108 0.0365742 -0.0029805
0.0265632 0.0375885 -0.0026746
0.0423856 0.0385697 -0.0023885
0.0581747 0.0395106 -0.0021254
0.0739274 0.0404034 -0.0018884
0.0896402 0.0412399 -0.0016808
0.1053099 0.0420115 -0.0015060
0.1209331 0.0427093 -0.0013673
0.1365067 0.0433244 -0.0012680
0.1520276 0.0438480 -0.0012112
0.1674929 0.0442713 -0.0011997
0.1829002 0.0445856 -0.0012361
0.1982470 0.0447831 -0.0013227
0.2135313 0.0448560 -0.0014613
0.2287515 0.0447974 -0.0016534
0.2439065 0.0446014 -0.0018998
0.2589957 0.0442632 -0.0022007
0.2740192 0.0437795 -0.0025556
0.2889778 0.0431484 -0.0029634
0.3038730 0.0423701 -0.0034223
0.3187071 0.0414467 -0.0039296
0.3334833 0.0403824 -0.0044819
0.3482054 0.0391833 -0.0050753
0.3628780 0.0378579 -0.0057053
0.3775063 0.0364162 -0.0063666
0.3920963 0.0348703 -0.0070537
0.4066542 0.0332333 -0.0077609
0.4211867 0.0315197 -0.0084820
0.4357007 0.0297444 -0.0092111
0.4502033 0.0279229 -0.0099420
0.4647014 0.0260705 -0.0106690
0.4792020 0.0242021 -0.0113866
0.4937119 0.0223322 -0.0120895
0.5082374 0.0204744 -0.0127730
0.5227849 0.0186413 -0.0134329
0.5373600 0.0168447 -0.0140652
0.5519682 0.0150954 -0.0146668
0.5666146 0.0134030 -0.0152349
0.5813038 0.0117762 -0.0157671
0.5960401 0.0102228 -0.0162617
0.6108270 0.0087494 -0.0167173
0.6256680 0.0073617 -0.0171329
0.6405655 0.0060644 -0.0175079
0.6555218 0.0048611 -0.0178422
0.6705384 0.0037542 -0.0181360
0.6856161 0.0027454 -0.0183900
0.7007554 0.0018354 -0.0186050
0.7159560 0.0010239 -0.0187821
0.7312173 0.0003098 -0.0189229
0.7465380 -0.0003088 -0.0190291
0.7619165 -0.0008343 -0.0191026
0.7773508 -0.0012700 -0.0191454
0.7928387 -0.0016193 -0.0191598
0.8083774 -0.0018863 -0.0191480
0.8239643 -0.0020752 -0.0191125
0.8395963 -0.0021906 -0.0190557
0.8552703 -0.0022370 -0.0189800
0.8709834 -0.0022191 -0.0188878
0.8867324 -0.0021415 -0.0187815
0.9025144 -0.0020088 -0.0186632
0.9183262 -0.0018252 -0.0185352
0.9341652 -0.0015951 -0.0183994
0.9500285 -0.0013224 -0.0182578
0.9659136 -0.0010110 -0.0181122
0.9818182 -0.0006641 -0.0179641
0.0110768 0.0534096 -0.0029062
0.0269363 0.0544359 -0.0025866
0.0427655 0.0554295 -0.0022871
0.0585610 0.0563828 -0.0020106
0.0743194 0.0572879 -0.0017607
0.0900374 0.0581363 -0.0015407
0.1057115 0.0589193 -0.0013542
0.1213383 0.0596279 -0.0012047
0.1369145 0.0602530 -0.0010955
0.1524369 0.0607855 -0.0010299
0.1679027 0.0612163 -0.0010109
0.1833090 0.0615367 -0.0010412
0.1986535 0.0617381 -0.0011233
0.2139339 0.0618126 -0.0012591
0.2291485 0.0617529 -0.0014501
0.2442960 0.0615524 -0.0016973
0.2593759 0.0612062 -0.0020010
0.2743882 0.0607105 -0.0023605
0.2893336 0.0600632 -0.0027749
0.3042139 0.0592644 -0.0032420
0.3190313 0.0583161 -0.0037591
0.3337893 0.0572226 -0.0043226
0.3484918 0.0559906 -0.0049285
0.3631438 0.0546287 -0.0055717
0.3777508 0.0531478 -0.0062468
0.3923190 0.0515606 -0.0069481
0.4068550 0.0498812 -0.0076693
0.4213659 0.0481249 -0.0084041
0.4358587 0.0463075 -0.0091461
0.4503410 0.0444454 -0.0098891
0.4648198 0.0425544 -0.0106270
0.4793023 0.0406503 -0.0113541
0.4937954 0.0387478 -0.0120650
0.5083055 0.0368609 -0.0127551
0.5228390 0.0350024 -0.0134198
0.5374017 0.0331841 -0.0140556
0.5519990 0.0314166 -0.0146591
0.5666359 0.0297096 -0.0152277
0.5813170 0.0280714 -0.0157591
0.5960465 0.0265097 -0.0162518
0.6108280 0.0250310 -0.0167044
0.6256648 0.0236407 -0.0171161
0.6405594 0.0223434 -0.0174864
0.6555141 0.0211425 -0.0178154
0.6705303 0.0200405 -0.0181034
0.6856088 0.0190388 -0.0183510
0.7007500 0.0181378 -0.0185593
0.7159537 0.0173372 -0.0187295
0.7312190 0.0166356 -0.0188632
0.7465447 0.0160312 -0.0189621
0.7619291 0.0155212 -0.0190283
0.7773700 0.0151022 -0.0190638
0.7928651 0.0147705 -0.0190709
0.8084117 0.0145220 -0.0190521
0.8240069 0.0143522 -0.0190098
0.8396475 0.0142565 -0.0189463
0.8553306 0.0142300 -0.0188643
0.8710528 0.0142680 -0.0187661
0.8868111 0.0143658 -0.0186542
0.9026022 0.0145185 -0.0185307
0.9184232 0.0147218 -0.0183979
0.9342711 0.0149712 -0.0182579
0.9501432 0.0152627 -0.0181126
0.9660367 0.0155922 -0.0179637
0.9819493 0.0159564 -0.0178129
0.0113840 0.0700944 -0.0028691
0.0272490 0.0711272 -0.0025373
0.0430832 0.0721273 -0.0022255
0.0588835 0.0730872 -0.0019370
0.0746462 0.0739989 -0.0016754
0.0903678 0.0748538 -0.0014442
0.1060449 0.0756429 -0.0012471
0.1216740 0.0763573 -0.0010877
0.1372516 0.0769877 -0.0009695
0.1527745 0.0775248 -0.0008960
0.1682398 0.0779593 -0.0008702
0.1836444 0.0782823 -0.0008950
0.1989859 0.0784848 -0.0009730
0.2142618 0.0785584 -0.0011063
0.2294703 0.0784954 -0.0012966
0.2446101 0.0782890 -0.0015448
0.2596805 0.0779337 -0.0018512
0.2746816 0.0774254 -0.0022153
0.2896140 0.0767619 -0.0026358
0.3044797 0.0759430 -0.0031107
0.3192810 0.0749708 -0.0036369
0.3340216 0.0738499 -0.0042109
0.3487057 0.0725869 -0.0048280
0.3633384 0.0711913 -0.0054832
0.3779257 0.0696745 -0.0061706
0.3924740 0.0680500 -0.0068842
0.4069904 0.0663327 -0.0076174
0.4214820 0.0645387 -0.0083637
0.4359565 0.0626850 -0.0091162
0.4504214 0.0607884 -0.0098687
0.4648841 0.0588657 -0.0106147
0.4793518 0.0569330 -0.0113484
0.4938316 0.0550055 -0.0120644
0.5083301 0.0530975 -0.0127579
0.5228534 0.0512218 -0.0134244
0.5374074 0.0493902 -0.0140604
0.5519975 0.0476131 -0.0146626
0.5666286 0.0458999 -0.0152285
0.5813052 0.0442589 -0.0157560
0.5960315 0.0426972 -0.0162437
0.6108110 0.0412211 -0.0166904
0.6256469 0.0398360 -0.0170955
0.6405418 0.0385461 -0.0174586
0.6554977 0.0373547 -0.0177799
0.6705162 0.0362641 -0.0180598
0.6855981 0.0352756 -0.0182991
0.7007436 0.0343895 -0.0184989
0.7159524 0.0336051 -0.0186606
0.7312236 0.0329211 -0.0187858
0.7465560 0.0323353 -0.0188762
0.7619478 0.0318449 -0.0189340
0.7773966 0.0314463 -0.0189614
0.7929001 0.0311356 -0.0189607
0.8084555 0.0309087 -0.0189344
0.8240598 0.0307607 -0.0188848
0.8397098 0.0306871 -0.0188145
0.8554023 0.0306828 -0.0187261
0.8711341 0.0307429 -0.0186219
0.8869019 0.0308624 -0.0185045
0.9027025 0.0310367 -0.0183761
0.9185328 0.0312610 -0.0182388
0.9343897 0.0315309 -0.0180949
0.9502705 0.0318422 -0.0179462
0.9661723 0.0321908 -0.0177945
0.9820928 0.0325732 -0.0176415
0.0116291 0.0866212 -0.0028730
0.0274976 0.0876540 -0.0025304
0.0433352 0.0886545 -0.0022079
0.0591384 0.0896148 -0.0019088
0.0749036 0.0905269 -0.0016369
0.0906273 0.0913822 -0.0013959
0.1063058 0.0921718 -0.0011894
0.1219358 0.0928865 -0.0010213
0.1375136 0.0935171 -0.0008952
0.1530359 0.0940541 -0.0008146
0.1684997 0.0944881 -0.0007827
0.1839018 0.0948097 -0.0008027
0.1992394 0.0950098 -0.0008773
0.2145102 0.0950795 -0.0010086
0.2297122 0.0950108 -0.0011984
0.2448438 0.0947965 -0.0014478
0.2599046 0.0944307 -0.0017570
0.2748943 0.0939091 -0.0021254
0.2898140 0.0932292 -0.0025518
0.3046654 0.0923907 -0.0030339
0.3194514 0.0913959 -0.0035686
0.3341755 0.0902494 -0.0041518
0.3488424 0.0889583 -0.0047789
0.3634576 0.0875324 -0.0054445
0.3780271 0.0859839 -0.0061423
0.3925579 0.0843270 -0.0068661
0.4070572 0.0825775 -0.0076090
0.4215326 0.0807523 -0.0083640
0.4359919 0.0788690 -0.0091243
0.4504428 0.0769454 -0.0098832
0.4648929 0.0749987 -0.0106342
0.4793497 0.0730457 -0.0113713
0.4938200 0.0711019 -0.0120891
0.5083107 0.0691816 -0.0127825
0.5228278 0.0672977 -0.0134475
0.5373770 0.0654618 -0.0140802
0.5519639 0.0636841 -0.0146778
0.5665931 0.0619739 -0.0152377
0.5812691 0.0603388 -0.0157581
0.5959959 0.0587859 -0.0162376
0.6107770 0.0573209 -0.0166754
0.6256154 0.0559490 -0.0170710
0.6405138 0.0546742 -0.0174242
0.6554741 0.0534996 -0.0177353
0.6704977 0.0524272 -0.0180049
0.6855855 0.0514583 -0.0182338
0.7007376 0.0505929 -0.0184233
0.7159537 0.0498302 -0.0185748
0.7312328 0.0491687 -0.0186899
0.7465736 0.0486062 -0.0187707
0.7619742 0.0481395 -0.0188192
0.7774323 0.0477651 -0.0188377
0.7929453 0.0474789 -0.0188285
0.8085104 0.0472765 -0.0187941
0.8241246 0.0471531 -0.0187370
0.8397845 0.0471039 -0.0186597
0.8554871 0.0471238 -0.0185648
0.8712288 0.0472077 -0.0184548
0.8870063 0.0473507 -0.0183320
0.9028165 0.0475478 -0.0181989
0.9186561 0.0477944 -0.0180575
0.9345221 0.0480858 -0.0179100
0.9504114 0.0484179 -0.0177584
0.9663215 0.0487864 -0.0176044
0.9822498 0.0491877 -0.0174496
0.0118090 0.1029832 -0.0029213
0.0276791 0.1040095 -0.0025696
0.0435180 0.1050035 -0.0022381
0.0593223 0.1059576 -0.0019301
0.0750882 0.1068635 -0.0016495
0.0908122 0.1077129 -0.0014001
0.1064906 0.1084968 -0.0011857
0.1221200 0.1092061 -0.0010101
0.1376966 0.1098313 -0.0008771
0.1532172 0.1103631 -0.0007904
0.1686783 0.1107917 -0.0007535
0.1840768 0.1111076 -0.0007694
0.1994098 0.1113012 -0.0008412
0.2146747 0.1113635 -0.0009710
0.2298695 0.1112860 -0.0011608
0.2449926 0.1110614 -0.0014116
0.2600433 0.1106832 -0.0017236
0.2750217 0.1101471 -0.0020963
0.2899288 0.1094505 -0.0025281
0.3047665 0.1085930 -0.0030168
0.3195379 0.1075770 -0.0035589
0.3342468 0.1064072 -0.0041502
0.3488982 0.1050914 -0.0047857
0.3634977 0.1036397 -0.0054596
0.3780520 0.1020649 -0.0061656
0.3925680 0.1003818 -0.0068970
0.4070534 0.0986070 -0.0076467
0.4215159 0.0967582 -0.0084076
0.4359636 0.0948536 -0.0091724
0.4504044 0.0929117 -0.0099344
0.4648460 0.0909503 -0.0106868
0.4792958 0.0889863 -0.0114238
0.4937609 0.0870357 -0.0121397
0.5082479 0.0851127 -0.0128296
0.5227629 0.0832303 -0.0134893
0.5373117 0.0813997 -0.0141152
0.5518993 0.0796311 -0.0147046
0.5665306 0.0779331 -0.0152550
0.5812099 0.0763133 -0.0157650
0.5959410 0.0747780 -0.0162331
0.6107274 0.0733329 -0.0166590
0.6255719 0.0719825 -0.0170421
0.6404770 0.0707306 -0.0173827
0.6554447 0.0695801 -0.0176811
0.6704763 0.0685329 -0.0179380
0.6855726 0.0675899 -0.0181544
0.7007338 0.0667512 -0.0183317
0.7159594 0.0660158 -0.0184714
0.7312483 0.0653819 -0.0185752
0.7465992 0.0648471 -0.0186452
0.7620102 0.0644083 -0.0186833
0.7774788 0.0640618 -0.0186921
0.7930024 0.0638033 -0.0186738
0.8085781 0.0636283 -0.0186309
0.8242028 0.0635320 -0.0185660
0.8398733 0.0635094 -0.0184816
0.8555862 0.0635555 -0.0183802
0.8713381 0.0636650 -0.0182644
0.8871256 0.0638328 -0.0181365
0.9029454 0.0640541 -0.0179989
0.9187943 0.0643240 -0.0178538
0.9346692 0.0646379 -0.0177033
0.9505671 0.0649914 -0.0175492
0.9664852 0.0653805 -0.0173934
0.9824210 0.0658013 -0.0172375
0.0119211 0.1191749 -0.0030173
0.0277907 0.1201876 -0.0026584
0.0436289 0.1211682 -0.0023196
0.0594322 0.1221090 -0.0020045
0.0751970 0.1230020 -0.0017169
0.0909195 0.1238387 -0.0014606
0.1065961 0.1246105 -0.0012397
0.1222233 0.1253080 -0.0010580
0.1377974 0.1259219 -0.0009194
0.1533148 0.1264428 -0.0008278
0.1687721 0.1268607 -0.0007867
0.1841660 0.1271658 -0.0007995
0.1994933 0.1273484 -0.0008692
0.2147515 0.1273991 -0.0009983
0.2299383 0.1273093 -0.0011884
0.2450523 0.1270712 -0.0014409
0.2600926 0.1266784 -0.0017558
0.2750596 0.1261263 -0.0021325
0.2899543 0.1254123 -0.0025694
0.3047790 0.1245364 -0.0030638
0.3195368 0.1235009 -0.0036121
0.3342320 0.1223110 -0.0042099
0.3488699 0.1209746 -0.0048518
0.3634563 0.1195025 -0.0055318
0.3779981 0.1179079 -0.0062434
0.3925027 0.1162062 -0.0069794
0.4069777 0.1144146 -0.0077327
0.4214313 0.1125512 -0.0084958
0.4358716 0.1106351 -0.0092616
0.4503065 0.1086850 -0.0100229
0.4647439 0.1067191 -0.0107730
0.4791911 0.1047547 -0.0115060
0.4936554 0.1028078 -0.0122161
0.5081431 0.1008926 -0.0128986
0.5226604 0.0990219 -0.0135494
0.5372128 0.0972070 -0.0141649
0.5518055 0.0954573 -0.0147424
0.5664430 0.0937813 -0.0152799
0.5811295 0.0921860 -0.0157760
0.5958687 0.0906775 -0.0162296
0.6106640 0.0892608 -0.0166404
0.6255180 0.0879402 -0.0170082
0.6404333 0.0867192 -0.0173334
0.6554115 0.0856002 -0.0176166
0.6704540 0.0845851 -0.0178586
0.6855615 0.0836745 -0.0180605
0.7007340 0.0828684 -0.0182237
0.7159712 0.0821655 -0.0183500
0.7312719 0.0815641 -0.0184411
0.7466346 0.0810616 -0.0184990
0.7620573 0.0806547 -0.0185259
0.7775376 0.0803396 -0.0185242
0.7930729 0.0801119 -0.0184962
0.8086601 0.0799672 -0.0184445
0.8242961 0.0799004 -0.0183715
0.8399776 0.0799066 -0.0182799
0.8557012 0.0799807 -0.0181721
0.8714635 0.0801173 -0.0180506
0.8872611 0.0803113 -0.0179179
0.9030905 0.0805578 -0.0177762
0.9189486 0.0808520 -0.0176278
0.9348323 0.0811891 -0.0174746
0.9507384 0.0815648 -0.0173186
0.9666643 0.0819749 -0.0171616
0.9826073 0.0824156 -0.0170052
0.0119631 0.1351921 -0.0031638
0.0278301 0.1361841 -0.0027997
0.0436655 0.1371439 -0.0024556
0.0594658 0.1380642 -0.0021352
0.0752274 0.1389371 -0.0018423
0.0909466 0.1397543 -0.0015809
0.1066198 0.1405069 -0.0013550
0.1222432 0.1411861 -0.0011686
0.1378131 0.1417824 -0.0010258
0.1533260 0.1422861 -0.0009305
0.1687781 0.1426874 -0.0008864
0.1841661 0.1429761 -0.0008971
0.1994867 0.1431425 -0.0009656
0.2147371 0.1431768 -0.0010944
0.2299151 0.1430703 -0.0012855
0.2450193 0.1428151 -0.0015399
0.2600489 0.1424048 -0.0018578
0.2750044 0.1418349 -0.0022382
0.2898871 0.1411030 -0.0026795
0.3046995 0.1402093 -0.0031786
0.3194451 0.1391564 -0.0037317
0.3341286 0.1379500 -0.0043340
0.3487554 0.1365984 -0.0049799
0.3633317 0.1351125 -0.0056633
0.3778646 0.1335061 -0.0063772
0.3923615 0.1317948 -0.0071144
0.4068304 0.1299963 -0.0078676
0.4212795 0.1281291 -0.0086292
0.4357168 0.1262124 -0.0093919
0.4501505 0.1242655 -0.0101484
0.4645883 0.1223067 -0.0108922
0.4790377 0.1203534 -0.0116171
0.4935056 0.1184215 -0.0123176
0.5079986 0.1165253 -0.0129888
0.5225225 0.1146773 -0.0136267
0.5370830 0.1128884 -0.0142280
0.5516848 0.1111679 -0.0147901
0.5663325 0.1095236 -0.0153113
0.5810301 0.1079623 -0.0157902
0.5957812 0.1064895 -0.0162261
0.6105890 0.1051099 -0.0166188
0.6254560 0.1038274 -0.0169685
0.6403846 0.1026449 -0.0172756
0.6553764 0.1015648 -0.0175411
0.6704326 0.1005885 -0.0177659
0.6855538 0.0997165 -0.0179513
0.7007402 0.0989487 -0.0180988
0.7159910 0.0982837 -0.0182101
0.7313053 0.0977196 -0.0182871
0.7466814 0.0972536 -0.0183319
0.7621173 0.0968823 -0.0183467
0.7776105 0.0966021 -0.0183337
0.7931584 0.0964083 -0.0182955
0.8087578 0.0962965 -0.0182346
0.8244057 0.0962615 -0.0181534
0.8400986 0.0962984 -0.0180545
0.8558333 0.0964021 -0.0179403
0.8716061 0.0965672 -0.0178134
0.8874138 0.0967886 -0.0176761
0.9032528 0.0970613 -0.0175308
0.9191200 0.0973804 -0.0173794
0.9350121 0.0977414 -0.0172242
0.9509263 0.0981397 -0.0170669
0.9668595 0.0985712 -0.0169093
0.9828093 0.0990322 -0.0167530
0.0119335 0.1510322 -0.0033632
0.0277956 0.1519960 -0.0029959
0.0436260 0.1529277 -0.0026485
0.0594213 0.1538201 -0.0023248
0.0751778 0.1546656 -0.0020285
0.0908918 0.1554558 -0.0017637
0.1065596 0.1561824 -0.0015345
0.1221775 0.1568362 -0.0013451
0.1377417 0.1574080 -0.0011994
0.1532485 0.1578879 -0.0011017
0.1686940 0.1582661 -0.0010558
0.1840747 0.1585324 -0.0010654
0.1993872 0.1586766 -0.0011336
0.2146288 0.1586892 -0.0012630
0.2297972 0.1585612 -0.0014555
0.2448909 0.1582848 -0.0017121
0.2599095 0.1578538 -0.0020329
0.2748534 0.1572640 -0.0024167
0.2897246 0.1565134 -0.0028615
0.3045258 0.1556028 -0.0033640
0.3192611 0.1545353 -0.0039200
0.3339352 0.1533169 -0.0045244
0.3485540 0.1519563 -0.0051716
0.3631238 0.1504648 -0.0058549
0.3776518 0.1488559 -0.0065675
0.3921455 0.1471456 -0.0073021
0.4066129 0.1453515 -0.0080511
0.4210622 0.1434925 -0.0088070
0.4355015 0.1415878 -0.0095622
0.4499389 0.1396566 -0.0103098
0.4643821 0.1377174 -0.0110429
0.4788384 0.1357875 -0.0117556
0.4933148 0.1338827 -0.0124422
0.5078175 0.1320171 -0.0130981
0.5223525 0.1302030 -0.0137194
0.5369251 0.1284509 -0.0143029
0.5515402 0.1267697 -0.0148462
0.5662020 0.1251670 -0.0153476
0.5809145 0.1236489 -0.0158061
0.5956811 0.1222207 -0.0162212
0.6105048 0.1208865 -0.0165930
0.6253881 0.1196499 -0.0169219
0.6403332 0.1185135 -0.0172085
0.6553415 0.1174793 -0.0174540
0.6704142 0.1165483 -0.0176595
0.6855517 0.1157211 -0.0178265
0.7007541 0.1149971 -0.0179565
0.7160207 0.1143750 -0.0180514
0.7313503 0.1138526 -0.0181131
0.7467413 0.1134272 -0.0181437
0.7621917 0.1130953 -0.0181455
0.7776990 0.1128530 -0.0181207
0.7932603 0.1126960 -0.0180719
0.8088727 0.1126194 -0.0180014
0.8245329 0.1126183 -0.0179118
0.8402377 0.1126877 -0.0178056
0.8559835 0.1128225 -0.0176853
0.8717670 0.1130173 -0.0175532
0.8875847 0.1132671 -0.0174116
0.9034332 0.1135667 -0.0172630
0.9193092 0.1139115 -0.0171093
0.9352096 0.1142967 -0.0169525
0.9511313 0.1147180 -0.0167945
0.9670716 0.1151712 -0.0166369
0.9830278 0.1156524 -0.0164813
0.0118310 0.1666942 -0.0036174
0.0276860 0.1676222 -0.0032491
0.0435093 0.1685183 -0.0029005
0.0592974 0.1693753 -0.0025754
0.0750467 0.1701859 -0.0022777
0.0907536 0.1709419 -0.0020114
0.1064143 0.1716349 -0.0017806
0.1220249 0.1722561 -0.0015897
0.1375816 0.1727962 -0.0014428
0.1530806 0.1732453 -0.0013441
0.1685179 0.1735936 -0.0012977
0.1838899 0.1738307 -0.0013072
0.1991932 0.1739466 -0.0013761
0.2144248 0.1739316 -0.0015067
0.2295826 0.1737769 -0.0017011
0.2446652 0.1734749 -0.0019601
0.2596724 0.1730198 -0.0022836
0.2746051 0.1724080 -0.0026702
0.2894655 0.1716382 -0.0031173
0.3042571 0.1707120 -0.0036215
0.3189842 0.1696333 -0.0041781
0.3336519 0.1684085 -0.0047818
0.3482663 0.1670465 -0.0054267
0.3628338 0.1655586 -0.0061062
0.3773615 0.1639580 -0.0068134
0.3918570 0.1622607 -0.0075410
0.4063281 0.1604838 -0.0082814
0.4207828 0.1586462 -0.0090270
0.4352294 0.1567669 -0.0097704
0.4496757 0.1548649 -0.0105045
0.4641292 0.1529586 -0.0112226
0.4785973 0.1510651 -0.0119188
0.4930867 0.1491999 -0.0125876
0.5076036 0.1473768 -0.0132244
0.5221539 0.1456078 -0.0138253
0.5367428 0.1439031 -0.0143874
0.5513751 0.1422714 -0.0149085
0.5660548 0.1407197 -0.0153869
0.5807858 0.1392539 -0.0158221
0.5955713 0.1378787 -0.0162136
0.6104143 0.1365980 -0.0165618
0.6253170 0.1354148 -0.0168674
0.6402815 0.1343316 -0.0171312
0.6553091 0.1333498 -0.0173545
0.6704008 0.1324704 -0.0175388
0.6855570 0.1316936 -0.0176856
0.7007776 0.1310186 -0.0177966
0.7160618 0.1304441 -0.0178737
0.7314085 0.1299678 -0.0179189
0.7468159 0.1295867 -0.0179344
0.7622820 0.1292975 -0.0179225
0.7778043 0.1290962 -0.0178853
0.7933799 0.1289783 -0.0178254
