ref/imx226_4500K_jzazbz_203.cube
TITLE "4521691280"
LUT_3D_SIZE 9
0.0082772 -0.0160519 -0.0057076
0.1335555 -0.0098483 -0.0048610
0.2558651 -0.0087314 -0.0064355
0.3747136 -0.0151720 -0.0107590
0.4915520 -0.0271714 -0.0162637
0.6092280 -0.0392196 -0.0204984
0.7299607 -0.0471608 -0.0221131
0.8541151 -0.0501445 -0.0214008
0.9806257 -0.0494997 -0.0195118
0.0110658 0.1169488 -0.0044960
0.1366474 0.1236433 -0.0029179
0.2587304 0.1248513 -0.0043568
0.3765362 0.1170625 -0.0094075
0.4921982 0.1031045 -0.0156941
0.6093291 0.0905119 -0.0200217
0.7301525 0.0832689 -0.0212540
0.8548012 0.0815398 -0.0201016
0.9818564 0.0834078 -0.0179649
0.0097713 0.2396425 -0.0061664
0.1348095 0.2435396 -0.0045211
0.2562947 0.2426976 -0.0059277
0.3740224 0.2352041 -0.0106187
0.4905348 0.2242056 -0.0158867
0.6089520 0.2155312 -0.0187793
0.7310659 0.2119212 -0.0187821
0.8565885 0.2128047 -0.0171084
0.9840801 0.2163078 -0.0150488
0.0044897 0.3536105 -0.0110468
0.1282799 0.3523152 -0.0100567
0.2496460 0.3491934 -0.0108975
0.3692937 0.3452787 -0.0131927
0.4881732 0.3410475 -0.0160340
0.6090598 0.3391185 -0.0166788
0.7331482 0.3406079 -0.0151528
0.8596379 0.3445670 -0.0130537
0.9873065 0.3496210 -0.0113631
-0.0030324 0.4647737 -0.0177551
0.1199568 0.4595041 -0.0171493
0.2421369 0.4556801 -0.0168002
0.3637941 0.4550810 -0.0169242
0.4857539 0.4581218 -0.0168362
0.6098931 0.4636229 -0.0147920
0.7360000 0.4700125 -0.0118765
0.8633164 0.4767518 -0.0094525
0.9909536 0.4830864 -0.0081123
-0.0109767 0.5782878 -0.0248044
0.1112310 0.5705513 -0.0248395
0.2339657 0.5665740 -0.0240225
0.3577992 0.5690105 -0.0223661
0.4835639 0.5781837 -0.0190864
0.6108363 0.5894329 -0.0145786
0.7386768 0.5997385 -0.0104577
0.8665937 0.6086500 -0.0076513
0.9941030 0.6159696 -0.0063641
-0.0176936 0.6971096 -0.0309102
0.1034154 0.6875431 -0.0322331
0.2261596 0.6831814 -0.0319396
0.3520215 0.6878708 -0.0289824
0.4809347 0.7007532 -0.0232849
0.6109050 0.7160337 -0.0166759
0.7402354 0.7292479 -0.0113354
0.8685726 0.7396356 -0.0079790
0.9959808 0.7476610 -0.0064024
-0.0217391 0.8228349 -0.0346876
0.0989352 0.8130865 -0.0368288
0.2216983 0.8085986 -0.0371034
0.3484091 0.8135450 -0.0339208
0.4787563 0.8272722 -0.0273648
0.6101235 0.8439381 -0.0197990
0.7402890 0.8583882 -0.0137105
0.8688922 0.8695312 -0.0098166
0.9963113 0.8780408 -0.0077698
-0.0229557 0.9548024 -0.0356133
0.0982469 0.9466544 -0.0376140
0.2214365 0.9430856 -0.0378619
0.3481333 0.9473299 -0.0350082
0.4780939 0.9591128 -0.0291125
0.6091126 0.9740253 -0.0221474
0.7391887 0.9877312 -0.0162296
0.8678403 0.9988151 -0.0121285
0.9953310 1.0074941 -0.0096947
0.0057462 -0.0176062 0.1219327
0.1301362 -0.0132590 0.1221186
0.2515163 -0.0142469 0.1198336
0.3698318 -0.0218402 0.1150399
0.4866453 -0.0335520 0.1093044
0.6046253 -0.0445020 0.1049740
0.7260497 -0.0510702 0.1035371
0.8512866 -0.0524668 0.1047829
0.9789724 -0.0501981 0.1073093
0.0084904 0.1162462 0.1229235
0.1329360 0.1206463 0.1236021
0.2537016 0.1186860 0.1211340
0.3709203 0.1091671 0.1156429
0.4870064 0.0960876 0.1094935
0.6047091 0.0853679 0.1053215
0.7263225 0.0799661 0.1043724
0.8521659 0.0800310 0.1061633
0.9804545 0.0835216 0.1090549
0.0071536 0.2400108 0.1208338
0.1310919 0.2420387 0.1215630
0.2510896 0.2376115 0.1189067
0.3686003 0.2285065 0.1140805
0.4864516 0.2196951 0.1097987
0.6056486 0.2130353 0.1073807
0.7283978 0.2108988 0.1077671
0.8548837 0.2131557 0.1100099
0.9833852 0.2178495 0.1126773
0.0017165 0.3548278 0.1152294
0.1246786 0.3529099 0.1154343
0.2453618 0.3488252 0.1139553
0.3656094 0.3447154 0.1120963
0.4859592 0.3418013 0.1104774
0.6078503 0.3411477 0.1107196
0.7324926 0.3432653 0.1129200
0.8595163 0.3476862 0.1155486
0.9877831 0.3531757 0.1175367
-0.0060073 0.4662908 0.1077368
0.1165915 0.4616037 0.1077914
0.2388795 0.4592231 0.1081653
0.3611636 0.4590490 0.1084696
0.4846841 0.4626428 0.1098711
0.6103008 0.4691182 0.1134468
0.7371583 0.4758187 0.1174899
0.8649417 0.4826654 0.1205697
0.9928247 0.4888161 0.1219501
-0.0140839 0.5795431 0.1002081
0.1078299 0.5724745 0.0996195
0.2309101 0.5700411 0.1007112
0.3556628 0.5736940 0.1030813
0.4834501 0.5845436 0.1081377
0.6123336 0.5967784 0.1144116
0.7411933 0.6076200 0.1197900
0.8696324 0.6166132 0.1232111
0.9971081 0.6233382 0.1243514
-0.0207470 0.6980268 0.0941475
0.0996953 0.6880562 0.0919472
0.2224967 0.6842427 0.0923204
0.3496862 0.6906944 0.0964384
0.4809817 0.7062923 0.1041846
0.6130468 0.7237906 0.1128416
0.7435604 0.7380071 0.1193527
0.8722774 0.7483651 0.1230794
0.9994105 0.7555490 0.1243758
-0.0244789 0.8238651 0.0909638
0.0953767 0.8130087 0.0878659
0.2179334 0.8081040 0.0874097
0.3458561 0.8143553 0.0916896
0.4786198 0.8310917 0.1002494
0.6122911 0.8507662 0.1098024
0.7436189 0.8665417 0.1169280
0.8723787 0.8776082 0.1210022
0.9994145 0.8853429 0.1227307
-0.0252604 0.9562317 0.0909081
0.0953057 0.9470695 0.0882173
0.2182474 0.9427576 0.0877171
0.3458350 0.9477053 0.0913015
0.4777752 0.9618396 0.0987747
0.6107157 0.9792500 0.1073060
0.7417312 0.9941987 0.1140473
0.8704528 1.0053757 0.1182568
0.9976701 1.0136696 0.1204280
0.0010926 -0.0248306 0.2486739
0.1242746 -0.0236836 0.2480234
0.2446331 -0.0276042 0.2451862
0.3629029 -0.0358330 0.2406360
0.4808434 -0.0452806 0.2357528
0.6005006 -0.0525723 0.2321466
0.7235176 -0.0556900 0.2310311
0.8499874 -0.0544743 0.2323999
0.9785757 -0.0503342 0.2349933
0.0039279 0.1104029 0.2492426
0.1269311 0.1112419 0.2486653
0.2464541 0.1056015 0.2454052
0.3638732 0.0954039 0.2404193
0.4818065 0.0855888 0.2358601
0.6015151 0.0791645 0.2327533
0.7246076 0.0772318 0.2319517
0.8515699 0.0797684 0.2337617
0.9805565 0.0847270 0.2367175
0.0030496 0.2368109 0.2470144
0.1255784 0.2360004 0.2463673
0.2448621 0.2292868 0.2431302
0.3632133 0.2205832 0.2391742
0.4832735 0.2146879 0.2367716
0.6047872 0.2118329 0.2356314
0.7283057 0.2116905 0.2358826
0.8553331 0.2153293 0.2379313
0.9841158 0.2206246 0.2405496
-0.0015921 0.3550170 0.2415979
0.1207201 0.3527324 0.2410399
0.2411180 0.3482004 0.2390414
0.3622065 0.3446965 0.2376389
0.4847955 0.3433874 0.2377338
0.6088107 0.3447667 0.2389949
0.7341966 0.3480173 0.2414279
0.8611576 0.3524048 0.2440204
0.9892663 0.3575337 0.2459332
-0.0084865 0.4695831 0.2342773
0.1142360 0.4668556 0.2341560
0.2364463 0.4654873 0.2340775
0.3596673 0.4658380 0.2348512
0.4853437 0.4697545 0.2377342
0.6121790 0.4759971 0.2416064
0.7397545 0.4829511 0.2460300
0.8675548 0.4893069 0.2495331
0.9951446 0.4946526 0.2509715
-0.0156343 0.5853945 0.2269697
0.1067488 0.5810012 0.2264043
0.2305933 0.5812665 0.2279581
0.3564164 0.5860303 0.2312967
0.4849611 0.5949708 0.2367934
0.6143215 0.6053132 0.2428206
0.7440100 0.6158957 0.2487159
0.8728038 0.6244530 0.2526851
1.0000653 0.6302913 0.2538263
-0.0212316 0.7058533 0.2216127
0.0997427 0.6982999 0.2196390
0.2233106 0.6968414 0.2210072
0.3512945 0.7042375 0.2263699
0.4826709 0.7175059 0.2340804
0.6149953 0.7326731 0.2423801
0.7462269 0.7462737 0.2490352
0.8754443 0.7563502 0.2529296
1.0024028 0.7627110 0.2540164
-0.0243898 0.8323337 0.2193344
0.0958741 0.8232759 0.2165445
0.2187644 0.8195777 0.2169223
0.3468935 0.8254990 0.2221630
0.4801640 0.8409715 0.2310502
0.6142799 0.8591290 0.2404346
0.7460152 0.8740370 0.2473061
0.8750107 0.8847253 0.2511037
1.0018116 0.8917515 0.2524013
-0.0252395 0.9639643 0.2200033
0.0955071 0.9558324 0.2176258
0.2184783 0.9517907 0.2176697
0.3461463 0.9560356 0.2218540
0.4786593 0.9693475 0.2297279
0.6122258 0.9860537 0.2382978
0.7435150 1.0003890 0.2447441
0.8722034 1.0111255 0.2484868
0.9991937 1.0189341 0.2501083
-0.0047849 -0.0363508 0.3753920
0.1174902 -0.0384823 0.3744152
0.2373314 -0.0448054 0.3716944
0.3560673 -0.0529396 0.3679957
0.4758564 -0.0589785 0.3644372
0.5982383 -0.0608865 0.3619405
0.7233314 -0.0594015 0.3610249
0.8508919 -0.0550866 0.3618356
0.9799222 -0.0491450 0.3636672
-0.0016420 0.1006921 0.3755727
0.1206115 0.0987080 0.3743729
0.2397731 0.0910566 0.3711513
0.3578872 0.0813323 0.3673100
0.4779918 0.0754650 0.3644313
0.6010893 0.0750738 0.3627744
0.7261145 0.0770687 0.3620495
0.8536103 0.0816988 0.3629919
0.9826197 0.0876936 0.3650593
-0.0014996 0.2310334 0.3736429
0.1205535 0.2285091 0.3722751
0.2400223 0.2211824 0.3691662
0.3597601 0.2141015 0.3665885
0.4814701 0.2106553 0.3652509
0.6056381 0.2116800 0.3649899
0.7310470 0.2147915 0.3652672
0.8582041 0.2195678 0.3664337
0.9865625 0.2249173 0.3682378
-0.0046249 0.3545022 0.3692115
0.1175454 0.3520400 0.3681129
0.2387449 0.3482025 0.3663310
0.3611289 0.3457258 0.3657176
0.4847676 0.3452422 0.3659667
0.6102590 0.3479909 0.3672559
0.7368878 0.3525589 0.3692327
0.8640141 0.3574288 0.3712497
0.9916463 0.3621982 0.3728506
-0.0097534 0.4746535 0.3630467
0.1134275 0.4734843 0.3629299
0.2365796 0.4731732 0.3630017
0.3611105 0.4742230 0.3642372
0.4867374 0.4771327 0.3661878
0.6138637 0.4822351 0.3691053
0.7417928 0.4883228 0.3724930
0.8698295 0.4943589 0.3756862
0.9971514 0.4991232 0.3773693
-0.0147248 0.5961631 0.3569911
0.1086693 0.5945835 0.3570151
0.2336414 0.5968048 0.3591925
0.3595220 0.6002769 0.3621775
0.4865568 0.6051047 0.3658275
0.6154868 0.6128843 0.3703064
0.7453053 0.6218718 0.3751049
0.8743909 0.6295969 0.3789770
1.0016412 0.6347442 0.3803514
-0.0184792 0.7207204 0.3528657
0.1040850 0.7171624 0.3521409
0.2285950 0.7176754 0.3545317
0.3556264 0.7226550 0.3592472
0.4845527 0.7301927 0.3647942
0.6152477 0.7404035 0.3707440
0.7466006 0.7519389 0.3764567
0.8762721 0.7612046 0.3801147
1.0034018 0.7669797 0.3811237
-0.0211767 0.8479484 0.3513757
0.1007125 0.8429934 0.3501477
0.2241381 0.8409062 0.3516947
0.3508394 0.8441500 0.3565900
0.4817958 0.8541891 0.3635920
0.6142774 0.8669674 0.3706911
0.7456959 0.8790552 0.3763129
0.8749819 0.8888134 0.3794098
1.0020845 0.8954814 0.3802723
-0.0228515 0.9774764 0.3522085
0.0989269 0.9722503 0.3512145
0.2221281 0.9693027 0.3523703
0.3486536 0.9713128 0.3565375
0.4794538 0.9801586 0.3631559
0.6120283 0.9930696 0.3699855
0.7428291 1.0048833 0.3750493
0.8715694 1.0145707 0.3778167
0.9988164 1.0220570 0.3787130
-0.0112388 -0.0507354 0.5026078
0.1105512 -0.0560258 0.5021365
0.2307725 -0.0636423 0.5004389
0.3508735 -0.0702794 0.4980587
0.4732021 -0.0715109 0.4956175
0.5983006 -0.0676133 0.4935560
0.7252916 -0.0614345 0.4923223
0.8537503 -0.0540092 0.4921169
0.9828725 -0.0465326 0.4927115
-0.0079543 0.0877342 0.5024042
0.1142242 0.0835178 0.5016016
0.2342673 0.0759160 0.4994067
0.3539326 0.0683512 0.4970507
0.4765852 0.0673192 0.4952440
0.6021481 0.0717911 0.4937968
0.7290906 0.0778538 0.4927572
0.8574637 0.0851636 0.4926500
0.9863192 0.0921024 0.4934008
-0.0065189 0.2227570 0.5008199
0.1161462 0.2197957 0.4998360
0.2369741 0.2138749 0.4977026
0.3582983 0.2090594 0.4960428
0.4813654 0.2079110 0.4949796
0.6069889 0.2115098 0.4944672
0.7341300 0.2175547 0.4942692
0.8621624 0.2242618 0.4944503
0.9902847 0.2300857 0.4951993
-0.0075264 0.3532915 0.4977490
0.1155372 0.3511987 0.4969878
0.2381591 0.3485301 0.4957926
0.3613890 0.3470578 0.4950084
0.4859115 0.3479083 0.4948180
0.6119133 0.3510943 0.4952869
0.7391357 0.3559691 0.4961903
0.8667347 0.3613371 0.4970922
0.9942762 0.3663119 0.4980223
-0.0098679 0.4816423 0.4937103
0.1140153 0.4809267 0.4936305
0.2383043 0.4810288 0.4937131
0.3628938 0.4817177 0.4939843
0.4885290 0.4838951 0.4948196
0.6153776 0.4876728 0.4962986
0.7430446 0.4924035 0.4980905
0.8706582 0.4968373 0.4997352
0.9981029 0.5014674 0.5010524
-0.0120325 0.6103841 0.4897759
0.1122793 0.6103382 0.4901658
0.2372435 0.6112773 0.4914814
0.3622818 0.6121311 0.4931020
0.4884111 0.6146240 0.4950552
0.6160401 0.6192891 0.4973762
0.7448751 0.6252876 0.4998793
0.8738226 0.6315333 0.5022891
1.0012342 0.6362179 0.5036549
-0.0141919 0.7387719 0.4870669
0.1099319 0.7385843 0.4874459
0.2343790 0.7384338 0.4895162
0.3599108 0.7395695 0.4923755
0.4864193 0.7421258 0.4954713
0.6147777 0.7474182 0.4985912
0.7451342 0.7557043 0.5017577
0.8743313 0.7627318 0.5043131
1.0018410 0.7679483 0.5052774
-0.0168817 0.8659853 0.4860921
0.1064748 0.8645905 0.4865341
0.2299596 0.8629126 0.4886569
0.3549505 0.8627750 0.4921953
0.4826995 0.8667772 0.4962104
0.6127643 0.8744365 0.4999665
0.7427566 0.8822816 0.5033796
0.8719085 0.8898815 0.5054498
0.9997573 0.8962129 0.5059139
-0.0196647 0.9929742 0.4866362
0.1030224 0.9904137 0.4873044
0.2262066 0.9882264 0.4894019
0.3511737 0.9879508 0.4929470
0.4790633 0.9915750 0.4972482
0.6097242 0.9999630 0.5012337
0.7394196 1.0080731 0.5042459
0.8681764 1.0157572 0.5057137
0.9962046 1.0228671 0.5058377
-0.0173608 -0.0651772 0.6303058
0.1041760 -0.0733650 0.6308525
0.2255136 -0.0812398 0.6307464
0.3479933 -0.0848104 0.6297759
0.4731814 -0.0806712 0.6277594
0.6005429 -0.0715557 0.6251872
0.7289978 -0.0612275 0.6229902
0.8579693 -0.0513654 0.6216275
0.9868937 -0.0428676 0.6211252
-0.0143365 0.0738100 0.6297722
0.1076533 0.0667578 0.6300158
0.2293915 0.0600607 0.6296030
0.3520357 0.0573513 0.6283952
0.4773128 0.0613805 0.6265917
0.6044796 0.0695260 0.6243321
0.7331097 0.0797199 0.6222928
0.8622857 0.0895256 0.6210679
0.9909092 0.0971591 0.6207410
-0.0117780 0.2131871 0.6283839
0.1111006 0.2085808 0.6282775
0.2339889 0.2048723 0.6275362
0.3577652 0.2043313 0.6261794
0.4825283 0.2062475 0.6248052
0.6091991 0.2119051 0.6234750
0.7374304 0.2202177 0.6221978
0.8664622 0.2289875 0.6212296
0.9945804 0.2354399 0.6210158
-0.0101362 0.3517275 0.6266347
0.1137046 0.3497930 0.6263994
0.2378663 0.3486600 0.6255593
0.3622393 0.3483560 0.6244573
0.4874213 0.3498832 0.6234916
0.6136595 0.3534508 0.6228054
0.7412967 0.3589675 0.6225428
0.8692759 0.3648759 0.6222400
0.9970533 0.3703741 0.6221583
-0.0092663 0.4888921 0.6249637
0.1152881 0.4887789 0.6249845
0.2398772 0.4881409 0.6242980
0.3646607 0.4878360 0.6235064
0.4901386 0.4889267 0.6230140
0.6165850 0.4917449 0.6229082
0.7437762 0.4953133 0.6231278
0.8711032 0.4990417 0.6234921
0.9987262 0.5036504 0.6236837
-0.0094132 0.6234558 0.6233567
0.1148982 0.6233015 0.6239586
0.2397847 0.6230654 0.6237479
0.3645731 0.6223453 0.6236196
0.4898285 0.6223219 0.6236773
0.6162704 0.6241799 0.6239458
0.7442529 0.6284617 0.6242978
0.8722737 0.6326392 0.6248021
0.9997975 0.6366996 0.6254433
-0.0109612 0.7540732 0.6220417
0.1131287 0.7542857 0.6231154
0.2370386 0.7526557 0.6240981
0.3617417 0.7515327 0.6248877
0.4868828 0.7509947 0.6256193
0.6137623 0.7530388 0.6260922
0.7422720 0.7577353 0.6262343
0.8707506 0.7624751 0.6269780
0.9987715 0.7672304 0.6275946
-0.0139149 0.8809805 0.6214699
0.1095779 0.8806597 0.6230953
0.2327131 0.8786495 0.6251064
0.3563955 0.8761552 0.6271115
0.4819517 0.8762582 0.6284584
0.6098527 0.8796889 0.6289156
0.7381946 0.8837681 0.6293468
0.8671574 0.8892622 0.6297857
0.9958634 0.8952243 0.6298116
-0.0174061 1.0063784 0.6216332
0.1052659 1.0047653 0.6236427
0.2278290 1.0023466 0.6262198
0.3512933 1.0004126 0.6289097
0.4770678 1.0011990 0.6308796
0.6054648 1.0052982 0.6317836
0.7341311 1.0098604 0.6322615
0.8631601 1.0155967 0.6321348
0.9922206 1.0223105 0.6315606
-0.0217631 -0.0755736 0.7581836
0.0998547 -0.0852441 0.7596336
0.2223832 -0.0926056 0.7608545
0.3473013 -0.0931242 0.7609985
0.4751002 -0.0849806 0.7590519
0.6043313 -0.0721569 0.7555238
0.7337565 -0.0590133 0.7519979
0.8628181 -0.0476971 0.7495387
0.9913082 -0.0387085 0.7483614
-0.0190160 0.0636075 0.7575967
0.1028020 0.0546250 0.7587638
0.2256867 0.0483014 0.7598030
0.3510811 0.0491191 0.7596460
0.4793271 0.0581202 0.7572538
0.6084375 0.0699863 0.7536075
0.7382057 0.0830962 0.7498636
0.8674661 0.0941729 0.7473928
0.9955837 0.1020376 0.7465110
-0.0155889 0.2061546 0.7564874
0.1072066 0.2001322 0.7571207
0.2312856 0.1969331 0.7574449
0.3572977 0.1992146 0.7564797
0.4844332 0.2053939 0.7541211
0.6123668 0.2134021 0.7514688
0.7416211 0.2236686 0.7482362
0.8708252 0.2334103 0.7458398
0.9987026 0.2402162 0.7451825
-0.0118215 0.3507383 0.7556734
0.1123643 0.3487673 0.7559024
0.2375392 0.3482942 0.7552816
0.3632167 0.3492169 0.7536264
0.4891535 0.3516388 0.7515240
0.6160194 0.3561066 0.7494095
0.7437859 0.3619509 0.7475534
0.8718634 0.3682761 0.7458054
0.9997800 0.3742950 0.7450630
-0.0087679 0.4941138 0.7555257
0.1162546 0.4949665 0.7558016
0.2414727 0.4948084 0.7546149
0.3662752 0.4931415 0.7525885
0.4915763 0.4930708 0.7505045
0.6178302 0.4949755 0.7485996
0.7447119 0.4981051 0.7474374
0.8718088 0.5015866 0.7465972
0.9995339 0.5062579 0.7458733
-0.0079009 0.6322835 0.7556587
0.1165990 0.6331742 0.7565780
0.2409482 0.6317406 0.7557272
0.3654901 0.6293659 0.7536462
0.4904314 0.6279396 0.7515990
0.6161489 0.6280264 0.7500242
0.7432297 0.6305303 0.7485607
0.8707237 0.6335018 0.7473503
0.9984385 0.6373999 0.7471624
-0.0095538 0.7639279 0.7556724
0.1137942 0.7636866 0.7574720
0.2362987 0.7599486 0.7579733
0.3602604 0.7570251 0.7567837
0.4852119 0.7553385 0.7551583
0.6115742 0.7561861 0.7531358
0.7388606 0.7582427 0.7509546
0.8671914 0.7617638 0.7496612
0.9957803 0.7665930 0.7496628
-0.0128271 0.8909139 0.7556226
0.1097996 0.8900426 0.7581712
0.2316892 0.8866939 0.7600285
0.3541738 0.8827734 0.7605715
0.4788090 0.8809427 0.7596359
0.6055048 0.8818245 0.7573240
0.7333138 0.8839836 0.7550764
0.8625711 0.8884148 0.7536019
0.9920660 0.8942844 0.7531274
-0.0164842 1.0161214 0.7555916
0.1055175 1.0143291 0.7585239
0.2269767 1.0110894 0.7613392
0.3490452 1.0080191 0.7632281
0.4732755 1.0070183 0.7633200
0.6000800 1.0080060 0.7615637
0.7286336 1.0106086 0.7594485
0.8582999 1.0152760 0.7576662
0.9883560 1.0218672 0.7565239
-0.0237029 -0.0796847 0.8858006
0.0986203 -0.0885788 0.8876445
0.2222999 -0.0944931 0.8893862
0.3487268 -0.0933557 0.8900038
0.4779337 -0.0841137 0.8882024
0.6083811 -0.0700180 0.8840717
0.7384312 -0.0556733 0.8794916
0.8673961 -0.0437627 0.8762408
0.9953816 -0.0346840 0.8747377
-0.0209774 0.0598004 0.8854310
0.1014136 0.0513479 0.8870372
0.2253133 0.0460720 0.8886083
0.3521730 0.0480261 0.8889786
0.4818741 0.0578726 0.8866035
0.6130114 0.0727038 0.8813424
0.7435312 0.0873579 0.8756976
0.8722648 0.0984237 0.8722839
0.9996539 0.1061140 0.8713001
-0.0171370 0.2036563 0.8846980
0.1060981 0.1979465 0.8857240
0.2308047 0.1950304 0.8864054
0.3578603 0.1975721 0.8857343
0.4866610 0.2052773 0.8827974
0.6166481 0.2165915 0.8776389
0.7465417 0.2282503 0.8722510
0.8750304 0.2375291 0.8688718
1.0021776 0.2439638 0.8682834
-0.0126252 0.3503514 0.8843869
0.1119388 0.3486783 0.8848675
0.2374779 0.3482947 0.8842557
0.3641543 0.3501250 0.8821132
0.4913914 0.3537447 0.8786351
0.6188674 0.3589040 0.8747509
0.7467613 0.3652898 0.8711613
0.8747317 0.3718010 0.8677991
1.0022032 0.3775515 0.8669850
-0.0089894 0.4958115 0.8848837
0.1163459 0.4972109 0.8853136
0.2418595 0.4976273 0.8839284
0.3674391 0.4971399 0.8807860
0.4929382 0.4964867 0.8769923
0.6191979 0.4977824 0.8735778
0.7460846 0.5008999 0.8707500
0.8729394 0.5039778 0.8684209
1.0004545 0.5085793 0.8675960
-0.0079260 0.6355993 0.8858628
0.1168316 0.6374791 0.8869466
0.2411609 0.6367738 0.8859958
0.3655572 0.6342907 0.8828571
0.4899931 0.6311094 0.8788747
0.6157844 0.6303689 0.8753840
0.7424621 0.6317542 0.8721013
0.8696853 0.6342131 0.8698705
0.9976694 0.6385145 0.8694181
-0.0096441 0.7684239 0.8867678
0.1136592 0.7688794 0.8888803
0.2360282 0.7660612 0.8893856
0.3589685 0.7621614 0.8876431
0.4832595 0.7589996 0.8841233
0.6093414 0.7583149 0.8796368
0.7362560 0.7586415 0.8755334
0.8647552 0.7618742 0.8730433
0.9938542 0.7670874 0.8726358
-0.0128998 0.8964463 0.8872984
0.1092364 0.8955117 0.8902330
0.2304021 0.8919733 0.8921967
0.3520757 0.8877656 0.8922587
0.4758359 0.8850271 0.8899013
0.6019176 0.8842606 0.8854099
0.7299322 0.8851583 0.8808489
0.8595002 0.8888133 0.8779612
0.9895777 0.8947799 0.8770581
-0.0163708 1.0224802 0.8873837
0.1051900 1.0206742 0.8906467
0.2258992 1.0170709 0.8934729
0.3470694 1.0133939 0.8948281
0.4702489 1.0111460 0.8937818
0.5963021 1.0105466 0.8903330
0.7249922 1.0120729 0.8861918
0.8551366 1.0162128 0.8831501
0.9858718 1.0229147 0.8815969
-0.0237150 -0.0785422 1.0128148
0.0997513 -0.0851363 1.0145021
0.2245500 -0.0889134 1.0159897
0.3516879 -0.0869964 1.0164296
0.4812023 -0.0784590 1.0147238
0.6118571 -0.0654281 1.0107689
0.7420219 -0.0516998 1.0061127
0.8708425 -0.0400961 1.0026659
0.9984562 -0.0312966 1.0010754
-0.0209546 0.0610879 1.0126909
0.1026229 0.0549423 1.0141657
0.2275821 0.0515429 1.0154306
0.3550821 0.0539213 1.0155235
0.4851979 0.0630228 1.0130772
0.6166543 0.0768813 1.0076758
0.7472307 0.0909207 1.0014956
0.8756333 0.1016270 0.9976207
1.0025477 0.1091033 0.9966685
-0.0172583 0.2045848 1.0122838
0.1069072 0.2004900 1.0132257
0.2322854 0.1985779 1.0136363
0.3597751 0.2011071 1.0127150
0.4893935 0.2087265 1.0094540
0.6202623 0.2202665 1.0033453
0.7504273 0.2320847 0.9965026
0.8781978 0.2406471 0.9926995
1.0046588 0.2466320 0.9924244
-0.0131778 0.3503798 1.0121841
0.1118935 0.3493654 1.0125709
0.2377503 0.3493604 1.0117726
0.3648028 0.3514164 1.0093638
0.4929716 0.3558432 1.0052970
0.6215397 0.3619708 0.9998649
0.7498808 0.3687901 0.9942430
0.8773491 0.3749126 0.9904270
1.0041108 0.3801651 0.9902125
-0.0100602 0.4950037 1.0127951
0.1154486 0.4964426 1.0130651
0.2411607 0.4973722 1.0115641
0.3671902 0.4979817 1.0081296
0.4936010 0.4987775 1.0035271
0.6203858 0.5004134 0.9985923
0.7472455 0.5028762 0.9941614
0.8741586 0.5061526 0.9910556
1.0015011 0.5109691 0.9907174
-0.0092069 0.6349197 1.0140055
0.1156626 0.6368715 1.0148202
0.2401742 0.6370410 1.0137739
0.3647081 0.6356852 1.0105467
0.4897432 0.6338552 1.0058888
0.6156459 0.6328539 1.0008151
0.7421741 0.6332852 0.9964005
0.8695572 0.6358213 0.9936414
0.9977652 0.6406062 0.9932585
-0.0106997 0.7689956 1.0153485
0.1128130 0.7698486 1.0170877
0.2355435 0.7682956 1.0173601
0.3584252 0.7652728 1.0154718
0.4825356 0.7624398 1.0113968
0.6082845 0.7607539 1.0059202
0.7354531 0.7608106 1.0009046
0.8640432 0.7638739 0.9978914
0.9933553 0.7692408 0.9972699
-0.0135213 0.8986651 1.0163572
0.1088027 0.8981658 1.0188826
0.2301636 0.8953569 1.0204410
0.3517814 0.8916078 1.0200898
0.4750670 0.8885789 1.0172013
0.6008461 0.8871232 1.0121361
0.7290066 0.8877983 1.0068531
0.8586118 0.8912743 1.0034438
0.9888956 0.8973306 1.0022877
-0.0165822 1.0260590 1.0167512
0.1051863 1.0247363 1.0196444
0.2260513 1.0215423 1.0219066
0.3471951 1.0178519 1.0226095
0.4701218 1.0150607 1.0209222
0.5958699 1.0139553 1.0169896
0.7243368 1.0152176 1.0124164
0.8544665 1.0193366 1.0090325
0.9853607 1.0261408 1.0073498
