ref/imx226_3500K_jzazbz_203.cube
TITLE "4528947088"
LUT_3D_SIZE 65
0.0115205 -0.0103413 -0.0007315
0.0273794 -0.0093799 -0.0003952
0.0432085 -0.0084574 -0.0000758
0.0590048 -0.0075809 0.0002237
0.0747653 -0.0067579 0.0005005
0.0904869 -0.0059963 0.0007516
0.1061665 -0.0053044 0.0009737
0.1218012 -0.0046906 0.0011638
0.1373879 -0.0041634 0.0013187
0.1529238 -0.0037313 0.0014356
0.1684063 -0.0034026 0.0015115
0.1838329 -0.0031851 0.0015440
0.1992017 -0.0030862 0.0015307
0.2145107 -0.0031126 0.0014698
0.2297587 -0.0032701 0.0013597
0.2449447 -0.0035636 0.0011995
0.2600683 -0.0039968 0.0009886
0.2751294 -0.0045721 0.0007271
0.2901289 -0.0052902 0.0004155
0.3050679 -0.0061505 0.0000551
0.3199486 -0.0071504 -0.0003523
0.3347734 -0.0082856 -0.0008041
0.3495458 -0.0095500 -0.0012975
0.3642696 -0.0109359 -0.0018289
0.3789493 -0.0124339 -0.0023944
0.3935900 -0.0140331 -0.0029895
0.4081972 -0.0157217 -0.0036095
0.4227766 -0.0174867 -0.0042497
0.4373344 -0.0193144 -0.0049051
0.4518769 -0.0211905 -0.0055706
0.4664105 -0.0231008 -0.0062413
0.4809418 -0.0250310 -0.0069125
0.4954771 -0.0269668 -0.0075797
0.5100226 -0.0288947 -0.0082386
0.5245844 -0.0308017 -0.0088852
0.5391684 -0.0326754 -0.0095161
0.5537801 -0.0345043 -0.0101280
0.5684246 -0.0362778 -0.0107182
0.5831068 -0.0379862 -0.0112841
0.5978311 -0.0396210 -0.0118238
0.6126014 -0.0411747 -0.0123356
0.6274209 -0.0426408 -0.0128183
0.6422927 -0.0440142 -0.0132709
0.6572189 -0.0452905 -0.0136930
0.6722014 -0.0464669 -0.0140841
0.6872413 -0.0475412 -0.0144445
0.7023392 -0.0485126 -0.0147744
0.7174953 -0.0493809 -0.0150743
0.7327092 -0.0501473 -0.0153452
0.7479799 -0.0508133 -0.0155882
0.7633063 -0.0513814 -0.0158044
0.7786866 -0.0518547 -0.0159953
0.7941189 -0.0522367 -0.0161625
0.8096010 -0.0525314 -0.0163075
0.8251302 -0.0527431 -0.0164323
0.8407042 -0.0528763 -0.0165385
0.8563202 -0.0529354 -0.0166280
0.8719755 -0.0529252 -0.0167027
0.8876672 -0.0528501 -0.0167643
0.9033927 -0.0527147 -0.0168146
0.9191494 -0.0525234 -0.0168554
0.9349345 -0.0522802 -0.0168882
0.9507458 -0.0519892 -0.0169146
0.9665808 -0.0516539 -0.0169360
0.9824375 -0.0512778 -0.0169539
0.0120089 0.0070119 -0.0006878
0.0278789 0.0080001 -0.0003343
0.0437187 0.0089496 0.0000022
0.0595252 0.0098529 0.0003187
0.0752953 0.0107021 0.0006122
0.0910257 0.0114890 0.0008795
0.1067132 0.0122051 0.0011171
0.1223545 0.0128414 0.0013218
0.1379468 0.0133891 0.0014903
0.1534868 0.0138394 0.0016195
0.1689719 0.0141835 0.0017063
0.1843996 0.0144132 0.0017482
0.1997676 0.0145207 0.0017426
0.2150741 0.0144990 0.0016875
0.2303176 0.0143418 0.0015814
0.2454969 0.0140438 0.0014232
0.2606116 0.0136009 0.0012122
0.2756617 0.0130105 0.0009484
0.2906479 0.0122716 0.0006326
0.3055715 0.0113849 0.0002660
0.3204345 0.0103531 -0.0001495
0.3352399 0.0091805 -0.0006113
0.3499909 0.0078737 -0.0011161
0.3646919 0.0064409 -0.0016603
0.3793474 0.0048920 -0.0022396
0.3939628 0.0032386 -0.0028494
0.4085439 0.0014933 -0.0034847
0.4230968 -0.0003300 -0.0041403
0.4376279 -0.0022169 -0.0048110
0.4521439 -0.0041522 -0.0054916
0.4666513 -0.0061210 -0.0061768
0.4811570 -0.0081083 -0.0068616
0.4956675 -0.0100993 -0.0075415
0.5101892 -0.0120799 -0.0082119
0.5247284 -0.0140368 -0.0088690
0.5392909 -0.0159574 -0.0095090
0.5538824 -0.0178298 -0.0101288
0.5685082 -0.0196433 -0.0107256
0.5831732 -0.0213882 -0.0112970
0.5978817 -0.0230558 -0.0118409
0.6126378 -0.0246385 -0.0123559
0.6274449 -0.0261299 -0.0128407
0.6423059 -0.0275248 -0.0132944
0.6572230 -0.0288189 -0.0137166
0.6721981 -0.0300094 -0.0141072
0.6872323 -0.0310944 -0.0144661
0.7023262 -0.0320730 -0.0147938
0.7174798 -0.0329453 -0.0150910
0.7326928 -0.0337126 -0.0153587
0.7479641 -0.0343766 -0.0155978
0.7632923 -0.0349401 -0.0158098
0.7786758 -0.0354064 -0.0159962
0.7941124 -0.0357793 -0.0161586
0.8095997 -0.0360629 -0.0162986
0.8251352 -0.0362619 -0.0164182
0.8407162 -0.0363810 -0.0165192
0.8563397 -0.0364250 -0.0166035
0.8720030 -0.0363987 -0.0166731
0.8877031 -0.0363070 -0.0167297
0.9034373 -0.0361547 -0.0167751
0.9192026 -0.0359462 -0.0168113
0.9349964 -0.0356860 -0.0168398
0.9508163 -0.0353781 -0.0168622
0.9666597 -0.0350265 -0.0168801
0.9825244 -0.0346345 -0.0168947
0.0124460 0.0242351 -0.0006726
0.0283257 0.0252460 -0.0003029
0.0441749 0.0262182 0.0000498
0.0599904 0.0271440 0.0003825
0.0757687 0.0280153 0.0006917
0.0915066 0.0288236 0.0009742
0.1072008 0.0295599 0.0012264
0.1228478 0.0302150 0.0014448
0.1384445 0.0307798 0.0016261
0.1539877 0.0312450 0.0017667
0.1694747 0.0316016 0.0018638
0.1849027 0.0318411 0.0019143
0.2002695 0.0319552 0.0019159
0.2155729 0.0319364 0.0018662
0.2308114 0.0317780 0.0017637
0.2459838 0.0314743 0.0016071
0.2610895 0.0310209 0.0013958
0.2761284 0.0304150 0.0011298
0.2911014 0.0296551 0.0008098
0.3060097 0.0287422 0.0004371
0.3208555 0.0276787 0.0000137
0.3356418 0.0264695 -0.0004575
0.3503722 0.0251213 -0.0009733
0.3650511 0.0236428 -0.0015297
0.3796834 0.0220447 -0.0021221
0.3942748 0.0203392 -0.0027456
0.4088312 0.0185397 -0.0033950
0.4233593 0.0166611 -0.0040647
0.4378656 0.0147186 -0.0047494
0.4523571 0.0127281 -0.0054433
0.4668407 0.0107054 -0.0061411
0.4813233 0.0086662 -0.0068376
0.4958118 0.0066256 -0.0075280
0.5103125 0.0045982 -0.0082078
0.5248320 0.0025978 -0.0088728
0.5393761 0.0006371 -0.0095195
0.5539506 -0.0012721 -0.0101446
0.5685608 -0.0031187 -0.0107455
0.5832116 -0.0048932 -0.0113197
0.5979075 -0.0065868 -0.0118654
0.6126524 -0.0081918 -0.0123811
0.6274498 -0.0097020 -0.0128655
0.6423027 -0.0111121 -0.0133181
0.6572133 -0.0124180 -0.0137383
0.6721834 -0.0136169 -0.0141261
0.6872142 -0.0147071 -0.0144818
0.7023062 -0.0156877 -0.0148056
0.7174594 -0.0165592 -0.0150986
0.7326732 -0.0173229 -0.0153615
0.7479467 -0.0179808 -0.0155956
0.7632784 -0.0185358 -0.0158023
0.7786664 -0.0189915 -0.0159831
0.7941085 -0.0193519 -0.0161398
0.8096023 -0.0196214 -0.0162742
0.8251450 -0.0198049 -0.0163880
0.8407337 -0.0199074 -0.0164833
0.8563656 -0.0199339 -0.0165620
0.8720375 -0.0198895 -0.0166261
0.8877466 -0.0197792 -0.0166775
0.9034899 -0.0196081 -0.0167180
0.9192643 -0.0193808 -0.0167496
0.9350673 -0.0191020 -0.0167738
0.9508960 -0.0187759 -0.0167923
0.9667480 -0.0184065 -0.0168066
0.9826211 -0.0179974 -0.0168182
0.0128274 0.0413184 -0.0006900
0.0287154 0.0423471 -0.0003052
0.0445724 0.0433371 0.0000625
0.0603953 0.0442806 0.0004100
0.0761805 0.0451693 0.0007338
0.0919245 0.0459942 0.0010304
0.1076240 0.0467462 0.0012960
0.1232753 0.0474159 0.0015270
0.1388754 0.0479938 0.0017199
0.1544208 0.0484703 0.0018711
0.1699087 0.0488363 0.0019774
0.1853363 0.0490827 0.0020359
0.2007011 0.0492009 0.0020439
0.2160009 0.0491830 0.0019991
0.2312340 0.0490218 0.0018997
0.2463991 0.0487112 0.0017445
0.2614956 0.0482465 0.0015327
0.2765234 0.0476244 0.0012644
0.2914832 0.0468435 0.0009402
0.3063765 0.0459045 0.0005616
0.3212055 0.0448101 0.0001308
0.3359733 0.0435652 -0.0003495
0.3506838 0.0421769 -0.0008756
0.3653416 0.0406546 -0.0014432
0.3799519 0.0390095 -0.0020477
0.3945206 0.0372545 -0.0026838
0.4090542 0.0354042 -0.0033459
0.4235593 0.0334740 -0.0040282
0.4380431 0.0314802 -0.0047250
0.4525126 0.0294395 -0.0054303
0.4669750 0.0273683 -0.0061386
0.4814375 0.0252831 -0.0068444
0.4959070 0.0231994 -0.0075429
0.5103900 0.0211322 -0.0082294
0.5248931 0.0190954 -0.0088997
0.5394223 0.0171020 -0.0095502
0.5539833 0.0151639 -0.0101779
0.5685814 0.0132918 -0.0107799
0.5832214 0.0114955 -0.0113541
0.5979079 0.0097835 -0.0118987
0.6126449 0.0081635 -0.0124123
0.6274358 0.0066417 -0.0128939
0.6422835 0.0052232 -0.0133428
0.6571904 0.0039121 -0.0137586
0.6721582 0.0027109 -0.0141416
0.6871880 0.0016215 -0.0144918
0.7022804 0.0006442 -0.0148100
0.7174352 -0.0002213 -0.0150969
0.7326519 -0.0009765 -0.0153535
0.7479294 -0.0016239 -0.0155812
0.7632661 -0.0021664 -0.0157814
0.7786600 -0.0026078 -0.0159557
0.7941089 -0.0029524 -0.0161059
0.8096101 -0.0032048 -0.0162337
0.8251609 -0.0033700 -0.0163412
0.8407583 -0.0034533 -0.0164304
0.8563992 -0.0034600 -0.0165031
0.8720805 -0.0033954 -0.0165615
0.8877991 -0.0032647 -0.0166075
0.9035519 -0.0030731 -0.0166430
0.9193359 -0.0028254 -0.0166698
0.9351482 -0.0025265 -0.0166898
0.9509861 -0.0021808 -0.0167045
0.9668470 -0.0017925 -0.0167155
0.9827284 -0.0013653 -0.0167243
0.0131491 0.0582520 -0.0007440
0.0290436 0.0592930 -0.0003457
0.0449068 0.0602955 0.0000356
0.0607354 0.0612514 0.0003966
0.0765257 0.0621520 0.0007335
0.0922743 0.0629884 0.0010427
0.1079776 0.0637511 0.0013203
0.1236319 0.0644306 0.0015626
0.1392340 0.0650172 0.0017658
0.1547805 0.0655011 0.0019264
0.1702683 0.0658727 0.0020411
0.1856946 0.0661229 0.0021066
0.2010567 0.0662425 0.0021202
0.2163523 0.0662231 0.0020796
0.2315795 0.0660572 0.0019828
0.2467370 0.0657383 0.0018285
0.2618241 0.0652611 0.0016160
0.2768406 0.0646224 0.0013453
0.2917874 0.0638203 0.0010170
0.3066659 0.0628556 0.0006328
0.3214786 0.0617310 0.0001949
0.3362287 0.0604517 -0.0002937
0.3509202 0.0590253 -0.0008292
0.3655581 0.0574614 -0.0014072
0.3801478 0.0557722 -0.0020224
0.3946957 0.0539713 -0.0026696
0.4092084 0.0520741 -0.0033427
0.4236929 0.0500970 -0.0040357
0.4381567 0.0480571 -0.0047424
0.4526070 0.0459720 -0.0054569
0.4670514 0.0438589 -0.0061731
0.4814970 0.0417346 -0.0068857
0.4959509 0.0396152 -0.0075894
0.5104198 0.0375159 -0.0082797
0.5249102 0.0354509 -0.0089523
0.5394282 0.0334331 -0.0096036
0.5539794 0.0314744 -0.0102306
0.5685691 0.0295854 -0.0108306
0.5832022 0.0277757 -0.0114017
0.5978829 0.0260537 -0.0119422
0.6126155 0.0244267 -0.0124507
0.6274032 0.0229009 -0.0129265
0.6422489 0.0214814 -0.0133690
0.6571551 0.0201720 -0.0137781
0.6721234 0.0189753 -0.0141537
0.6871549 0.0178928 -0.0144964
0.7022500 0.0169247 -0.0148069
0.7174087 0.0160705 -0.0150860
0.7326303 0.0153286 -0.0153348
0.7479135 0.0146964 -0.0155546
0.7632569 0.0141706 -0.0157470
0.7786582 0.0137472 -0.0159137
0.7941151 0.0134219 -0.0160564
0.8096249 0.0131897 -0.0161770
0.8251848 0.0130455 -0.0162775
0.8407917 0.0129838 -0.0163600
0.8564423 0.0129991 -0.0164264
0.8721334 0.0130859 -0.0164788
0.8878620 0.0132389 -0.0165193
0.9036247 0.0134526 -0.0165496
0.9194185 0.0137220 -0.0165718
0.9352404 0.0140423 -0.0165876
0.9510876 0.0144087 -0.0165987
0.9669574 0.0148170 -0.0166066
0.9828474 0.0152634 -0.0166127
0.0134072 0.0750271 -0.0008386
0.0293063 0.0760746 -0.0004284
0.0451738 0.0770835 -0.0000352
0.0610063 0.0780457 0.0003374
0.0768000 0.0789524 0.0006857
0.0925515 0.0797945 0.0010059
0.1082569 0.0805624 0.0012939
0.1239127 0.0812466 0.0015460
0.1395155 0.0818370 0.0017582
0.1550618 0.0823238 0.0019270
0.1705485 0.0826973 0.0020487
0.1859725 0.0829476 0.0021202
0.2013311 0.0830654 0.0021386
0.2166217 0.0830419 0.0021013
0.2318425 0.0828690 0.0020065
0.2469920 0.0825399 0.0018526
0.2620693 0.0820491 0.0016391
0.2770745 0.0813929 0.0013658
0.2920084 0.0805695 0.0010336
0.3068725 0.0795795 0.0006440
0.3216694 0.0784258 0.0001996
0.3364025 0.0771137 -0.0002966
0.3510762 0.0756514 -0.0008404
0.3656957 0.0740490 -0.0014273
0.3802667 0.0723194 -0.0020518
0.3947958 0.0704770 -0.0027082
0.4092900 0.0685380 -0.0033902
0.4237566 0.0665198 -0.0040916
0.4382034 0.0644403 -0.0048058
0.4526378 0.0623178 -0.0055267
0.4670675 0.0601701 -0.0062481
0.4814999 0.0580146 -0.0069643
0.4959420 0.0558679 -0.0076702
0.5104008 0.0537453 -0.0083610
0.5248825 0.0516610 -0.0090325
0.5393933 0.0496279 -0.0096813
0.5539388 0.0476577 -0.0103042
0.5685241 0.0457610 -0.0108990
0.5831541 0.0439469 -0.0114636
0.5978330 0.0422236 -0.0119966
0.6125648 0.0405982 -0.0124970
0.6273528 0.0390767 -0.0129640
0.6422000 0.0376639 -0.0133973
0.6571086 0.0363636 -0.0137968
0.6720803 0.0351782 -0.0141627
0.6871162 0.0341090 -0.0144956
0.7022166 0.0331562 -0.0147963
0.7173814 0.0323189 -0.0150656
0.7326099 0.0315953 -0.0153049
0.7479009 0.0309829 -0.0155154
0.7632525 0.0304780 -0.0156988
0.7786626 0.0300765 -0.0158567
0.7941289 0.0297739 -0.0159910
0.8096484 0.0295650 -0.0161036
0.8252183 0.0294444 -0.0161965
0.8408353 0.0294068 -0.0162718
0.8564963 0.0294462 -0.0163316
0.8721978 0.0295571 -0.0163778
0.8879366 0.0297339 -0.0164126
0.9037096 0.0299712 -0.0164378
0.9195134 0.0302637 -0.0164554
0.9353451 0.0306064 -0.0164671
0.9512017 0.0309946 -0.0164747
0.9670805 0.0314238 -0.0164797
0.9829790 0.0318902 -0.0164835
0.0135983 0.0916358 -0.0009777
0.0294999 0.0926832 -0.0005575
0.0453697 0.0936920 -0.0001544
0.0612041 0.0946540 0.0002280
0.0769993 0.0955604 0.0005859
0.0927517 0.0964020 0.0009152
0.1084576 0.0971693 0.0012119
0.1241134 0.0978525 0.0014721
0.1397154 0.0984417 0.0016918
0.1552603 0.0989266 0.0018672
0.1707446 0.0992973 0.0019948
0.1861653 0.0995438 0.0020711
0.2015194 0.0996561 0.0020931
0.2168043 0.0996252 0.0020583
0.2320179 0.0994427 0.0019646
0.2471588 0.0991013 0.0018106
0.2622261 0.0985952 0.0015956
0.2772198 0.0979206 0.0013196
0.2921408 0.0970755 0.0009836
0.3069909 0.0960606 0.0005891
0.3217727 0.0948790 0.0001387
0.3364900 0.0935363 -0.0003640
0.3511473 0.0920410 -0.0009149
0.3657501 0.0904040 -0.0015091
0.3803045 0.0886387 -0.0021409
0.3948173 0.0867604 -0.0028042
0.4092959 0.0847860 -0.0034927
0.4237479 0.0827337 -0.0041997
0.4381811 0.0806223 -0.0049185
0.4526033 0.0784705 -0.0056427
0.4670222 0.0762969 -0.0063660
0.4814454 0.0741193 -0.0070826
0.4958799 0.0719546 -0.0077871
0.5103326 0.0698182 -0.0084749
0.5248100 0.0677243 -0.0091418
0.5393178 0.0656857 -0.0097844
0.5538618 0.0637139 -0.0103998
0.5684469 0.0618189 -0.0109857
0.5830779 0.0600099 -0.0115404
0.5977589 0.0582946 -0.0120626
0.6124938 0.0566798 -0.0125515
0.6272859 0.0551710 -0.0130066
0.6421379 0.0537731 -0.0134277
0.6570522 0.0524895 -0.0138149
0.6720304 0.0513225 -0.0141685
0.6870735 0.0502732 -0.0144893
0.7021818 0.0493418 -0.0147780
0.7173551 0.0485270 -0.0150357
0.7325926 0.0478271 -0.0152637
0.7478931 0.0472390 -0.0154634
0.7632547 0.0467592 -0.0156364
0.7786751 0.0463835 -0.0157844
0.7941519 0.0461068 -0.0159094
0.8096822 0.0459242 -0.0160133
0.8252629 0.0458300 -0.0160980
0.8408909 0.0458186 -0.0161657
0.8565627 0.0458842 -0.0162184
0.8722751 0.0460210 -0.0162582
0.8880246 0.0462231 -0.0162872
0.9038079 0.0464852 -0.0163073
0.9196219 0.0468019 -0.0163204
0.9354634 0.0471680 -0.0163283
0.9513294 0.0475788 -0.0163326
0.9672172 0.0480297 -0.0163349
0.9831241 0.0485167 -0.0163367
0.0137193 0.1080710 -0.0011648
0.0296213 0.1091114 -0.0007367
0.0454911 0.1101132 -0.0003258
0.0613252 0.1110681 0.0000643
0.0771199 0.1119675 0.0004296
0.0928714 0.1128021 0.0007661
0.1085760 0.1135625 0.0010696
0.1242301 0.1142388 0.0013362
0.1398299 0.1148209 0.0015617
0.1553719 0.1152987 0.0017423
0.1708526 0.1156617 0.0018742
0.1862688 0.1158996 0.0019539
0.2016173 0.1160024 0.0019784
0.2168955 0.1159603 0.0019450
0.2321012 0.1157649 0.0018516
0.2472329 0.1154084 0.0016968
0.2622897 0.1148850 0.0014799
0.2772718 0.1141906 0.0012010
0.2921800 0.1133234 0.0008611
0.3070165 0.1122841 0.0004621
0.3217841 0.1110761 0.0000067
0.3364868 0.1097054 -0.0005014
0.3511295 0.1081810 -0.0010577
0.3657178 0.1065143 -0.0016572
0.3802582 0.1047192 -0.0022940
0.3947579 0.1028118 -0.0029617
0.4092243 0.1008098 -0.0036537
0.4236652 0.0987319 -0.0043631
0.4380888 0.0965975 -0.0050831
0.4525029 0.0944261 -0.0058071
0.4669153 0.0922366 -0.0065287
0.4813336 0.0900471 -0.0072418
0.4957649 0.0878747 -0.0079413
0.5102161 0.0857349 -0.0086223
0.5246934 0.0836419 -0.0092808
0.5392028 0.0816081 -0.0099134
0.5537496 0.0796448 -0.0105175
0.5683388 0.0777618 -0.0110909
0.5829750 0.0759676 -0.0116321
0.5976622 0.0742698 -0.0121401
0.6124041 0.0726746 -0.0126142
0.6272040 0.0711874 -0.0130542
0.6420644 0.0698126 -0.0134601
0.6569877 0.0685534 -0.0138321
0.6719754 0.0674120 -0.0141709
0.6870285 0.0663894 -0.0144771
0.7021473 0.0654854 -0.0147517
0.7173315 0.0646989 -0.0149958
0.7325802 0.0640276 -0.0152108
0.7478920 0.0634685 -0.0153982
0.7632652 0.0630181 -0.0155595
0.7786974 0.0626717 -0.0156966
0.7941859 0.0624244 -0.0158114
0.8097280 0.0622708 -0.0159057
0.8253204 0.0622055 -0.0159817
0.8409600 0.0622226 -0.0160413
0.8566432 0.0623162 -0.0160867
0.8723668 0.0624803 -0.0161200
0.8881272 0.0627092 -0.0161432
0.9039211 0.0629973 -0.0161582
0.9197453 0.0633391 -0.0161669
0.9355965 0.0637295 -0.0161711
0.9514718 0.0641635 -0.0161724
0.9673684 0.0646366 -0.0161724
0.9832836 0.0651447 -0.0161726
0.0137674 0.1243271 -0.0014031
0.0296675 0.1253531 -0.0009694
0.0455352 0.1263406 -0.0005529
0.0613669 0.1272814 -0.0001574
0.0771590 0.1281666 0.0002132
0.0929076 0.1289874 0.0005548
0.1086091 0.1297342 0.0008631
0.1242597 0.1303971 0.0011341
0.1398556 0.1309662 0.0013637
0.1553933 0.1314309 0.0015477
0.1708690 0.1317807 0.0016823
0.1862793 0.1320049 0.0017641
0.2016211 0.1320932 0.0017897
0.2168916 0.1320357 0.0017565
0.2320884 0.1318234 0.0016624
0.2472102 0.1314486 0.0015060
0.2622561 0.1309053 0.0012867
0.2772262 0.1301895 0.0010047
0.2921220 0.1292996 0.0006612
0.3069454 0.1282365 0.0002582
0.3216999 0.1270040 -0.0002012
0.3363897 0.1256087 -0.0007132
0.3510198 0.1240598 -0.0012731
0.3655963 0.1223693 -0.0018755
0.3801260 0.1205518 -0.0025145
0.3946159 0.1186238 -0.0031834
0.4090740 0.1166033 -0.0038755
0.4235082 0.1145098 -0.0045837
0.4379265 0.1123631 -0.0053012
0.4523370 0.1101830 -0.0060210
0.4667475 0.1079887 -0.0067368
0.4811656 0.1057987 -0.0074425
0.4955985 0.1036300 -0.0081328
0.5100528 0.1014980 -0.0088031
0.5245347 0.0994168 -0.0094492
0.5390501 0.0973987 -0.0100681
0.5536042 0.0954545 -0.0106570
0.5682018 0.0935937 -0.0112142
0.5828473 0.0918244 -0.0117383
0.5975447 0.0901536 -0.0122286
0.6122976 0.0885873 -0.0126846
0.6271090 0.0871304 -0.0131063
0.6419814 0.0857870 -0.0134940
0.6569171 0.0845600 -0.0138482
0.6719174 0.0834514 -0.0141695
0.6869833 0.0824620 -0.0144588
0.7021151 0.0815916 -0.0147171
0.7173125 0.0808387 -0.0149458
0.7325744 0.0802012 -0.0151461
0.7478995 0.0796757 -0.0153197
0.7632859 0.0792585 -0.0154681
0.7787312 0.0789450 -0.0155931
0.7942326 0.0787302 -0.0156967
0.8097874 0.0786085 -0.0157808
0.8253923 0.0785744 -0.0158475
0.8410441 0.0786219 -0.0158987
0.8567392 0.0787452 -0.0159366
0.8724742 0.0789382 -0.0159631
0.8882457 0.0791950 -0.0159805
0.9040503 0.0795100 -0.0159904
0.9198846 0.0798777 -0.0159949
0.9357455 0.0802930 -0.0159957
0.9516300 0.0807508 -0.0159944
0.9675351 0.0812465 -0.0159924
0.9834582 0.0817760 -0.0159913
0.0137406 0.1403995 -0.0016954
0.0296364 0.1414038 -0.0012586
0.0454996 0.1423695 -0.0008389
0.0613267 0.1432886 -0.0004403
0.0771141 0.1441524 -0.0000666
0.0928578 0.1449521 0.0002779
0.1085543 0.1456783 0.0005890
0.1241996 0.1463212 0.0008625
0.1397900 0.1468706 0.0010941
0.1553216 0.1473159 0.0012797
0.1707908 0.1476464 0.0014155
0.1861940 0.1478511 0.0014976
0.2015277 0.1479195 0.0015229
0.2167893 0.1478414 0.0014887
0.2319763 0.1476078 0.0013928
0.2470873 0.1472109 0.0012340
0.2621217 0.1466447 0.0010117
0.2770799 0.1459056 0.0007265
0.2919633 0.1449922 0.0003796
0.3067747 0.1439062 -0.0000265
0.3215174 0.1426517 -0.0004887
0.3361963 0.1412359 -0.0010028
0.3508166 0.1396684 -0.0015640
0.3653845 0.1379617 -0.0021666
0.3799070 0.1361305 -0.0028044
0.3943915 0.1341917 -0.0034710
0.4088457 0.1321637 -0.0041593
0.4232777 0.1300661 -0.0048623
0.4376956 0.1279190 -0.0055730
0.4521074 0.1257425 -0.0062844
0.4665211 0.1235559 -0.0069901
0.4809439 0.1213776 -0.0076841
0.4953831 0.1192246 -0.0083611
0.5098453 0.1171124 -0.0090164
0.5243365 0.1150546 -0.0096462
0.5388624 0.1130633 -0.0102472
0.5534281 0.1111491 -0.0108173
0.5680384 0.1093208 -0.0113546
0.5826974 0.1075863 -0.0118581
0.5974091 0.1059520 -0.0123272
0.6121767 0.1044237 -0.0127618
0.6270032 0.1030057 -0.0131622
0.6418911 0.1017018 -0.0135288
0.6568424 0.1005146 -0.0138624
0.6718584 0.0994459 -0.0141637
0.6869399 0.0984963 -0.0144338
0.7020873 0.0976653 -0.0146739
0.7173001 0.0969516 -0.0148852
0.7325773 0.0963525 -0.0150692
0.7479174 0.0958650 -0.0152275
0.7633185 0.0954849 -0.0153618
0.7787782 0.0952077 -0.0154738
0.7942937 0.0950282 -0.0155654
0.8098621 0.0949409 -0.0156386
0.8254802 0.0949402 -0.0156955
0.8411446 0.0950200 -0.0157379
0.8568520 0.0951744 -0.0157680
0.8725987 0.0953975 -0.0157878
0.8883814 0.0956833 -0.0157993
0.9041966 0.0960260 -0.0158044
0.9200410 0.0964203 -0.0158049
0.9359114 0.0968608 -0.0158025
0.9518047 0.0973427 -0.0157988
0.9677181 0.0978613 -0.0157953
0.9836489 0.0984123 -0.0157934
0.0136373 0.1562856 -0.0020440
0.0295263 0.1572605 -0.0016065
0.0453828 0.1581967 -0.0011862
0.0612030 0.1590865 -0.0007868
0.0769835 0.1599214 -0.0004125
0.0927203 0.1606926 -0.0000673
0.1084097 0.1613909 0.0002444
0.1240479 0.1620066 0.0005183
0.1396310 0.1625292 0.0007500
0.1551550 0.1629483 0.0009354
0.1706161 0.1632529 0.0010704
0.1860105 0.1634318 0.0011514
0.2013348 0.1634743 0.0011749
0.2165862 0.1633701 0.0011383
0.2317623 0.1631102 0.0010396
0.2468618 0.1626869 0.0008776
0.2618842 0.1620945 0.0006519
0.2768303 0.1613299 0.0003633
0.2917020 0.1603925 0.0000135
0.3065023 0.1592847 -0.0003949
0.3212352 0.1580114 -0.0008583
0.3359057 0.1565803 -0.0013723
0.3505194 0.1550013 -0.0019318
0.3650826 0.1532872 -0.0025313
0.3796023 0.1514527 -0.0031644
0.3940859 0.1495146 -0.0038246
0.4085412 0.1474915 -0.0045049
0.4229762 0.1454028 -0.0051982
0.4373989 0.1432687 -0.0058975
0.4518174 0.1411091 -0.0065959
0.4662392 0.1389435 -0.0072871
0.4806719 0.1367900 -0.0079649
0.4951223 0.1346656 -0.0086242
0.5095971 0.1325854 -0.0092604
0.5241021 0.1305628 -0.0098698
0.5386430 0.1286097 -0.0104492
0.5532247 0.1267361 -0.0109966
0.5678518 0.1249507 -0.0115104
0.5825284 0.1232608 -0.0119898
0.5972581 0.1216724 -0.0124346
0.6120441 0.1201908 -0.0128448
0.6268893 0.1188201 -0.0132209
0.6417960 0.1175636 -0.0135637
0.6567660 0.1164236 -0.0138740
0.6718006 0.1154015 -0.0141530
0.6869005 0.1144979 -0.0144017
0.7020658 0.1137121 -0.0146215
0.7172963 0.1130425 -0.0148137
0.7325906 0.1124866 -0.0149799
0.7479475 0.1120410 -0.0151216
0.7633647 0.1117016 -0.0152406
0.7788400 0.1114638 -0.0153386
0.7943706 0.1113224 -0.0154175
0.8099534 0.1112719 -0.0154793
0.8255853 0.1113064 -0.0155259
0.8412629 0.1114201 -0.0155593
0.8569828 0.1116070 -0.0155814
0.8727414 0.1118613 -0.0155944
0.8885353 0.1121768 -0.0156001
0.9043611 0.1125479 -0.0156005
0.9202154 0.1129691 -0.0155972
0.9360950 0.1134352 -0.0155920
0.9519969 0.1139414 -0.0155863
0.9679182 0.1144828 -0.0155817
0.9838562 0.1150553 -0.0155794
0.0134563 0.1719841 -0.0024507
0.0293363 0.1729219 -0.0020151
0.0451837 0.1738209 -0.0015966
0.0609948 0.1746736 -0.0011989
0.0767662 0.1754719 -0.0008262
0.0924940 0.1762071 -0.0004827
0.1081744 0.1768700 -0.0001726
0.1238036 0.1774509 0.0000995
0.1393774 0.1779395 0.0003293
0.1548920 0.1783252 0.0005125
0.1703432 0.1785968 0.0006451
0.1857273 0.1787431 0.0007231
0.2010409 0.1787532 0.0007434
0.2162808 0.1786170 0.0007032
0.2314451 0.1783255 0.0006006
0.2465323 0.1778713 0.0004347
0.2615424 0.1772493 0.0002053
0.2764766 0.1764573 -0.0000865
0.2913373 0.1754957 -0.0004386
0.3061281 0.1743679 -0.0008479
0.3208534 0.1730799 -0.0013104
0.3355187 0.1716397 -0.0018217
0.3501296 0.1700578 -0.0023764
0.3646926 0.1683467 -0.0029689
0.3792144 0.1665207 -0.0035932
0.3937025 0.1645963 -0.0042425
0.4081642 0.1625917 -0.0049102
0.4226077 0.1605261 -0.0055891
0.4370407 0.1584192 -0.0062723
0.4514711 0.1562910 -0.0069531
0.4659064 0.1541603 -0.0076251
0.4803540 0.1520453 -0.0082823
0.4948205 0.1499624 -0.0089196
0.5093125 0.1479266 -0.0095326
0.5238359 0.1459511 -0.0101175
0.5383960 0.1440474 -0.0106716
0.5529978 0.1422251 -0.0111927
0.5676456 0.1404926 -0.0116797
0.5823435 0.1388567 -0.0121318
0.5970948 0.1373232 -0.0125491
0.6119028 0.1358968 -0.0129320
0.6267700 0.1345812 -0.0132811
0.6416986 0.1333795 -0.0135975
0.6566903 0.1322936 -0.0138822
0.6717462 0.1313246 -0.0141366
0.6868670 0.1304728 -0.0143620
0.7020527 0.1297375 -0.0145597
0.7173029 0.1291170 -0.0147312
0.7326163 0.1286085 -0.0148781
0.7479914 0.1282086 -0.0150020
0.7634261 0.1279132 -0.0151047
0.7789182 0.1277177 -0.0151878
0.7944647 0.1276168 -0.0152533
0.8100627 0.1276050 -0.0153031
0.8257089 0.1276766 -0.0153391
0.8414001 0.1278255 -0.0153631
0.8571327 0.1280461 -0.0153773
0.8729033 0.1283322 -0.0153835
0.8887084 0.1286781 -0.0153836
