ref/imx226_6000K_jzazbz_203.cube
TITLE "4560412048"
LUT_3D_SIZE 9
0.0055979 -0.0184749 -0.0103983
0.1305660 -0.0118643 -0.0106828
0.2527018 -0.0096465 -0.0133660
0.3715751 -0.0143504 -0.0184772
0.4886409 -0.0244537 -0.0241811
0.6067070 -0.0351060 -0.0278849
0.7279147 -0.0426268 -0.0282810
0.8525398 -0.0461375 -0.0259329
0.9794562 -0.0465887 -0.0223069
0.0090287 0.1134295 -0.0077792
0.1343485 0.1204652 -0.0072610
0.2562477 0.1229145 -0.0098729
0.3740136 0.1172694 -0.0159190
0.4897946 0.1056031 -0.0226253
0.6072153 0.0946774 -0.0266128
0.7284400 0.0879334 -0.0267368
0.8534892 0.0855837 -0.0240123
0.9808790 0.0862130 -0.0202114
0.0087264 0.2356243 -0.0074501
0.1336434 0.2398345 -0.0064552
0.2549752 0.2402752 -0.0087746
0.3725324 0.2349687 -0.0145376
0.4889454 0.2262647 -0.0205710
0.6074412 0.2192336 -0.0235162
0.7297817 0.2160739 -0.0227669
0.8555627 0.2163258 -0.0198390
0.9832738 0.2185972 -0.0163871
0.0046249 0.3497958 -0.0100343
0.1284565 0.3488975 -0.0091738
0.2496740 0.3468723 -0.0105502
0.3690263 0.3446016 -0.0137373
0.4875554 0.3422544 -0.0176483
0.6082439 0.3416462 -0.0188024
0.7323117 0.3434440 -0.0170077
0.8588594 0.3468638 -0.0141453
0.9866052 0.3508801 -0.0114822
-0.0017989 0.4615703 -0.0146425
0.1213342 0.4566428 -0.0137155
0.2433652 0.4533955 -0.0134659
0.3646880 0.4537744 -0.0141825
0.4860996 0.4580622 -0.0151951
0.6097549 0.4643539 -0.0139282
0.7355585 0.4709062 -0.0112237
0.8627012 0.4772577 -0.0085893
0.9902697 0.4828771 -0.0067786
-0.0089028 0.5756508 -0.0200624
0.1135414 0.5681063 -0.0194353
0.2362110 0.5642274 -0.0182617
0.3596367 0.5667976 -0.0167814
0.4846914 0.5763047 -0.0142706
0.6112301 0.5879196 -0.0106448
0.7384910 0.5983640 -0.0071876
0.8660313 0.6071184 -0.0047200
0.9933577 0.6141103 -0.0034874
-0.0151047 0.6946985 -0.0250038
0.1063016 0.6850317 -0.0253667
0.2290646 0.6802061 -0.0242504
0.3545120 0.6842779 -0.0209371
0.4825932 0.6968465 -0.0156530
0.6116035 0.7122566 -0.0100380
0.7401456 0.7257211 -0.0057520
0.8679781 0.7362560 -0.0032028
0.9951347 0.7443324 -0.0021426
-0.0189790 0.8203787 -0.0280768
0.1019816 0.8102493 -0.0290464
0.2247876 0.8049220 -0.0281717
0.3511016 0.8088407 -0.0242791
0.4805837 0.8219248 -0.0179160
0.6109069 0.8385834 -0.0113587
0.7402023 0.8533790 -0.0065310
0.8682441 0.8649054 -0.0037438
0.9953659 0.8737316 -0.0025360
-0.0203269 0.9523037 -0.0288251
0.1010682 0.9436373 -0.0296313
0.2242385 0.9391756 -0.0287113
0.3505476 0.9423797 -0.0250889
0.4797270 0.9534550 -0.0192395
0.6097959 0.9682426 -0.0131189
0.7390482 0.9822359 -0.0084107
0.8671341 0.9937429 -0.0054923
0.9942944 1.0028276 -0.0040410
0.0030105 -0.0182585 0.1162915
0.1271093 -0.0131583 0.1152093
0.2483734 -0.0127777 0.1117457
0.3667761 -0.0185615 0.1061297
0.4838590 -0.0284651 0.1001682
0.6022644 -0.0381925 0.0964192
0.7242064 -0.0446786 0.0964238
0.8499517 -0.0470653 0.0996246
0.9780580 -0.0463278 0.1041632
0.0063218 0.1146707 0.1184696
0.1305192 0.1198353 0.1179407
0.2512091 0.1194639 0.1143282
0.3684963 0.1120518 0.1079650
0.4847302 0.1009451 0.1014309
0.6027478 0.0917513 0.0975652
0.7247971 0.0865448 0.0978826
0.8510759 0.0854914 0.1015540
0.9797071 0.0872864 0.1063689
0.0059105 0.2379796 0.1181909
0.1297084 0.2407284 0.1180923
0.2496666 0.2378854 0.1146308
0.3671742 0.2308013 0.1090542
0.4849735 0.2238297 0.1041411
0.6042730 0.2186731 0.1016251
0.7272688 0.2167491 0.1028354
0.8540261 0.2179519 0.1065463
0.9827500 0.2210223 0.1108085
0.0016489 0.3529059 0.1148243
0.1245844 0.3517033 0.1146788
0.2451275 0.3488728 0.1126251
0.3651820 0.3461702 0.1100935
0.4853361 0.3448014 0.1077391
0.6070627 0.3451156 0.1076145
0.7317006 0.3473132 0.1101717
0.8587986 0.3509809 0.1136731
0.9871540 0.3551774 0.1167802
-0.0049039 0.4648429 0.1095105
0.1177408 0.4606809 0.1096591
0.2398025 0.4590728 0.1096820
0.3617816 0.4597645 0.1094353
0.4848597 0.4640837 0.1101717
0.6100615 0.4708827 0.1132965
0.7366296 0.4775223 0.1172687
0.8642504 0.4838413 0.1206411
0.9920869 0.4891437 0.1225886
-0.0120385 0.5785735 0.1037104
0.1100442 0.5718164 0.1036166
0.2329769 0.5696010 0.1048505
0.3572995 0.5732867 0.1070327
0.4843882 0.5839223 0.1116542
0.6125425 0.5960937 0.1173508
0.7408015 0.6067904 0.1222489
0.8688609 0.6154604 0.1254256
0.9961841 0.6218097 0.1265464
-0.0181187 0.6971956 0.0988458
0.1026275 0.6872068 0.0975683
0.2254473 0.6829885 0.0987281
0.3522174 0.6887297 0.1032914
0.4825649 0.7034912 0.1108297
0.6135351 0.7206590 0.1186427
0.7431839 0.7348600 0.1242285
0.8713812 0.7452320 0.1272025
0.9982982 0.7524849 0.1279473
-0.0216576 0.8229242 0.0963181
0.0985411 0.8117001 0.0944771
0.2212033 0.8059012 0.0953271
0.3487382 0.8109323 0.1005411
0.4804864 0.8266044 0.1090805
0.6129054 0.8459289 0.1176399
0.7432423 0.8618964 0.1234893
0.8714094 0.8733173 0.1263925
0.9981746 0.8814348 0.1271779
-0.0225742 0.9552561 0.0963414
0.0982426 0.9455453 0.0949695
0.2212304 0.9402057 0.0958780
0.3484332 0.9438545 0.1005181
0.4794740 0.9569736 0.1081226
0.6112876 0.9740657 0.1157932
0.7413533 0.9892629 0.1211972
0.8694614 1.0009116 0.1240619
0.9963522 1.0096708 0.1251168
-0.0014615 -0.0232960 0.2425051
0.1214888 -0.0210443 0.2405739
0.2417942 -0.0234060 0.2365667
0.3602096 -0.0299436 0.2312562
0.4784716 -0.0379792 0.2262738
0.5985774 -0.0445959 0.2234035
0.7221199 -0.0481428 0.2238906
0.8490796 -0.0483263 0.2273452
0.9780427 -0.0460114 0.2320276
0.0018376 0.1111413 0.2440863
0.1246346 0.1131283 0.2422689
0.2441475 0.1091888 0.2379202
0.3617267 0.1007937 0.2322593
0.4799375 0.0923961 0.2276177
0.5999704 0.0868585 0.2249476
0.7234832 0.0846759 0.2254649
0.8508822 0.0857496 0.2292502
0.9801635 0.0887974 0.2341550
0.0017368 0.2370474 0.2433930
0.1241305 0.2373266 0.2418097
0.2434285 0.2321809 0.2377956
0.3619026 0.2251258 0.2333541
0.4821065 0.2203736 0.2308920
0.6037517 0.2182347 0.2299230
0.7275129 0.2181024 0.2309345
0.8547947 0.2204627 0.2344526
0.9837564 0.2240145 0.2386477
-0.0018423 0.3551062 0.2399499
0.1203878 0.3537682 0.2388363
0.2406846 0.3505811 0.2361785
0.3616881 0.3482327 0.2342775
0.4842420 0.3476120 0.2342635
0.6081968 0.3491838 0.2356699
0.7335879 0.3523112 0.2385125
0.8606062 0.3559238 0.2419049
0.9887844 0.3597639 0.2448926
-0.0076021 0.4698818 0.2346143
0.1150470 0.4677567 0.2342950
0.2370169 0.4673205 0.2336470
0.3599543 0.4682950 0.2339724
0.4853651 0.4722380 0.2367905
0.6118893 0.4782853 0.2406798
0.7391896 0.4848717 0.2452716
0.8668376 0.4906859 0.2490896
0.9943995 0.4952552 0.2510750
-0.0138076 0.5859716 0.2289013
0.1086049 0.5818955 0.2285591
0.2321832 0.5824040 0.2299758
0.3575400 0.5871965 0.2330087
0.4855223 0.5957400 0.2383510
0.6142734 0.6055396 0.2443001
0.7434102 0.6155741 0.2501246
0.8718522 0.6236587 0.2540728
0.9989981 0.6291234 0.2552665
-0.0188399 0.7064309 0.2246106
0.1023146 0.6989076 0.2233192
0.2257614 0.6972909 0.2250963
0.3532418 0.7043439 0.2305271
0.4837254 0.7166211 0.2381394
0.6151016 0.7309728 0.2461553
0.7455278 0.7440960 0.2524060
0.8742728 0.7538872 0.2559130
1.0010590 0.7602193 0.2565828
-0.0218175 0.8328657 0.2227947
0.0986914 0.8235319 0.2210541
0.2215874 0.8192388 0.2224226
0.3492917 0.8243234 0.2283173
0.4815782 0.8386478 0.2373122
0.6144956 0.8560665 0.2460944
0.7452992 0.8707735 0.2521306
0.8737449 0.8815182 0.2550543
1.0003069 0.8887821 0.2555349
-0.0227752 0.9646818 0.2233424
0.0981596 0.9561228 0.2221093
0.2211294 0.9512751 0.2233907
0.3484084 0.9544170 0.2285727
0.4800381 0.9666533 0.2367374
0.6124844 0.9828018 0.2446827
0.7428453 0.9971479 0.2500212
0.8709349 1.0081646 0.2525695
0.9976127 1.0162848 0.2531732
-0.0068805 -0.0326438 0.3693009
0.1152671 -0.0334900 0.3672165
0.2351142 -0.0381973 0.3634077
0.3540159 -0.0448515 0.3590280
0.4741528 -0.0500430 0.3555904
0.5970452 -0.0520521 0.3541514
0.7226322 -0.0516022 0.3549275
0.8505802 -0.0490036 0.3577286
0.9798816 -0.0450004 0.3615104
-0.0033529 0.1035453 0.3704862
0.1187880 0.1028022 0.3682366
0.2379907 0.0968209 0.3639715
0.3562951 0.0886669 0.3594707
0.4767379 0.0836348 0.3567569
0.6002638 0.0830963 0.3560579
0.7256811 0.0842093 0.3567440
0.8534929 0.0872002 0.3594623
0.9826896 0.0913101 0.3632817
-0.0026331 0.2331935 0.3698134
0.1193281 0.2317354 0.3676155
0.2388703 0.2258823 0.3637347
0.3588132 0.2201804 0.3607583
0.4806982 0.2173274 0.3595394
0.6051061 0.2180784 0.3600110
0.7307695 0.2205434 0.3612730
0.8581335 0.2240103 0.3637580
0.9865826 0.2277581 0.3669310
-0.0049399 0.3563229 0.3667824
0.1171532 0.3547902 0.3650860
0.2383122 0.3521500 0.3626516
0.3607184 0.3504029 0.3618116
0.4843785 0.3501150 0.3622057
0.6099114 0.3525303 0.3640132
0.7365875 0.3564256 0.3666983
0.8637704 0.3604127 0.3695217
0.9914201 0.3640475 0.3720443
-0.0091366 0.4765320 0.3619409
0.1139209 0.4759569 0.3614722
0.2368557 0.4763323 0.3610551
0.3612001 0.4775666 0.3621572
0.4866402 0.4803722 0.3641718
0.6135761 0.4849743 0.3674358
0.7413216 0.4903615 0.3712974
0.8692249 0.4956635 0.3749841
0.9965096 0.4997479 0.3771871
-0.0133152 0.5980624 0.3569996
0.1099795 0.5967243 0.3570091
0.2346006 0.5991392 0.3589231
0.3600935 0.6026636 0.3617061
0.4866937 0.6072607 0.3652626
0.6151897 0.6143650 0.3699199
0.7446034 0.6224671 0.3750566
0.8733965 0.6294893 0.3792403
1.0005484 0.6341755 0.3808623
-0.0166039 0.7225253 0.3535895
0.1059546 0.7189792 0.3532067
0.2301450 0.7195141 0.3556005
0.3566207 0.7244327 0.3601054
0.4849051 0.7316812 0.3654788
0.6149223 0.7411380 0.3714648
0.7456328 0.7516981 0.3773332
0.8749358 0.7602760 0.3811134
1.0019344 0.7657282 0.3820911
-0.0191497 0.8499723 0.3522079
0.1027812 0.8448771 0.3515724
0.2260206 0.8426528 0.3535459
0.3522116 0.8457317 0.3585410
0.4823778 0.8552366 0.3654770
0.6139495 0.8671882 0.3724349
0.7446261 0.8786356 0.3778419
0.8734832 0.8879485 0.3806638
1.0003920 0.8943772 0.3812196
-0.0208756 0.9801479 0.3526207
0.1009267 0.9747820 0.3522624
0.2239812 0.9715677 0.3540686
0.3500836 0.9731324 0.3587666
0.4801314 0.9813175 0.3656141
0.6117425 0.9934827 0.3721639
0.7417849 1.0049745 0.3766227
0.8700338 1.0144805 0.3787673
0.9970101 1.0217555 0.3791786
-0.0127047 -0.0450577 0.4969867
0.1090728 -0.0490889 0.4957451
0.2293534 -0.0552659 0.4932140
0.3496165 -0.0608119 0.4903583
0.4723442 -0.0618335 0.4883521
0.5979808 -0.0587660 0.4876209
0.7253775 -0.0541765 0.4880765
0.8540990 -0.0486956 0.4896646
0.9833740 -0.0431392 0.4919306
-0.0090842 0.0924537 0.4978104
0.1131101 0.0893639 0.4963421
0.2332432 0.0832425 0.4932753
0.3530832 0.0769737 0.4902681
0.4760673 0.0760949 0.4888138
0.6020914 0.0796439 0.4886459
0.7293695 0.0841164 0.4891683
0.8579526 0.0894979 0.4907428
0.9868944 0.0946454 0.4929932
-0.0072768 0.2265819 0.4971886
0.1153914 0.2244259 0.4957212
0.2363472 0.2197496 0.4928901
0.3578894 0.2159478 0.4908605
0.4811075 0.2149238 0.4899813
0.6069625 0.2177080 0.4903694
0.7343806 0.2224065 0.4914834
0.8625746 0.2274319 0.4930796
0.9907270 0.2317806 0.4950312
-0.0078155 0.3566827 0.4947377
0.1152329 0.3551945 0.4936125
0.2379024 0.3532582 0.4920166
0.3612028 0.3522653 0.4910712
0.4857990 0.3530650 0.4911146
0.6118604 0.3556005 0.4922451
0.7391507 0.3593859 0.4940832
0.8668134 0.3635265 0.4959833
0.9943653 0.3673934 0.4978236
-0.0095803 0.4849621 0.4910878
0.1142078 0.4845957 0.4907786
0.2383758 0.4849441 0.4906811
0.3628459 0.4857778 0.4908670
0.4883849 0.4877145 0.4919302
0.6151360 0.4908526 0.4939167
0.7427057 0.4947090 0.4963638
0.8702500 0.4983127 0.4986620
0.9976609 0.5020935 0.5006581
-0.0112042 0.6135844 0.4875120
0.1129685 0.6137027 0.4877929
0.2376353 0.6147765 0.4889381
0.3623709 0.6157825 0.4904139
0.4881704 0.6180857 0.4924218
0.6155022 0.6221606 0.4950582
0.7441267 0.6272570 0.4980871
0.8728998 0.6325423 0.5010985
1.0002299 0.6365482 0.5029860
-0.0130042 0.7420728 0.4848934
0.1109803 0.7419535 0.4852578
0.2350384 0.7420779 0.4870987
0.3600904 0.7433676 0.4897927
0.4861488 0.7460672 0.4927923
0.6140462 0.7509090 0.4959968
0.7439661 0.7579934 0.4995753
0.8729146 0.7641318 0.5025685
1.0003432 0.7686111 0.5040268
-0.0155426 0.8699955 0.4835156
0.1076903 0.8688202 0.4838861
0.2308779 0.8676340 0.4858096
0.3553589 0.8679370 0.4891441
0.4824441 0.8718129 0.4930772
0.6119008 0.8788371 0.4969515
0.7413608 0.8859505 0.5004217
0.8701911 0.8925509 0.5028273
0.9979243 0.8978882 0.5038008
-0.0183101 0.9981644 0.4833049
0.1042644 0.9960483 0.4838042
0.2271978 0.9943926 0.4857159
0.3516986 0.9944751 0.4891581
0.4789268 0.9980168 0.4934986
0.6087936 1.0055728 0.4975721
0.7379125 1.0130383 0.5004829
0.8663282 1.0198552 0.5021584
0.9941801 1.0258665 0.5027450
-0.0182050 -0.0577313 0.6251252
0.1033795 -0.0648253 0.6252637
0.2248287 -0.0717035 0.6247972
0.3475420 -0.0748678 0.6239140
0.4732085 -0.0712815 0.6228278
0.6010460 -0.0636802 0.6217783
0.7298220 -0.0552877 0.6212021
0.8589538 -0.0473989 0.6213442
0.9879263 -0.0406498 0.6221136
-0.0149017 0.0803519 0.6254451
0.1071722 0.0743051 0.6253471
0.2290664 0.0686725 0.6244837
0.3519453 0.0665491 0.6231115
0.4775609 0.0698970 0.6220565
0.6050813 0.0764344 0.6212105
0.7340113 0.0845116 0.6208606
0.8633456 0.0922276 0.6212306
0.9919827 0.0982449 0.6220873
-0.0121289 0.2187778 0.6246687
0.1108436 0.2148695 0.6243736
0.2339300 0.2119076 0.6233275
0.3579061 0.2115675 0.6219328
0.4828021 0.2130541 0.6209307
0.6096819 0.2174831 0.6206277
0.7381490 0.2239284 0.6208271
0.8673298 0.2306636 0.6214198
0.9954381 0.2357051 0.6222719
-0.0103224 0.3566556 0.6229984
0.1135644 0.3550450 0.6226949
0.2378375 0.3540768 0.6218034
0.3623051 0.3537947 0.6207241
0.4875795 0.3549796 0.6200926
0.6139000 0.3577260 0.6200974
0.7416146 0.3618816 0.6209147
0.8696472 0.3662772 0.6217830
0.9974388 0.3705237 0.6226897
-0.0092730 0.4934675 0.6209691
0.1151905 0.4933904 0.6209014
0.2397538 0.4927875 0.6202013
0.3645101 0.4924087 0.6195115
0.4899564 0.4931672 0.6193368
0.6163850 0.4953291 0.6198166
0.7435577 0.4979800 0.6208155
0.8708798 0.5007635 0.6219712
0.9984912 0.5042231 0.6230714
-0.0092041 0.6281484 0.6186795
0.1148856 0.6282793 0.6188152
0.2395649 0.6279948 0.6186197
0.3641718 0.6272975 0.6185987
0.4892397 0.6271402 0.6188829
0.6155365 0.6285104 0.6196043
0.7434319 0.6317658 0.6207391
0.8714094 0.6349362 0.6220246
0.9989040 0.6379991 0.6234874
-0.0105099 0.7595004 0.6164926
0.1133556 0.7603587 0.6167710
0.2370058 0.7594255 0.6173026
0.3612802 0.7583691 0.6182205
0.4860680 0.7578840 0.6191092
0.6126499 0.7594051 0.6199622
0.7408785 0.7628982 0.6207919
0.8692421 0.7665207 0.6222818
0.9972678 0.7700188 0.6239193
-0.0132944 0.8877409 0.6148769
0.1099769 0.8884121 0.6154532
0.2327762 0.8875628 0.6165493
0.3559932 0.8859492 0.6181978
0.4810269 0.8861004 0.6196582
0.6085292 0.8889055 0.6205582
0.7364424 0.8919461 0.6214904
0.8651957 0.8958308 0.6229312
0.9938979 0.8999923 0.6243136
-0.0167103 1.0147206 0.6139857
0.1057687 1.0144515 0.6147667
0.2280469 1.0135452 0.6161215
0.3510600 1.0127948 0.6179555
0.4762108 1.0138361 0.6197242
0.6039645 1.0171347 0.6211256
0.7321597 1.0204852 0.6223423
0.8609653 1.0243969 0.6234922
0.9899694 1.0289784 0.6244830
-0.0220610 -0.0666561 0.7532781
0.0996111 -0.0754995 0.7546537
0.2222855 -0.0823997 0.7560396
0.3475592 -0.0833096 0.7570287
0.4759126 -0.0766237 0.7567328
0.6055683 -0.0659524 0.7550187
0.7352475 -0.0549182 0.7530088
0.8643826 -0.0453987 0.7516615
0.9928245 -0.0378287 0.7512408
-0.0191061 0.0717816 0.7532217
0.1027973 0.0636573 0.7542868
0.2258668 0.0579457 0.7553313
0.3516043 0.0584525 0.7558011
0.4802759 0.0656764 0.7550214
0.6097136 0.0751374 0.7532024
0.7397486 0.0858028 0.7511827
0.8690992 0.0949586 0.7499689
0.9971479 0.1015720 0.7497658
-0.0155683 0.2133817 0.7524028
0.1073463 0.2079505 0.7530661
0.2316594 0.2050248 0.7535510
0.3579180 0.2067315 0.7531251
0.4852060 0.2115420 0.7516785
0.6133594 0.2178044 0.7503247
0.7428601 0.2257332 0.7488394
0.8721770 0.2334495 0.7479124
1.0000004 0.2390636 0.7479873
-0.0118335 0.3570760 0.7513516
0.1124153 0.3552332 0.7517389
0.2377587 0.3544859 0.7514733
0.3635670 0.3548302 0.7502122
0.4895815 0.3564733 0.7485910
0.6165606 0.3597857 0.7473300
0.7444003 0.3641189 0.7466764
0.8725448 0.3688043 0.7461974
1.0004916 0.3735128 0.7464120
-0.0089249 0.4999926 0.7502709
0.1159539 0.5007056 0.7504887
0.2411545 0.5001575 0.7494894
0.3659923 0.4982262 0.7476781
0.4913645 0.4977502 0.7460268
0.6176445 0.4987980 0.7448787
0.7445605 0.5009202 0.7446295
0.8717300 0.5033550 0.7447545
0.9995109 0.5066887 0.7451051
-0.0081800 0.6386319 0.7487763
0.1158897 0.6397518 0.7488692
0.2399170 0.6382807 0.7476466
0.3644106 0.6358298 0.7457923
0.4894195 0.6342961 0.7442861
0.6151538 0.6338981 0.7434125
0.7422762 0.6352808 0.7430111
0.8698662 0.6369924 0.7429929
0.9976408 0.6395582 0.7439986
-0.0097899 0.7717590 0.7468440
0.1130897 0.7727175 0.7469187
0.2351819 0.7702564 0.7460071
0.3588617 0.7675818 0.7448112
0.4837449 0.7657915 0.7438157
0.6099308 0.7657254 0.7427775
0.7371635 0.7664452 0.7418340
0.8655832 0.7682369 0.7421183
0.9942669 0.7712506 0.7437486
-0.0129249 0.9007204 0.7450059
0.1093061 0.9017312 0.7453626
0.2307612 0.9004226 0.7451326
0.3527572 0.8978335 0.7445624
0.4769476 0.8960768 0.7439354
0.6035196 0.8960392 0.7427716
0.7311817 0.8965013 0.7421278
0.8603943 0.8984445 0.7427690
0.9899810 0.9017820 0.7444868
-0.0164648 1.0277622 0.7436495
0.1052166 1.0282103 0.7442533
0.2263162 1.0274866 0.7446502
0.3479216 1.0264510 0.7446718
0.4715999 1.0262030 0.7441144
0.5980134 1.0263084 0.7433839
0.7262506 1.0266198 0.7434031
0.8557977 1.0283053 0.7442266
0.9858951 1.0318252 0.7456912
-0.0235087 -0.0696903 0.8810809
0.0988863 -0.0781394 0.8832289
0.2227284 -0.0841534 0.8856441
0.3495259 -0.0841112 0.8877054
0.4792704 -0.0769655 0.8880524
0.6101589 -0.0653863 0.8860429
0.7404387 -0.0532371 0.8829571
0.8694190 -0.0429090 0.8804663
0.9972768 -0.0348982 0.8792174
-0.0206416 0.0691832 0.8809291
0.1018318 0.0612281 0.8827701
0.2259084 0.0559250 0.8848933
0.3531318 0.0566985 0.8866289
0.4833323 0.0641302 0.8864919
0.6148734 0.0758681 0.8837037
0.7456576 0.0879113 0.8798657
0.8744200 0.0974586 0.8771983
1.0016487 0.1043825 0.8762598
-0.0167725 0.2121822 0.8801654
0.1065717 0.2067712 0.8814911
0.2314977 0.2036384 0.8827694
0.3588463 0.2049587 0.8832487
0.4879205 0.2105788 0.8819170
0.6181713 0.2191636 0.8788202
0.7483307 0.2282474 0.8753493
0.8768778 0.2359167 0.8729856
1.0039167 0.2416323 0.8725718
-0.0124217 0.3580217 0.8792931
0.1121809 0.3562382 0.8801244
0.2378888 0.3552946 0.8801429
0.3647519 0.3559955 0.8788911
0.4921070 0.3581467 0.8764022
0.6197382 0.3617507 0.8735928
0.7477094 0.3664417 0.8713319
0.8757378 0.3712469 0.8693481
1.0032789 0.3759375 0.8692323
-0.0091412 0.5031963 0.8783602
0.1159793 0.5043307 0.8787576
0.2414193 0.5041925 0.8775928
0.3670297 0.5029366 0.8748917
0.4926086 0.5015819 0.8716177
0.6190273 0.5018521 0.8691824
0.7460171 0.5036332 0.8676134
0.8729940 0.5054806 0.8665025
1.0006532 0.5088293 0.8667988
-0.0084591 0.6438389 0.8770015
0.1157492 0.6459720 0.8770756
0.2396381 0.6453721 0.8753764
0.3639132 0.6427777 0.8721100
0.4884524 0.6394099 0.8684576
0.6144219 0.6378038 0.8662390
0.7413349 0.6377778 0.8645449
0.8687898 0.6386821 0.8640003
0.9969480 0.6413929 0.8651597
-0.0103687 0.7786219 0.8751821
0.1122368 0.7804240 0.8751384
0.2339606 0.7790956 0.8735976
0.3566032 0.7761565 0.8708279
0.4808798 0.7728610 0.8675532
0.6070848 0.7710258 0.8645444
0.7342924 0.7696449 0.8626808
0.8630418 0.7703776 0.8628406
0.9923130 0.7732419 0.8647451
-0.0136021 0.9089765 0.8733517
0.1078960 0.9103278 0.8734178
0.2284189 0.9094165 0.8724018
0.3495610 0.9072254 0.8703193
0.4730471 0.9048353 0.8676185
0.5993127 0.9029422 0.8647315
0.7274373 0.9012520 0.8632101
0.8571340 0.9015505 0.8636869
0.9873800 0.9043686 0.8657600
-0.0169639 1.0369718 0.8718612
0.1040793 1.0378555 0.8721071
0.2242530 1.0373947 0.8716544
0.3448848 1.0364232 0.8702874
0.4676261 1.0353240 0.8681054
0.5935653 1.0336609 0.8660310
0.7221883 1.0320740 0.8651880
0.8523657 1.0323610 0.8658378
0.9832271 1.0353256 0.8676829
-0.0231103 -0.0677595 1.0081180
0.1004707 -0.0743286 1.0104985
0.2254497 -0.0786502 1.0130519
0.3529043 -0.0781755 1.0151927
0.4828515 -0.0719294 1.0157283
0.6138996 -0.0614977 1.0139691
0.7442733 -0.0499840 1.0108169
0.8730872 -0.0398666 1.0079765
1.0005379 -0.0319481 1.0063664
-0.0202640 0.0713599 1.0079495
0.1034170 0.0652163 1.0100637
0.2285560 0.0612442 1.0123365
0.3563708 0.0620054 1.0141557
0.4869223 0.0684081 1.0141771
0.6188060 0.0790756 1.0114409
0.7496484 0.0905163 1.0071370
0.8780569 0.0998831 1.0037889
1.0047619 0.1068691 1.0024930
-0.0166223 0.2141965 1.0071533
0.1076347 0.2099624 1.0087036
0.2331935 0.2073893 1.0100496
0.3609445 0.2083159 1.0106318
0.4908786 0.2133336 1.0095168
0.6220936 0.2216801 1.0060029
0.7525484 0.2307546 1.0013042
0.8803586 0.2380822 0.9981276
1.0066618 0.2437830 0.9975187
-0.0127964 0.3594514 1.0060707
0.1122696 0.3580618 1.0069589
0.2382248 0.3572576 1.0069420
0.3654279 0.3578891 1.0056524
0.4937688 0.3602981 1.0030477
0.6225738 0.3641803 0.9993708
0.7511315 0.3688810 0.9955503
0.8786783 0.3735102 0.9928956
1.0054522 0.3781714 0.9929302
-0.0101357 0.5041687 1.0048228
0.1151164 0.5052582 1.0050913
0.2406782 0.5055724 1.0038085
0.3666842 0.5052541 1.0008507
0.4931825 0.5048296 0.9970084
0.6201773 0.5049049 0.9933729
0.7472527 0.5057174 0.9905939
0.8743646 0.5075514 0.9889990
1.0018693 0.5112603 0.9897312
-0.0097913 0.6452388 1.0033232
0.1145044 0.6474425 1.0031400
0.2385238 0.6478234 1.0012192
0.3628220 0.6464496 0.9975553
0.4878917 0.6440857 0.9931376
0.6140268 0.6417769 0.9892827
0.7409012 0.6404771 0.9868995
0.8686245 0.6411496 0.9864259
0.9970880 0.6441453 0.9880020
-0.0116345 0.7813913 1.0016489
0.1111096 0.7835094 1.0012752
0.2331032 0.7834553 0.9994072
0.3555345 0.7816273 0.9960349
0.4795504 0.7788906 0.9916905
0.6055231 0.7759274 0.9875271
0.7331912 0.7736296 0.9853568
0.8621777 0.7738281 0.9855994
0.9917623 0.7765329 0.9877626
-0.0145711 0.9133966 1.0000597
0.1069812 0.9150612 0.9997241
0.2275559 0.9148618 0.9982244
0.3485707 0.9133883 0.9954593
0.4716011 0.9111701 0.9917092
0.5975637 0.9084447 0.9881136
0.7261089 0.9059823 0.9863243
0.8560428 0.9057206 0.9867614
0.9865876 0.9083022 0.9890213
-0.0175892 1.0427318 0.9987022
0.1035119 1.0439838 0.9985360
0.2236870 1.0438518 0.9974697
0.3442269 1.0429353 0.9953739
0.4667864 1.0414041 0.9925153
0.5925082 1.0391453 0.9899140
0.7211259 1.0371233 0.9887159
0.8514608 1.0371594 0.9892897
0.9825660 1.0399996 0.9913182
