ref/imx226_4000K_jzazbz_203.cube
TITLE "4527060496"
LUT_3D_SIZE 5
0.0092985 -0.0147471 -0.0033884
0.2574569 -0.0077029 -0.0030397
0.4931958 -0.0277991 -0.0122836
0.7312143 -0.0489290 -0.0190022
0.9814913 -0.0505607 -0.0182985
0.0102277 0.2424077 -0.0057380
0.2570721 0.2447877 -0.0046625
0.4915586 0.2240620 -0.0135056
0.7319425 0.2104334 -0.0166619
0.9847009 0.2155241 -0.0144960
-0.0036548 0.4675469 -0.0194440
0.2416206 0.4577790 -0.0184285
0.4857288 0.4587959 -0.0175034
0.7363206 0.4698643 -0.0120433
0.9913807 0.4833538 -0.0088565
-0.0189416 0.6998078 -0.0337931
0.2247666 0.6858130 -0.0355462
0.4801078 0.7032862 -0.0269750
0.7401869 0.7311878 -0.0141901
0.9963000 0.7493636 -0.0086918
-0.0241923 0.9577400 -0.0387661
0.2200191 0.9463542 -0.0420824
0.4770574 0.9625375 -0.0339589
0.7388658 0.9905175 -0.0202368
0.9954184 1.0096198 -0.0125731
0.0019398 -0.0261728 0.2521284
0.2459426 -0.0297709 0.2498315
0.4820894 -0.0487488 0.2409430
0.7243035 -0.0593484 0.2349910
0.9789977 -0.0523722 0.2366090
0.0035973 0.2368033 0.2488937
0.2456406 0.2281548 0.2459807
0.4839720 0.2121337 0.2400893
0.7287969 0.2086717 0.2387252
0.9843896 0.2190172 0.2416037
-0.0089523 0.4698475 0.2342918
0.2361852 0.4648930 0.2345572
0.4854029 0.4687269 0.2385040
0.7400995 0.4820242 0.2466060
0.9955356 0.4942286 0.2509185
-0.0224155 0.7062715 0.2204888
0.2220927 0.6971214 0.2194564
0.4821341 0.7181059 0.2323074
0.7465321 0.7472496 0.2472688
1.0029758 0.7637252 0.2525651
-0.0264073 0.9645515 0.2189102
0.2171783 0.9528325 0.2155433
0.4778331 0.9708476 0.2265507
0.7435423 1.0016299 0.2421634
0.9995586 1.0196308 0.2487007
-0.0109002 -0.0545463 0.5063903
0.2313609 -0.0684777 0.5050787
0.4736334 -0.0768258 0.5003430
0.7252612 -0.0654533 0.4953212
0.9827050 -0.0483745 0.4935497
-0.0062340 0.2204968 0.5031249
0.2372776 0.2106274 0.5007124
0.4815169 0.2040924 0.4982452
0.7340219 0.2149135 0.4962204
0.9900910 0.2291597 0.4954782
-0.0100019 0.4799664 0.4954591
0.2382736 0.4790273 0.4956977
0.4885958 0.4819149 0.4966709
0.7432164 0.4911912 0.4991739
0.9983575 0.5011269 0.5012761
-0.0147046 0.7374043 0.4886819
0.2340776 0.7367053 0.4913498
0.4865537 0.7401114 0.4973633
0.7457152 0.7545114 0.5030428
1.0025351 0.7674927 0.5058939
-0.0202178 0.9906847 0.4891734
0.2257150 0.9850042 0.4924502
0.4791144 0.9879289 0.5002642
0.7400556 1.0050309 0.5068618
0.9968464 1.0205437 0.5078997
-0.0219201 -0.0811689 0.7622157
0.2223134 -0.0987578 0.7650258
0.4746859 -0.0901837 0.7618767
0.7330116 -0.0617972 0.7526701
0.9906241 -0.0394087 0.7475685
-0.0156493 0.2018720 0.7595486
0.2310447 0.1920043 0.7606192
0.4840171 0.2015324 0.7564428
0.7409937 0.2221388 0.7485936
0.9980778 0.2406572 0.7439712
-0.0086345 0.4908498 0.7587546
0.2416064 0.4917563 0.7577995
0.4916355 0.4904673 0.7532847
0.7447425 0.4965848 0.7491254
0.9995233 0.5060597 0.7462511
-0.0092351 0.7599812 0.7607652
0.2370089 0.7546841 0.7649016
0.4860273 0.7500128 0.7617722
0.7397274 0.7542247 0.7559755
0.9964356 0.7642412 0.7527432
-0.0162269 1.0101263 0.7627183
0.2275232 1.0022152 0.7714188
0.4743797 0.9968362 0.7747400
0.7297186 1.0019380 0.7688890
0.9891789 1.0159866 0.7627910
-0.0242275 -0.0849611 1.0170414
0.2239970 -0.0950082 1.0194715
0.4803218 -0.0826615 1.0160426
0.7408789 -0.0531214 1.0049833
0.9975033 -0.0309935 0.9991464
-0.0175397 0.1991097 1.0161390
0.2318422 0.1933643 1.0168696
0.4886234 0.2055824 1.0106423
0.7493399 0.2322064 0.9947084
1.0037445 0.2480614 0.9900414
-0.0098506 0.4900890 1.0175257
0.2414289 0.4928990 1.0161512
0.4937504 0.4955155 1.0073114
0.7471783 0.5013988 0.9962027
1.0012964 0.5109448 0.9911744
-0.0099253 0.7626750 1.0228956
0.2369671 0.7607473 1.0271117
0.4841345 0.7544702 1.0219281
0.7365635 0.7546859 1.0091687
0.9940000 0.7656821 1.0021738
-0.0157393 1.0173333 1.0268771
0.2275504 1.0099180 1.0355197
0.4720637 1.0016248 1.0365220
0.7258563 1.0038375 1.0255982
0.9863214 1.0183932 1.0162432
