ref/imx226_5500K_jzazbz_203.cube
TITLE "4480882448"
LUT_3D_SIZE 5
0.0061179 -0.0186520 -0.0091087
0.2534393 -0.0101146 -0.0114045
0.4894281 -0.0257129 -0.0218809
0.7285305 -0.0442752 -0.0264018
0.9797440 -0.0477800 -0.0214264
0.0087174 0.2361212 -0.0071627
0.2552094 0.2405899 -0.0080073
0.4893999 0.2255372 -0.0192393
0.7302186 0.2149022 -0.0215657
0.9834919 0.2178438 -0.0159194
-0.0023765 0.4621486 -0.0155370
0.2429320 0.4539410 -0.0144310
0.4860227 0.4581563 -0.0156581
0.7357161 0.4708748 -0.0113732
0.9904406 0.4830152 -0.0070483
-0.0159621 0.6953880 -0.0266212
0.2281997 0.6811941 -0.0264042
0.4821714 0.6982585 -0.0177144
0.7401891 0.7270269 -0.0071722
0.9953351 0.7453829 -0.0031334
-0.0211324 0.9532402 -0.0306857
0.2234185 0.9405237 -0.0312230
0.4792880 0.9553364 -0.0218451
0.7390850 0.9840234 -0.0103538
0.9945448 1.0042400 -0.0053351
-0.0008011 -0.0240643 0.2441623
0.2425321 -0.0248581 0.2388694
0.4791196 -0.0401711 0.2288120
0.7225329 -0.0504001 0.2258360
0.9781554 -0.0473743 0.2327980
0.0020316 0.2367693 0.2443512
0.2437856 0.2312698 0.2391871
0.4824102 0.2187591 0.2324046
0.7277415 0.2163141 0.2322179
0.9838410 0.2230499 0.2391369
-0.0078867 0.4696426 0.2344724
0.2368422 0.4667724 0.2336960
0.4853487 0.4715495 0.2369769
0.7393341 0.4843633 0.2454306
0.9945973 0.4951203 0.2510555
-0.0195304 0.7062309 0.2237146
0.2250637 0.6971295 0.2238631
0.4834404 0.7168841 0.2369872
0.7457231 0.7447403 0.2515315
1.0014357 0.7609229 0.2560046
-0.0234778 0.9645911 0.2222945
0.2203627 0.9514192 0.2216705
0.4796617 0.9674098 0.2347866
0.7430453 0.9980833 0.2486779
0.9980685 1.0170596 0.2525245
-0.0122387 -0.0465335 0.4984126
0.2297569 -0.0574710 0.4949781
0.4725694 -0.0643771 0.4900824
0.7253266 -0.0560848 0.4890264
0.9831750 -0.0440331 0.4919935
-0.0070378 0.2256177 0.4981068
0.2365210 0.2182138 0.4940600
0.4811718 0.2130945 0.4911605
0.7343077 0.2211458 0.4921079
0.9905888 0.2313437 0.4950131
-0.0096608 0.4840676 0.4916911
0.2383533 0.4838929 0.4913944
0.4884217 0.4866926 0.4926199
0.7427976 0.4940952 0.4967803
0.9977968 0.5019460 0.5007672
-0.0133499 0.7411763 0.4853165
0.2348483 0.7410895 0.4876057
0.4862200 0.7450150 0.4933943
0.7442914 0.7573888 0.5001297
1.0008073 0.7684939 0.5044329
-0.0187141 0.9968247 0.4839223
0.2269073 0.9928160 0.4864298
0.4789574 0.9964084 0.4942793
0.7383500 1.0117989 0.5014077
0.9948226 1.0251556 0.5036515
-0.0219188 -0.0688714 0.7544034
0.2223260 -0.0849313 0.7570149
0.4756783 -0.0786097 0.7570007
0.7347924 -0.0557778 0.7524773
0.9923019 -0.0379004 0.7503198
-0.0155685 0.2115117 0.7533150
0.2315635 0.2030128 0.7543437
0.4850011 0.2100728 0.7520985
0.7425094 0.2252993 0.7485335
0.9995889 0.2394150 0.7471945
-0.0089130 0.4984096 0.7515153
0.2412454 0.4987725 0.7507320
0.4914259 0.4965265 0.7471196
0.7446092 0.5001817 0.7453336
0.9995332 0.5065954 0.7453402
-0.0098063 0.7695620 0.7489558
0.2354474 0.7673987 0.7489773
0.4841205 0.7629357 0.7466495
0.7376162 0.7642134 0.7441959
0.9947623 0.7700098 0.7453832
-0.0165912 1.0245584 0.7464449
0.2264234 1.0230592 0.7486732
0.4720294 1.0210681 0.7488234
0.7269259 1.0223398 0.7474601
0.9866827 1.0291673 0.7485772
-0.0232608 -0.0703673 1.0091498
0.2252243 -0.0809977 1.0135144
0.4824004 -0.0732155 1.0151276
0.7435947 -0.0500197 1.0093467
0.9997990 -0.0314550 1.0048668
-0.0168467 0.2117153 1.0082864
0.2329410 0.2052750 1.0107179
0.4904876 0.2123867 1.0092455
0.7519317 0.2313041 0.9999118
1.0059585 0.2446298 0.9961585
-0.0102285 0.5016241 1.0067273
0.2407790 0.5033844 1.0057094
0.4933127 0.5032435 0.9986457
0.7472426 0.5049515 0.9915040
1.0016974 0.5111186 0.9900298
-0.0115523 0.7778366 1.0050185
0.2336929 0.7790993 1.0039739
0.4803303 0.7741969 0.9967999
0.7337935 0.7700224 0.9894339
0.9922205 0.7744147 0.9903236
-0.0175192 1.0380059 1.0031273
0.2242121 1.0375473 1.0035994
0.4676904 1.0339057 0.9997384
0.7220284 1.0309618 0.9948118
0.9834167 1.0361001 0.9955497
