ref/imx226_5000K_jzazbz_203.cube
TITLE "4483550352"
LUT_3D_SIZE 9
0.0066138 -0.0182393 -0.0075282
0.1319042 -0.0116659 -0.0071284
0.2542946 -0.0099128 -0.0091182
0.3732862 -0.0155145 -0.0137229
0.4903499 -0.0266080 -0.0192621
0.6083564 -0.0378818 -0.0232082
0.7294271 -0.0454481 -0.0242746
0.8537935 -0.0485568 -0.0229303
0.9803952 -0.0483564 -0.0204334
0.0096986 0.1144720 -0.0058103
0.1353250 0.1215617 -0.0046628
0.2575008 0.1234929 -0.0065348
0.3754272 0.1167065 -0.0119388
0.4912614 0.1037910 -0.0183378
0.6086846 0.0920812 -0.0224335
0.7298330 0.0852547 -0.0231298
0.8546688 0.0833436 -0.0213480
0.9817721 0.0846662 -0.0186275
0.0088673 0.2371143 -0.0067198
0.1340134 0.2414072 -0.0053467
0.2555994 0.2413180 -0.0070727
0.3733794 0.2348590 -0.0121469
0.4899453 0.2248876 -0.0176801
0.6085260 0.2170467 -0.0205185
0.7308689 0.2137996 -0.0201316
0.8565305 0.2144817 -0.0179322
0.9840518 0.2174381 -0.0153637
0.0041353 0.3512754 -0.0106847
0.1280977 0.3503866 -0.0097672
0.2495306 0.3479134 -0.0107934
0.3691523 0.3448353 -0.0134043
0.4879615 0.3415068 -0.0166460
0.6088459 0.3402403 -0.0174541
0.7330116 0.3419633 -0.0157579
0.8595632 0.3457350 -0.0133150
0.9872513 0.3503391 -0.0112397
-0.0028950 0.4627785 -0.0165268
0.1203147 0.4578812 -0.0158218
0.2425405 0.4544942 -0.0155104
0.3641309 0.4544901 -0.0158495
0.4859155 0.4581894 -0.0161810
0.6098994 0.4640943 -0.0144214
0.7359246 0.4705791 -0.0115489
0.8632014 0.4771502 -0.0090008
0.9908277 0.4831674 -0.0074506
-0.0104978 0.5766187 -0.0228794
0.1119767 0.5692017 -0.0226906
0.2347948 0.5654768 -0.0217523
0.3585258 0.5681699 -0.0201575
0.4840392 0.5776213 -0.0171558
0.6110325 0.5890563 -0.0129714
0.7386497 0.5993774 -0.0090883
0.8664280 0.6081618 -0.0063900
0.9938814 0.6152989 -0.0051024
-0.0170421 0.6956067 -0.0284570
0.1043501 0.6862410 -0.0294471
0.2272210 0.6819045 -0.0288597
0.3529879 0.6865230 -0.0257519
0.4816015 0.6993840 -0.0201805
0.6111922 0.7147140 -0.0139373
0.7401982 0.7279431 -0.0090046
0.8683290 0.7382884 -0.0059626
0.9956426 0.7462610 -0.0045839
-0.0210686 0.8213325 -0.0318783
0.0998597 0.8116418 -0.0335983
0.2227518 0.8069981 -0.0334507
0.3493794 0.8116674 -0.0299822
0.4794183 0.8251957 -0.0234715
0.6103721 0.8418231 -0.0162857
0.7401761 0.8563101 -0.0107003
0.8685425 0.8674977 -0.0072557
0.9958398 0.8760550 -0.0055492
-0.0223901 0.9532411 -0.0326667
0.0990005 0.9450462 -0.0342192
0.2222762 0.9412521 -0.0340288
0.3488850 0.9451628 -0.0308748
0.4785673 0.9566760 -0.0249875
0.6092097 0.9714804 -0.0183564
0.7389435 0.9852026 -0.0129331
0.8673561 0.9963591 -0.0093204
0.9947091 1.0051304 -0.0072923
0.0041706 -0.0188329 0.1196909
0.1285590 -0.0140081 0.1193622
0.2500086 -0.0142954 0.1166044
0.3684534 -0.0210571 0.1114782
0.4855006 -0.0319075 0.1056841
0.6038668 -0.0421263 0.1016933
0.7256891 -0.0484315 0.1009381
0.8511348 -0.0501682 0.1029575
0.9788577 -0.0485834 0.1061951
0.0071999 0.1148078 0.1211218
0.1316638 0.1197168 0.1213002
0.2525157 0.1185469 0.1183751
0.3698513 0.1099734 0.1125365
0.4861083 0.0978054 0.1062700
0.6041426 0.0879320 0.1023354
0.7261476 0.0828620 0.1020327
0.8521904 0.0825359 0.1045987
0.9804752 0.0852424 0.1081710
0.0063177 0.2385404 0.1197357
0.1303183 0.2410641 0.1201197
0.2503961 0.2374084 0.1171487
0.3679742 0.2292098 0.1120249
0.4858764 0.2212261 0.1075104
0.6052397 0.2153299 0.1051177
0.7282590 0.2134931 0.1059495
0.8549033 0.2153977 0.1088317
0.9834097 0.2193704 0.1120970
0.0014313 0.3534920 0.1150224
0.1244981 0.3520628 0.1150764
0.2451880 0.3486056 0.1133723
0.3654074 0.3451585 0.1112515
0.4857204 0.3429429 0.1093408
0.6075971 0.3427695 0.1094551
0.7323212 0.3450423 0.1118621
0.8594206 0.3492222 0.1148938
0.9877127 0.3541832 0.1173448
-0.0057874 0.4651849 0.1084077
0.1169542 0.4609156 0.1084869
0.2392046 0.4589786 0.1087184
0.3613971 0.4592576 0.1088036
0.4847533 0.4632066 0.1099406
0.6102175 0.4698664 0.1133413
0.7369847 0.4765900 0.1173893
0.8647333 0.4832521 0.1206311
0.9926262 0.4890777 0.1222808
-0.0135033 0.5786574 0.1015950
0.1086238 0.5719348 0.1011782
0.2317117 0.5697263 0.1023073
0.3563149 0.5734912 0.1046048
0.4838250 0.5843303 0.1095063
0.6124137 0.5965755 0.1155657
0.7410339 0.6073507 0.1207789
0.8693324 0.6161902 0.1241343
0.9967737 0.6227598 0.1253048
-0.0199851 0.6972093 0.0960620
0.1007225 0.6874370 0.0941843
0.2236193 0.6836102 0.0948358
0.3506784 0.6898773 0.0991389
0.4816058 0.7052073 0.1068453
0.6132311 0.7225982 0.1152003
0.7433861 0.7367605 0.1213620
0.8718880 0.7470568 0.1248028
0.9989423 0.7542306 0.1258982
-0.0237023 0.8229882 0.0932036
0.0964130 0.8121522 0.0905568
0.2191028 0.8070250 0.0905793
0.3469275 0.8128887 0.0952346
0.4793102 0.8292495 0.1038309
0.6124803 0.8487771 0.1130258
0.7433954 0.8645638 0.1196546
0.8719007 0.8756918 0.1232639
0.9988197 0.8835231 0.1246209
-0.0245980 0.9552965 0.0932342
0.0961677 0.9460420 0.0910344
0.2192095 0.9414233 0.0910627
0.3467020 0.9459235 0.0950645
0.4783102 0.9596722 0.1026129
0.6107973 0.9769185 0.1108190
0.7414137 0.9918944 0.1170290
0.8698689 1.0031836 0.1206991
0.9969398 1.0116027 0.1224240
-0.0002862 -0.0248809 0.2461841
0.1228899 -0.0231637 0.2449987
0.2433059 -0.0263512 0.2416609
0.3616934 -0.0338194 0.2367711
0.4798628 -0.0425864 0.2318607
0.5998965 -0.0494069 0.2286501
0.7233030 -0.0525061 0.2282886
0.8499599 -0.0518248 0.2304986
0.9785501 -0.0485131 0.2338567
0.0028090 0.1101902 0.2471569
0.1258063 0.1116113 0.2460512
0.2453914 0.1067406 0.2423177
0.3629257 0.0973394 0.2370293
0.4810564 0.0882038 0.2324532
0.6010482 0.0823006 0.2296057
0.7245020 0.0804661 0.2294660
0.8516729 0.0824717 0.2321123
0.9806387 0.0865609 0.2357872
0.0023279 0.2365299 0.2455385
0.1248700 0.2362705 0.2444872
0.2442013 0.2302435 0.2409063
0.3626350 0.2222576 0.2367317
0.4828057 0.2168976 0.2343164
0.6044385 0.2144165 0.2332765
0.7281700 0.2144197 0.2339111
0.8553680 0.2176343 0.2366227
0.9841607 0.2221914 0.2398655
-0.0018253 0.3547307 0.2408934
0.1205152 0.3529472 0.2400984
0.2408962 0.3490121 0.2378193
0.3619757 0.3460288 0.2362055
0.4845697 0.3450408 0.2362530
0.6085806 0.3465360 0.2375813
0.7340074 0.3498024 0.2402103
0.8610338 0.3539455 0.2431750
0.9891789 0.3585837 0.2455561
-0.0082521 0.4693751 0.2343442
0.1145179 0.4670402 0.2341422
0.2366529 0.4661221 0.2338274
0.3597745 0.4667754 0.2344171
0.4853467 0.4707304 0.2372765
0.6120540 0.4769096 0.2411626
0.7395205 0.4837327 0.2456736
0.8672775 0.4899004 0.2493346
0.9948902 0.4949800 0.2510416
-0.0150528 0.5852814 0.2276807
0.1074509 0.5811985 0.2271966
0.2312235 0.5816449 0.2286847
0.3568653 0.5864583 0.2319033
0.4851801 0.5952713 0.2373532
0.6142842 0.6054041 0.2433648
0.7437412 0.6157593 0.2492567
0.8723951 0.6241122 0.2532451
0.9996355 0.6298187 0.2544490
-0.0204776 0.7057148 0.2227959
0.1006823 0.6983391 0.2210646
0.2242604 0.6969166 0.2225645
0.3520606 0.7042305 0.2279530
0.4830791 0.7171311 0.2356547
0.6150165 0.7319870 0.2438784
0.7459112 0.7453688 0.2504037
0.8749260 0.7552778 0.2541666
1.0018183 0.7616048 0.2551151
-0.0236267 0.8321342 0.2207527
0.0968358 0.8230942 0.2183407
0.2198007 0.8192619 0.2190687
0.3478037 0.8249306 0.2245556
0.4806918 0.8399739 0.2335242
0.6143201 0.8578317 0.2427145
0.7456648 0.8726188 0.2492797
0.8744166 0.8832627 0.2527484
1.0011049 0.8903311 0.2537411
-0.0245831 0.9637853 0.2214029
0.0963246 0.9555814 0.2194476
0.2193674 0.9513052 0.2199470
0.3469331 0.9551806 0.2245152
0.4791122 0.9680884 0.2325250
0.6122172 0.9845446 0.2408711
0.7431075 0.9988276 0.2468950
0.8715262 1.0096040 0.2501828
0.9983644 1.0174662 0.2514196
-0.0058662 -0.0352386 0.3728746
0.1164209 -0.0367630 0.3714198
0.2363182 -0.0423550 0.3682141
0.3551584 -0.0498277 0.3641953
0.4751409 -0.0554628 0.3606747
0.5978400 -0.0573115 0.3586584
0.7232345 -0.0561471 0.3585013
0.8509297 -0.0525238 0.3601357
0.9799553 -0.0474391 0.3627345
-0.0024878 0.1016114 0.3734868
0.1197665 0.1001868 0.3718252
0.2389803 0.0932585 0.3681283
0.3571992 0.0842205 0.3639757
0.4774775 0.0787449 0.3611548
0.6008222 0.0783644 0.3599273
0.7261070 0.0800942 0.3598539
0.8537428 0.0840879 0.3615571
0.9827361 0.0892625 0.3643222
-0.0020442 0.2317685 0.3720711
0.1200020 0.2297066 0.3703315
0.2395153 0.2229976 0.3668642
0.3593504 0.2165078 0.3640913
0.4811554 0.2133383 0.3627967
0.6054520 0.2142934 0.3628524
0.7310009 0.2171853 0.3635666
0.8582727 0.2214758 0.3653177
0.9866382 0.2261758 0.3676994
-0.0048075 0.3551074 0.3681734
0.1173548 0.3530642 0.3668135
0.2385491 0.3497383 0.3647491
0.3609511 0.3475834 0.3640283
0.4846069 0.3471996 0.3643315
0.6101259 0.3498343 0.3658436
0.7367814 0.3541465 0.3681272
0.8639443 0.3586870 0.3705007
0.9915932 0.3630323 0.3725169
-0.0095642 0.4752534 0.3625008
0.1136050 0.4744017 0.3622432
0.2366784 0.4744007 0.3621144
0.3611403 0.4755461 0.3632958
0.4866947 0.4784281 0.3652794
0.6137429 0.4833365 0.3683531
0.7415948 0.4891459 0.3719534
0.8695804 0.4948948 0.3753706
0.9969071 0.4994238 0.3773049
-0.0142460 0.5967353 0.3568862
0.1091732 0.5953610 0.3569031
0.2340170 0.5976987 0.3589746
0.3597486 0.6012188 0.3618819
0.4866076 0.6059658 0.3655075
0.6153565 0.6134748 0.3700850
0.7450015 0.6220978 0.3750527
0.8739627 0.6295277 0.3790786
1.0011828 0.6344980 0.3805901
-0.0178564 0.7212168 0.3530840
0.1047819 0.7177708 0.3524742
0.2291968 0.7183536 0.3548387
0.3560152 0.7233441 0.3594653
0.4846836 0.7307832 0.3649632
0.6150998 0.7406943 0.3709678
0.7461834 0.7518237 0.3767907
0.8756882 0.7607694 0.3805310
1.0027554 0.7663824 0.3815624
-0.0205481 0.8484813 0.3516648
0.1014330 0.8435609 0.3506398
0.2248380 0.8415011 0.3523086
0.3513624 0.8447455 0.3572165
0.4820056 0.8545990 0.3642199
0.6141154 0.8670412 0.3713138
0.7452185 0.8788455 0.3768934
0.8743016 0.8883576 0.3799212
1.0012987 0.8948559 0.3807018
-0.0223057 0.9782093 0.3523249
0.0995531 0.9730069 0.3515489
0.2227590 0.9700400 0.3529186
0.3491620 0.9719570 0.3572698
0.4796727 0.9805791 0.3639942
0.6118380 0.9931620 0.3707504
0.7422960 1.0047864 0.3756108
0.8708000 1.0143110 0.3781804
0.9979001 1.0216064 0.3789329
-0.0119874 -0.0486216 0.5001797
0.1098459 -0.0533268 0.4993588
0.2301323 -0.0602839 0.4972756
0.3503231 -0.0664208 0.4946592
0.4728254 -0.0675513 0.4923777
0.5981634 -0.0639809 0.4908722
0.7253333 -0.0584435 0.4903680
0.8538657 -0.0518324 0.4909317
0.9829774 -0.0451877 0.4922408
-0.0084894 0.0896024 0.5004287
0.1137289 0.0858832 0.4993213
0.2338304 0.0789222 0.4967251
0.3535742 0.0719178 0.4940588
0.4763664 0.0709586 0.4923826
0.6021315 0.0750638 0.4914735
0.7292258 0.0804787 0.4911125
0.8576660 0.0869856 0.4917317
0.9865018 0.0931588 0.4931269
-0.0068523 0.2243310 0.4992584
0.1158318 0.2217027 0.4980529
0.2367126 0.2162931 0.4955955
0.3581247 0.2119068 0.4937488
0.4812571 0.2108161 0.4927520
0.6069824 0.2140884 0.4926244
0.7342405 0.2195833 0.4929923
0.8623326 0.2255968 0.4937874
0.9904399 0.2308092 0.4950607
-0.0076593 0.3546756 0.4964264
0.1154073 0.3528297 0.4955042
0.2380495 0.3504634 0.4941275
0.3613098 0.3491940 0.4932663
0.4858655 0.3500306 0.4931746
0.6118945 0.3529570 0.4939285
0.7391464 0.3573897 0.4952376
0.8667691 0.3622547 0.4965750
0.9943035 0.3667818 0.4979046
-0.0097765 0.4829604 0.4925175
0.1140836 0.4824038 0.4923471
0.2383274 0.4826108 0.4923589
0.3628722 0.4833631 0.4926011
0.4884707 0.4854465 0.4935420
0.6152804 0.4889666 0.4952484
0.7429070 0.4933440 0.4973322
0.8704887 0.4974443 0.4992659
0.9979162 0.5017355 0.5008875
-0.0117393 0.6116213 0.4887161
0.1125443 0.6116735 0.4890633
0.2373943 0.6126749 0.4903184
0.3623134 0.6135986 0.4918849
0.4883118 0.6160162 0.4938775
0.6158211 0.6204419 0.4963581
0.7445655 0.6260742 0.4991089
0.8734364 0.6319284 0.5017999
1.0008057 0.6363282 0.5034092
-0.0137811 0.7400157 0.4860492
0.1103266 0.7398965 0.4864064
0.2346324 0.7398833 0.4883699
0.3599730 0.7410912 0.4911677
0.4863051 0.7437219 0.4942388
0.6144751 0.7488312 0.4974306
0.7446486 0.7566179 0.5008229
0.8737319 0.7632693 0.5036029
1.0011839 0.7681415 0.5048060
-0.0164532 0.8674664 0.4849008
0.1069002 0.8662112 0.4852757
0.2302975 0.8647952 0.4872712
0.3550987 0.8648899 0.4907105
0.4825836 0.8688535 0.4947203
0.6124005 0.8762472 0.4985854
0.7421605 0.8837738 0.5020855
0.8711521 0.8909091 0.5043530
0.9989147 0.8967420 0.5050771
-0.0192883 0.9948701 0.4851062
0.1034051 0.9925526 0.4856554
0.2265376 0.9906696 0.4876218
0.3513540 0.9906321 0.4910995
0.4789841 0.9942613 0.4954392
0.6093018 1.0022713 0.4995303
0.7387178 1.0100458 0.5025654
0.8672902 1.0172676 0.5041913
0.9951973 1.0237921 0.5045742
-0.0178207 -0.0622599 0.6279315
0.1037759 -0.0699263 0.6282730
0.2251934 -0.0773053 0.6279739
0.3477800 -0.0806503 0.6270030
0.4731489 -0.0767422 0.6253708
0.6006784 -0.0682738 0.6234456
0.7292277 -0.0587788 0.6219551
0.8582191 -0.0497689 0.6212656
0.9871047 -0.0420388 0.6213471
-0.0146123 0.0764922 0.6277733
0.1074434 0.0699038 0.6278494
0.2292623 0.0636993 0.6272166
0.3519951 0.0612583 0.6259091
0.4773965 0.0649920 0.6244241
0.6047010 0.0724705 0.6227706
0.7334244 0.0817567 0.6214646
0.8626254 0.0906552 0.6209473
0.9912048 0.0975805 0.6211604
-0.0119289 0.2155406 0.6266676
0.1110081 0.2112509 0.6264742
0.2339777 0.2078733 0.6255812
0.3578244 0.2074104 0.6241942
0.4826339 0.2091385 0.6229801
0.6093853 0.2142822 0.6220969
0.7377034 0.2218058 0.6214648
0.8667752 0.2297087 0.6211839
0.9948495 0.2355429 0.6214478
-0.0102133 0.3538100 0.6249725
0.1136567 0.3520166 0.6247205
0.2378622 0.3509509 0.6238524
0.3622696 0.3506493 0.6227546
0.4874865 0.3520315 0.6219352
0.6137548 0.3552538 0.6215568
0.7414218 0.3602027 0.6217701
0.8694182 0.3654745 0.6219865
0.9971755 0.3704307 0.6223308
-0.0092739 0.4908090 0.6231601
0.1152488 0.4906996 0.6231682
0.2398279 0.4900654 0.6224828
0.3646004 0.4897201 0.6217408
0.4900669 0.4906697 0.6213962
0.6165079 0.4932183 0.6215579
0.7436916 0.4964112 0.6221247
0.8710140 0.4997531 0.6228335
0.9986142 0.5038650 0.6234135
-0.0093370 0.6253992 0.6212643
0.1148833 0.6253313 0.6216874
0.2396883 0.6250600 0.6215024
0.3644050 0.6243421 0.6214338
0.4895883 0.6242591 0.6216041
0.6159753 0.6259198 0.6220864
0.7439271 0.6297870 0.6228040
0.8719308 0.6335590 0.6236644
0.9994173 0.6371766 0.6246574
-0.0107956 0.7562952 0.6195670
0.1132103 0.7567517 0.6203026
0.2370191 0.7554122 0.6210963
0.3615490 0.7543067 0.6219625
0.4865518 0.7537909 0.6227815
0.6133104 0.7556126 0.6234571
0.7417106 0.7598024 0.6239518
0.8701377 0.7640830 0.6250567
0.9981190 0.7682627 0.6261202
-0.0137100 0.8837077 0.6185254
0.1097119 0.8837992 0.6196815
0.2327208 0.8822904 0.6212855
0.3562285 0.8801932 0.6231460
0.4815807 0.8803289 0.6245755
0.6093153 0.8834775 0.6252863
0.7374654 0.8870808 0.6260120
0.8663135 0.8918566 0.6269403
0.9949627 0.8969760 0.6275741
-0.0172234 1.0096886 0.6182113
0.1054005 1.0086627 0.6196576
0.2278778 1.0069275 0.6216783
0.3511879 1.0055519 0.6239995
0.4767173 1.0064676 0.6259220
0.6048301 1.0101764 0.6271226
0.7332531 1.0141352 0.6280068
0.8621348 1.0189989 0.6284987
0.9911063 1.0246911 0.6286436
-0.0219983 -0.0720658 0.7558101
0.0996729 -0.0813232 0.7571962
0.2222868 -0.0884015 0.7584477
0.3473495 -0.0890281 0.7589276
0.4753564 -0.0814566 0.7576844
0.6047214 -0.0695350 0.7549535
0.7341948 -0.0573118 0.7521212
0.8632300 -0.0467907 0.7501978
0.9916356 -0.0384523 0.7494035
-0.0190977 0.0669458 0.7554550
0.1027820 0.0583813 0.7565581
0.2257543 0.0523808 0.7575735
0.3512738 0.0530874 0.7576735
0.4796887 0.0613929 0.7559766
0.6089077 0.0722513 0.7531395
0.7387384 0.0843014 0.7501814
0.8679851 0.0945255 0.7483213
0.9960154 0.1018114 0.7477908
-0.0155908 0.2091739 0.7544946
0.1072720 0.2034459 0.7551407
0.2314547 0.2004251 0.7555196
0.3575552 0.2024810 0.7547747
0.4847380 0.2080747 0.7528245
0.6127467 0.2153418 0.7507638
0.7420794 0.2246125 0.7483280
0.8712964 0.2334752 0.7466331
0.9991043 0.2397358 0.7463495
-0.0118273 0.3534147 0.7536228
0.1123905 0.3515144 0.7539481
0.2376437 0.3509644 0.7534907
0.3633687 0.3516441 0.7520001
0.4893283 0.3537258 0.7501145
0.6162338 0.3577004 0.7483936
0.7440189 0.3628991 0.7471014
0.8721156 0.3685309 0.7459355
1.0000100 0.3739684 0.7456473
-0.0088259 0.4966039 0.7531254
0.1161288 0.4973701 0.7534263
0.2413458 0.4970485 0.7523504
0.3661622 0.4952536 0.7504237
0.4914939 0.4950088 0.7485363
0.6177615 0.4965535 0.7469807
0.7446578 0.4992661 0.7462350
0.8717865 0.5023215 0.7458235
0.9995084 0.5064019 0.7455678
-0.0079955 0.6349611 0.7525958
0.1163053 0.6358671 0.7532191
0.2405149 0.6343700 0.7522506
0.3650383 0.6319412 0.7502845
0.4900144 0.6304777 0.7484867
0.6157469 0.6303791 0.7472375
0.7428624 0.6324367 0.7462484
0.8704054 0.6348942 0.7455561
0.9981041 0.6381821 0.7458748
-0.0096234 0.7672056 0.7517779
0.1135132 0.7673774 0.7528805
0.2358357 0.7641071 0.7528106
0.3596848 0.7612694 0.7516374
0.4846045 0.7595450 0.7502977
0.6108933 0.7600034 0.7487488
0.7381762 0.7615176 0.7471513
0.8665475 0.7643158 0.7465533
0.9951174 0.7683092 0.7472502
-0.0128574 0.8949768 0.7509393
0.1096062 0.8948386 0.7525653
0.2313197 0.8922949 0.7535496
0.3536117 0.8888936 0.7536434
0.4780546 0.8870597 0.7528974
0.6046652 0.8875527 0.7511321
0.7324079 0.8889901 0.7496270
0.8616284 0.8923358 0.7491035
0.9910909 0.8970476 0.7495819
-0.0165128 1.0208772 0.7503169
0.1053696 1.0200046 0.7522433
0.2266969 1.0178088 0.7540209
0.3485975 1.0155824 0.7551255
0.4726005 1.0148724 0.7549930
0.5991999 1.0154338 0.7537596
0.7275770 1.0169880 0.7526441
0.8571314 1.0203022 0.7520426
0.9871215 1.0254880 0.7520534
-0.0237574 -0.0757932 0.8834271
0.0986100 -0.0844455 0.8853771
0.2223723 -0.0903043 0.8873742
0.3489527 -0.0895297 0.8885873
0.4783626 -0.0810959 0.8877142
0.6089464 -0.0680472 0.8845427
0.7390295 -0.0546575 0.8806863
0.8679343 -0.0434613 0.8778561
0.9957914 -0.0349072 0.8765310
-0.0209006 0.0635889 0.8831529
0.1015360 0.0553962 0.8848460
0.2255176 0.0501962 0.8866280
0.3525224 0.0517307 0.8875618
0.4824228 0.0606390 0.8861546
0.6136912 0.0741807 0.8820183
0.7442661 0.0877031 0.8772643
0.8729502 0.0980767 0.8743183
1.0002015 0.1053678 0.8734413
-0.0170029 0.2071895 0.8824306
0.1062793 0.2016426 0.8835898
0.2310817 0.1987137 0.8845138
0.3582534 0.2007970 0.8843161
0.4871566 0.2076458 0.8820837
0.6172290 0.2178206 0.8778761
0.7472017 0.2283922 0.8734329
0.8756708 0.2369595 0.8706642
1.0027147 0.2430305 0.8702757
-0.0125328 0.3535853 0.8819286
0.1120347 0.3518705 0.8825907
0.2376460 0.3512991 0.8822620
0.3644005 0.3526841 0.8805000
0.4916803 0.3556850 0.8774591
0.6192097 0.3601844 0.8740807
0.7471172 0.3658474 0.8711675
0.8750927 0.3716365 0.8685246
1.0025562 0.3769195 0.8681323
-0.0090221 0.4989510 0.8818801
0.1161955 0.5001872 0.8823568
0.2416710 0.5003555 0.8811101
0.3672706 0.4995398 0.8781808
0.4928092 0.4985896 0.8746313
0.6191368 0.4994633 0.8716554
0.7460676 0.5020293 0.8694154
0.8729777 0.5046114 0.8676766
1.0005113 0.5086534 0.8673937
-0.0080908 0.6390969 0.8819176
0.1164024 0.6409723 0.8826514
0.2405280 0.6402226 0.8814452
0.3648755 0.6376549 0.8782882
0.4893554 0.6343939 0.8744814
0.6152336 0.6333116 0.8715479
0.7420282 0.6341361 0.8689522
0.8693545 0.6359630 0.8674561
0.9973533 0.6395366 0.8677055
-0.0098717 0.7727231 0.8816839
0.1131143 0.7736136 0.8829563
0.2351940 0.7712904 0.8826598
0.3579959 0.7677310 0.8805214
0.4822670 0.7645138 0.8771300
0.6083949 0.7633563 0.8733103
0.7354446 0.7629892 0.8701830
0.8640437 0.7651651 0.8688172
0.9931436 0.7693073 0.8693930
-0.0131283 0.9016823 0.8812007
0.1087332 0.9016020 0.8829705
0.2296267 0.8990436 0.8837275
0.3510766 0.8955795 0.8829284
0.4746912 0.8929466 0.8804619
0.6007777 0.8917166 0.8766938
0.7288362 0.8915184 0.8734690
0.8584381 0.8937173 0.8720351
0.9885039 0.8982673 0.8724056
-0.0165943 1.0284650 0.8806001
0.1047502 1.0277167 0.8826057
0.2252426 1.0253470 0.8840734
0.3462035 1.0227121 0.8843132
0.4691829 1.0208699 0.8828356
0.5951198 1.0197826 0.8800333
0.7237325 1.0199405 0.8773641
0.8538169 1.0223795 0.8759427
0.9845095 1.0274146 0.8758634
-0.0236282 -0.0743851 1.0104122
0.0998788 -0.0809369 1.0123866
0.2247520 -0.0848582 1.0143153
0.3520196 -0.0834364 1.0154748
0.4816966 -0.0757737 1.0147474
0.6124731 -0.0638022 1.0117924
0.7426629 -0.0510200 1.0078825
0.8714073 -0.0400922 1.0048089
0.9988704 -0.0317536 1.0032784
-0.0207525 0.0651955 1.0102700
0.1028594 0.0590818 1.0120152
0.2278919 0.0555253 1.0136968
0.3555228 0.0573292 1.0145125
0.4858099 0.0653779 1.0131357
0.6174087 0.0779241 1.0089539
0.7480389 0.0908555 1.0037430
0.8763747 0.1009485 1.0002889
1.0031204 0.1081229 0.9992819
-0.0170160 0.2085470 1.0097194
0.1071710 0.2044116 1.0109317
0.2326171 0.2022863 1.0117360
0.3602137 0.2042175 1.0114411
0.4899566 0.2107939 1.0091033
0.6209427 0.2210166 1.0041870
0.7511940 0.2316928 0.9984523
0.8789326 0.2397073 0.9951694
1.0052502 0.2454866 0.9949046
-0.0129940 0.3542053 1.0092486
0.1120472 0.3530209 1.0098822
0.2379306 0.3527050 1.0094343
0.3650442 0.3541970 1.0075054
0.4932826 0.3577965 1.0040672
0.6219315 0.3629890 0.9994373
0.7503490 0.3689367 0.9947273
0.8778340 0.3744356 0.9916208
1.0045306 0.3793846 0.9917011
-0.0100272 0.4989140 1.0091349
0.1153369 0.5001429 1.0094668
0.2409636 0.5007736 1.0081093
0.3669809 0.5009757 1.0049114
0.4934324 0.5012583 1.0006554
0.6203035 0.5022520 0.9962864
0.7472517 0.5040418 0.9926303
0.8742424 0.5067334 0.9902968
1.0015838 0.5110348 0.9905252
-0.0093521 0.6393210 1.0092577
0.1152395 0.6412627 1.0097357
0.2395173 0.6414064 1.0083959
0.3639430 0.6399684 1.0050407
0.4889912 0.6378969 1.0005286
0.6149967 0.6363649 0.9959793
0.7416686 0.6360923 0.9924199
0.8691784 0.6378576 0.9906600
0.9974142 0.6418280 0.9911490
-0.0109716 0.7742468 1.0093600
0.1121920 0.7754892 1.0102980
0.2345915 0.7744009 1.0097561
0.3572700 0.7717544 1.0073119
0.4813238 0.7689204 1.0031855
0.6071475 0.7667048 0.9982964
0.7345038 0.7657964 0.9944471
0.8632210 0.7676455 0.9927857
0.9925606 0.7718195 0.9933474
-0.0138476 0.9048508 1.0092796
0.1081374 0.9051254 1.0106755
0.2291593 0.9032408 1.0110319
0.3505193 0.9002876 1.0097441
0.4736615 0.8975142 1.0065644
0.5994504 0.8955103 1.0021570
0.7277332 0.8948722 0.9983355
0.8574140 0.8967469 0.9965376
0.9877130 0.9012682 0.9968251
-0.0169250 1.0329853 1.0089314
0.1045500 1.0326311 1.0105864
0.2251192 1.0305787 1.0115129
0.3460109 1.0278989 1.0111089
0.4687580 1.0255181 1.0089958
0.5944271 1.0238685 1.0056757
0.7228793 1.0237127 1.0025588
0.8529995 1.0260632 1.0008672
0.9838809 1.0311306 1.0007687
