ref/imx226_4500K_jzazbz_203.cube
TITLE "4521691280"
LUT_3D_SIZE 5
0.0082772 -0.0160519 -0.0057076
0.2558651 -0.0087314 -0.0064355
0.4915520 -0.0271714 -0.0162637
0.7299607 -0.0471608 -0.0221131
0.9806257 -0.0494997 -0.0195118
0.0097713 0.2396425 -0.0061664
0.2562947 0.2426976 -0.0059277
0.4905348 0.2242056 -0.0158867
0.7310659 0.2119212 -0.0187821
0.9840801 0.2163078 -0.0150488
-0.0030324 0.4647737 -0.0177551
0.2421369 0.4556801 -0.0168002
0.4857539 0.4581218 -0.0168362
0.7360000 0.4700125 -0.0118765
0.9909536 0.4830864 -0.0081123
-0.0176936 0.6971096 -0.0309102
0.2261596 0.6831814 -0.0319396
0.4809347 0.7007532 -0.0232849
0.7402354 0.7292479 -0.0113354
0.9959808 0.7476610 -0.0064024
-0.0229557 0.9548024 -0.0356133
0.2214365 0.9430856 -0.0378619
0.4780939 0.9591128 -0.0291125
0.7391887 0.9877312 -0.0162296
0.9953310 1.0074941 -0.0096947
0.0010926 -0.0248306 0.2486739
0.2446331 -0.0276042 0.2451862
0.4808434 -0.0452806 0.2357528
0.7235176 -0.0556900 0.2310311
0.9785757 -0.0503342 0.2349933
0.0030496 0.2368109 0.2470144
0.2448621 0.2292868 0.2431302
0.4832735 0.2146879 0.2367716
0.7283057 0.2116905 0.2358826
0.9841158 0.2206246 0.2405496
-0.0084865 0.4695831 0.2342773
0.2364463 0.4654873 0.2340775
0.4853437 0.4697545 0.2377342
0.7397545 0.4829511 0.2460300
0.9951446 0.4946526 0.2509715
-0.0212316 0.7058533 0.2216127
0.2233106 0.6968414 0.2210072
0.4826709 0.7175059 0.2340804
0.7462269 0.7462737 0.2490352
1.0024028 0.7627110 0.2540164
-0.0252395 0.9639643 0.2200033
0.2184783 0.9517907 0.2176697
0.4786593 0.9693475 0.2297279
0.7435150 1.0003890 0.2447441
0.9991937 1.0189341 0.2501083
-0.0112388 -0.0507354 0.5026078
0.2307725 -0.0636423 0.5004389
0.4732021 -0.0715109 0.4956175
0.7252916 -0.0614345 0.4923223
0.9828725 -0.0465326 0.4927115
-0.0065189 0.2227570 0.5008199
0.2369741 0.2138749 0.4977026
0.4813654 0.2079110 0.4949796
0.7341300 0.2175547 0.4942692
0.9902847 0.2300857 0.4951993
-0.0098679 0.4816423 0.4937103
0.2383043 0.4810288 0.4937131
0.4885290 0.4838951 0.4948196
0.7430446 0.4924035 0.4980905
0.9981029 0.5014674 0.5010524
-0.0141919 0.7387719 0.4870669
0.2343790 0.7384338 0.4895162
0.4864193 0.7421258 0.4954713
0.7451342 0.7557043 0.5017577
1.0018410 0.7679483 0.5052774
-0.0196647 0.9929742 0.4866362
0.2262066 0.9882264 0.4894019
0.4790633 0.9915750 0.4972482
0.7394196 1.0080731 0.5042459
0.9962046 1.0228671 0.5058377
-0.0217631 -0.0755736 0.7581836
0.2223832 -0.0926056 0.7608545
0.4751002 -0.0849806 0.7590519
0.7337565 -0.0590133 0.7519979
0.9913082 -0.0387085 0.7483614
-0.0155889 0.2061546 0.7564874
0.2312856 0.1969331 0.7574449
0.4844332 0.2053939 0.7541211
0.7416211 0.2236686 0.7482362
0.9987026 0.2402162 0.7451825
-0.0087679 0.4941138 0.7555257
0.2414727 0.4948084 0.7546149
0.4915763 0.4930708 0.7505045
0.7447119 0.4981051 0.7474374
0.9995339 0.5062579 0.7458733
-0.0095538 0.7639279 0.7556724
0.2362987 0.7599486 0.7579733
0.4852119 0.7553385 0.7551583
0.7388606 0.7582427 0.7509546
0.9957803 0.7665930 0.7496628
-0.0164842 1.0161214 0.7555916
0.2269767 1.0110894 0.7613392
0.4732755 1.0070183 0.7633200
0.7286336 1.0106086 0.7594485
0.9883560 1.0218672 0.7565239
-0.0237150 -0.0785422 1.0128148
0.2245500 -0.0889134 1.0159897
0.4812023 -0.0784590 1.0147238
0.7420219 -0.0516998 1.0061127
0.9984562 -0.0312966 1.0010754
-0.0172583 0.2045848 1.0122838
0.2322854 0.1985779 1.0136363
0.4893935 0.2087265 1.0094540
0.7504273 0.2320847 0.9965026
1.0046588 0.2466320 0.9924244
-0.0100602 0.4950037 1.0127951
0.2411607 0.4973722 1.0115641
0.4936010 0.4987775 1.0035271
0.7472455 0.5028762 0.9941614
1.0015011 0.5109691 0.9907174
-0.0106997 0.7689956 1.0153485
0.2355435 0.7682956 1.0173601
0.4825356 0.7624398 1.0113968
0.7354531 0.7608106 1.0009046
0.9933553 0.7692408 0.9972699
-0.0165822 1.0260590 1.0167512
0.2260513 1.0215423 1.0219066
0.4701218 1.0150607 1.0209222
0.7243368 1.0152176 1.0124164
0.9853607 1.0261408 1.0073498
