ref/imx226_3000K_jzazbz_203.cube
TITLE "4548717264"
LUT_3D_SIZE 65
0.0152516 -0.0013461 0.0031300
0.0311637 -0.0003611 0.0035070
0.0470427 0.0005716 0.0038705
0.0628855 0.0014445 0.0042176
0.0786892 0.0022499 0.0045454
0.0944505 0.0029796 0.0048508
0.1101666 0.0036254 0.0051306
0.1258343 0.0041788 0.0053817
0.1414507 0.0046313 0.0056009
0.1570133 0.0049747 0.0057852
0.1725193 0.0052010 0.0059316
0.1879665 0.0053027 0.0060375
0.2033529 0.0052727 0.0061005
0.2186768 0.0051049 0.0061184
0.2339369 0.0047939 0.0060895
0.2491323 0.0043353 0.0060127
0.2642627 0.0037261 0.0058869
0.2793281 0.0029645 0.0057119
0.2943293 0.0020505 0.0054880
0.3092676 0.0009856 0.0052159
0.3241451 -0.0002266 0.0048969
0.3389645 -0.0015809 0.0045331
0.3537292 -0.0030701 0.0041268
0.3684431 -0.0046852 0.0036810
0.3831109 -0.0064157 0.0031990
0.3977377 -0.0082497 0.0026846
0.4123290 -0.0101740 0.0021418
0.4268907 -0.0121744 0.0015747
0.4414290 -0.0142360 0.0009876
0.4559503 -0.0163435 0.0003847
0.4704611 -0.0184815 -0.0002299
0.4849679 -0.0206347 -0.0008521
0.4994769 -0.0227882 -0.0014783
0.5139944 -0.0249274 -0.0021049
0.5285265 -0.0270386 -0.0027289
0.5430788 -0.0291089 -0.0033472
0.5576568 -0.0311261 -0.0039576
0.5722658 -0.0330792 -0.0045576
0.5869103 -0.0349581 -0.0051453
0.6015947 -0.0367539 -0.0057192
0.6163229 -0.0384589 -0.0062780
0.6310981 -0.0400665 -0.0068204
0.6459233 -0.0415714 -0.0073458
0.6608007 -0.0429694 -0.0078535
0.6757321 -0.0442577 -0.0083431
0.6907187 -0.0454343 -0.0088144
0.7057612 -0.0464984 -0.0092674
0.7208599 -0.0474505 -0.0097022
0.7360144 -0.0482917 -0.0101191
0.7512240 -0.0490241 -0.0105187
0.7664876 -0.0496504 -0.0109014
0.7818037 -0.0501742 -0.0112681
0.7971706 -0.0505992 -0.0116196
0.8125862 -0.0509299 -0.0119570
0.8280483 -0.0511708 -0.0122811
0.8435545 -0.0513267 -0.0125932
0.8591024 -0.0514024 -0.0128944
0.8746895 -0.0514028 -0.0131860
0.8903133 -0.0513326 -0.0134690
0.9059712 -0.0511965 -0.0137447
0.9216607 -0.0509992 -0.0140144
0.9373796 -0.0507448 -0.0142791
0.9531255 -0.0504374 -0.0145399
0.9688962 -0.0500810 -0.0147978
0.9846897 -0.0496790 -0.0150540
0.0156531 0.0160881 0.0029319
0.0315745 0.0170971 0.0033259
0.0474624 0.0180537 0.0037066
0.0633137 0.0189500 0.0040709
0.0791252 0.0197781 0.0044158
0.0948937 0.0205295 0.0047380
0.1106160 0.0211954 0.0050342
0.1262889 0.0217672 0.0053011
0.1419096 0.0222360 0.0055353
0.1574751 0.0225932 0.0057337
0.1729828 0.0228304 0.0058931
0.1884303 0.0229397 0.0060108
0.2038154 0.0229138 0.0060843
0.2191363 0.0227459 0.0061113
0.2343917 0.0224302 0.0060899
0.2495805 0.0219620 0.0060189
0.2647022 0.0213377 0.0058972
0.2797568 0.0205554 0.0057246
0.2947453 0.0196149 0.0055013
0.3096688 0.0185178 0.0052280
0.3245295 0.0172675 0.0049062
0.3393304 0.0158698 0.0045379
0.3540748 0.0143321 0.0041257
0.3687670 0.0126639 0.0036728
0.3834118 0.0108763 0.0031827
0.3980147 0.0089822 0.0026595
0.4125814 0.0069955 0.0021073
0.4271182 0.0049314 0.0015307
0.4416316 0.0028055 0.0009342
0.4561282 0.0006341 0.0003222
0.4706147 -0.0015667 -0.0003009
0.4850980 -0.0037808 -0.0009309
0.4995844 -0.0059927 -0.0015640
0.5140804 -0.0081875 -0.0021966
0.5285920 -0.0103510 -0.0028253
0.5431253 -0.0124699 -0.0034475
0.5576856 -0.0145321 -0.0040605
0.5722782 -0.0165262 -0.0046622
0.5869078 -0.0184421 -0.0052507
0.6015789 -0.0202709 -0.0058245
0.6162952 -0.0220046 -0.0063822
0.6310603 -0.0236368 -0.0069230
0.6458769 -0.0251621 -0.0074461
0.6607473 -0.0265764 -0.0079510
0.6756734 -0.0278770 -0.0084373
0.6906562 -0.0290620 -0.0089049
0.7056966 -0.0301309 -0.0093539
0.7207946 -0.0310841 -0.0097844
0.7359498 -0.0319232 -0.0101968
0.7511616 -0.0326504 -0.0105916
0.7664286 -0.0332688 -0.0109696
0.7817493 -0.0337820 -0.0113314
0.7971218 -0.0341942 -0.0116779
0.8125439 -0.0345102 -0.0120103
0.8280134 -0.0347347 -0.0123295
0.8435276 -0.0348728 -0.0126368
0.8590841 -0.0349297 -0.0129333
0.8746801 -0.0349105 -0.0132203
0.8903131 -0.0348201 -0.0134989
0.9059804 -0.0346636 -0.0137706
0.9216795 -0.0344458 -0.0140363
0.9374077 -0.0341711 -0.0142974
0.9531629 -0.0338438 -0.0145550
0.9689426 -0.0334679 -0.0148101
0.9847448 -0.0330472 -0.0150637
0.0159974 0.0333827 0.0027041
0.0319266 0.0344116 0.0031140
0.0478220 0.0353878 0.0035106
0.0636803 0.0363034 0.0038910
0.0794983 0.0371501 0.0042519
0.0952725 0.0379192 0.0045898
0.1109998 0.0386016 0.0049013
0.1266770 0.0391883 0.0051828
0.1423008 0.0396701 0.0054310
0.1578684 0.0400383 0.0056425
0.1733769 0.0402839 0.0058141
0.1888240 0.0403988 0.0059428
0.2042073 0.0403752 0.0060261
0.2195249 0.0402057 0.0060615
0.2347752 0.0398843 0.0060472
0.2499571 0.0394055 0.0059816
0.2650700 0.0387657 0.0058639
0.2801140 0.0379625 0.0056935
0.2950899 0.0369956 0.0054707
0.3099989 0.0358665 0.0051963
0.3248433 0.0345788 0.0048719
0.3396261 0.0331384 0.0044995
0.3543510 0.0315532 0.0040818
0.3690224 0.0298333 0.0036223
0.3836453 0.0279905 0.0031248
0.3982255 0.0260384 0.0025934
0.4127692 0.0239920 0.0020329
0.4272828 0.0218672 0.0014478
0.4417732 0.0196807 0.0008431
0.4562472 0.0174495 0.0002234
0.4707120 0.0151907 -0.0004066
0.4851743 0.0129209 -0.0010427
0.4996409 0.0106562 -0.0016807
0.5141183 0.0084119 -0.0023170
0.5286127 0.0062026 -0.0029484
0.5431300 0.0040417 -0.0035720
0.5576758 0.0019415 -0.0041852
0.5722553 -0.0000867 -0.0047861
0.5868732 -0.0020326 -0.0053728
0.6015340 -0.0038874 -0.0059439
0.6162416 -0.0056431 -0.0064983
0.6309994 -0.0072933 -0.0070350
0.6458102 -0.0088326 -0.0075534
0.6606764 -0.0102572 -0.0080532
0.6755996 -0.0115642 -0.0085340
0.6905812 -0.0127521 -0.0089959
0.7056216 -0.0138205 -0.0094390
0.7207210 -0.0147700 -0.0098635
0.7358790 -0.0156023 -0.0102698
0.7510947 -0.0163200 -0.0106585
0.7663668 -0.0169264 -0.0110302
0.7816936 -0.0174254 -0.0113860
0.7970731 -0.0178215 -0.0117265
0.8125030 -0.0181195 -0.0120530
0.8279809 -0.0183247 -0.0123665
0.8435042 -0.0184423 -0.0126682
0.8590701 -0.0184779 -0.0129594
0.8746760 -0.0184367 -0.0132413
0.8903190 -0.0183240 -0.0135152
0.9059964 -0.0181451 -0.0137824
0.9217055 -0.0179049 -0.0140440
0.9374437 -0.0176082 -0.0143014
0.9532085 -0.0172594 -0.0145556
0.9689977 -0.0168626 -0.0148078
0.9848090 -0.0164217 -0.0150589
0.0162802 0.0505277 0.0024428
0.0322156 0.0515715 0.0028670
0.0481168 0.0525626 0.0032783
0.0639805 0.0534928 0.0036734
0.0798034 0.0543535 0.0040488
0.0955820 0.0551358 0.0044010
0.1113129 0.0558304 0.0047264
0.1269928 0.0564280 0.0050213
0.1426186 0.0569194 0.0052822
0.1581873 0.0572952 0.0055056
0.1736958 0.0575465 0.0056882
0.1891417 0.0576646 0.0058270
0.2045226 0.0576411 0.0059191
0.2198363 0.0574685 0.0059623
0.2350812 0.0571399 0.0059544
0.2502560 0.0566497 0.0058939
0.2653601 0.0559937 0.0057796
0.2803935 0.0551693 0.0056113
0.2953568 0.0541761 0.0053891
0.3102517 0.0530154 0.0051138
0.3250803 0.0516910 0.0047869
0.3398458 0.0502091 0.0044108
0.3545520 0.0485780 0.0039883
0.3692036 0.0468083 0.0035229
0.3838060 0.0449127 0.0030188
0.3983652 0.0429055 0.0024804
0.4128875 0.0408026 0.0019126
0.4273800 0.0386211 0.0013205
0.4418497 0.0363784 0.0007091
0.4563037 0.0340926 0.0000834
0.4707494 0.0317813 -0.0005516
0.4851937 0.0294618 -0.0011917
0.4996436 0.0271509 -0.0018324
0.5141057 0.0248642 -0.0024702
0.5285862 0.0226165 -0.0031017
0.5430911 0.0204211 -0.0037240
0.5576259 0.0182907 -0.0043348
0.5721959 0.0162363 -0.0049321
0.5868056 0.0142681 -0.0055142
0.6014596 0.0123950 -0.0060798
0.6161618 0.0106247 -0.0066280
0.6309154 0.0089636 -0.0071580
0.6457235 0.0074171 -0.0076692
0.6605883 0.0059889 -0.0081614
0.6755115 0.0046816 -0.0086345
0.6904943 0.0034968 -0.0090885
0.7055373 0.0024344 -0.0095236
0.7206404 0.0014938 -0.0099401
0.7358032 0.0006731 -0.0103386
0.7510247 -0.0000306 -0.0107196
0.7663036 -0.0006209 -0.0110838
0.7816380 -0.0011018 -0.0114321
0.7970259 -0.0014782 -0.0117656
0.8124649 -0.0017552 -0.0120852
0.8279524 -0.0019381 -0.0123921
0.8434858 -0.0020326 -0.0126875
0.8590621 -0.0020444 -0.0129727
0.8746785 -0.0019791 -0.0132491
0.8903321 -0.0018421 -0.0135178
0.9060202 -0.0016389 -0.0137801
0.9217399 -0.0013747 -0.0140375
0.9374886 -0.0010543 -0.0142910
0.9532636 -0.0006824 -0.0145417
0.9690625 -0.0002634 -0.0147910
0.9848831 0.0001989 -0.0150396
0.0164975 0.0675134 0.0021440
0.0324372 0.0685668 0.0025811
0.0483424 0.0695674 0.0030054
0.0642098 0.0705069 0.0034134
0.0800358 0.0713764 0.0038017
0.0958171 0.0721669 0.0041665
0.1115501 0.0728690 0.0045041
0.1272314 0.0734733 0.0048108
0.1428580 0.0739701 0.0050829
0.1584265 0.0743501 0.0053168
0.1739341 0.0746038 0.0055091
0.1893780 0.0747222 0.0056568
0.2047557 0.0746966 0.0057569
0.2200649 0.0745187 0.0058069
0.2353039 0.0741813 0.0058047
0.2504712 0.0736784 0.0057485
0.2655663 0.0730054 0.0056375
0.2805891 0.0721595 0.0054710
0.2955402 0.0711399 0.0052492
0.3104212 0.0699481 0.0049731
0.3252346 0.0685880 0.0046442
0.3399835 0.0670660 0.0042649
0.3546722 0.0653910 0.0038382
0.3693054 0.0635741 0.0033679
0.3838889 0.0616288 0.0028583
0.3984288 0.0595703 0.0023143
0.4129321 0.0574154 0.0017408
0.4274058 0.0551820 0.0011433
0.4418575 0.0528888 0.0005272
0.4562944 0.0505543 -0.0001024
0.4707241 0.0481971 -0.0007403
0.4851539 0.0458353 -0.0013819
0.4995906 0.0434857 -0.0020228
0.5140410 0.0411645 -0.0026593
0.5285113 0.0388864 -0.0032881
0.5430076 0.0366651 -0.0039063
0.5575352 0.0345129 -0.0045117
0.5720994 0.0324409 -0.0051024
0.5867048 0.0304589 -0.0056768
0.6013557 0.0285757 -0.0062340
0.6160559 0.0267988 -0.0067730
0.6308089 0.0251346 -0.0072934
0.6456175 0.0235882 -0.0077946
0.6604840 0.0221633 -0.0082767
0.6754101 0.0208625 -0.0087395
0.6903968 0.0196868 -0.0091832
0.7054448 0.0186364 -0.0096082
0.7205539 0.0177101 -0.0100149
0.7357237 0.0169059 -0.0104037
0.7509531 0.0162208 -0.0107753
0.7662405 0.0156509 -0.0111305
0.7815842 0.0151918 -0.0114701
0.7969819 0.0148386 -0.0117952
0.8124312 0.0145859 -0.0121069
0.8279295 0.0144280 -0.0124063
0.8434738 0.0143592 -0.0126947
0.8590613 0.0143735 -0.0129734
0.8746891 0.0144651 -0.0132436
0.8903540 0.0146282 -0.0135067
0.9060534 0.0148574 -0.0137640
0.9217841 0.0151473 -0.0140167
0.9375436 0.0154927 -0.0142662
0.9533291 0.0158890 -0.0145134
0.9691381 0.0163315 -0.0147597
0.9849683 0.0168162 -0.0150059
0.0166455 0.0843309 0.0018042
0.0325875 0.0853881 0.0022523
0.0484948 0.0863923 0.0026876
0.0643639 0.0873352 0.0031067
0.0801912 0.0882079 0.0035058
0.0959734 0.0890012 0.0038813
0.1117068 0.0897057 0.0042293
0.1273881 0.0903117 0.0045460
0.1430139 0.0908096 0.0048275
0.1585812 0.0911897 0.0050704
0.1740867 0.0914423 0.0052710
0.1895277 0.0915579 0.0054262
0.2049014 0.0915272 0.0055330
0.2202054 0.0913415 0.0055887
0.2354378 0.0909933 0.0055912
0.2505973 0.0904761 0.0055388
0.2656831 0.0897849 0.0054303
0.2806951 0.0889167 0.0052653
0.2956341 0.0878706 0.0050439
0.3105017 0.0866482 0.0047671
0.3253005 0.0852536 0.0044366
0.3400339 0.0836935 0.0040548
0.3547063 0.0819772 0.0036249
0.3693227 0.0801165 0.0031509
0.3838892 0.0781256 0.0026374
0.3984122 0.0760206 0.0020893
0.4128990 0.0738192 0.0015122
0.4273569 0.0715403 0.0009115
0.4417936 0.0692031 0.0002928
0.4562168 0.0668274 -0.0003381
0.4706342 0.0644322 -0.0009763
0.4850530 0.0620360 -0.0016167
0.4994804 0.0596564 -0.0022549
0.5139231 0.0573095 -0.0028872
0.5283873 0.0550102 -0.0035102
0.5428790 0.0527721 -0.0041212
0.5574035 0.0506073 -0.0047179
0.5719660 0.0485267 -0.0052987
0.5865709 0.0465400 -0.0058623
0.6012226 0.0446556 -0.0064078
0.6159247 0.0428807 -0.0069346
0.6306807 0.0412215 -0.0074423
0.6454932 0.0396830 -0.0079307
0.6603646 0.0382688 -0.0083998
0.6752965 0.0369811 -0.0088497
0.6902901 0.0358211 -0.0092808
0.7053457 0.0347885 -0.0096934
0.7204633 0.0338821 -0.0100881
0.7356422 0.0330996 -0.0104653
0.7508814 0.0324377 -0.0108258
0.7661792 0.0318924 -0.0111704
0.7815337 0.0314591 -0.0115000
0.7969427 0.0311325 -0.0118156
0.8124036 0.0309071 -0.0121183
0.8279136 0.0307771 -0.0124094
0.8434699 0.0307364 -0.0126899
0.8590695 0.0307789 -0.0129614
0.8747092 0.0308987 -0.0132250
0.8903861 0.0310898 -0.0134821
0.9060971 0.0313465 -0.0137339
0.9218393 0.0316634 -0.0139819
0.9376099 0.0320352 -0.0142272
0.9534060 0.0324568 -0.0144709
0.9692253 0.0329239 -0.0147141
0.9850652 0.0334320 -0.0149579
0.0167209 0.1009724 0.0014199
0.0326631 0.1020269 0.0018768
0.0485703 0.1030284 0.0023209
0.0644390 0.1039685 0.0027488
0.0802657 0.1048382 0.0031567
0.0960468 0.1056284 0.0035408
0.1117790 0.1063297 0.0038971
0.1274586 0.1069323 0.0042218
0.1430824 0.1074265 0.0045110
0.1586470 0.1078022 0.0047610
0.1741492 0.1080495 0.0049683
0.1895861 0.1081584 0.0051294
0.2049547 0.1081192 0.0052414
0.2202527 0.1079227 0.0053016
0.2354779 0.1075611 0.0053076
0.2506289 0.1070273 0.0052580
0.2657050 0.1063163 0.0051513
0.2807060 0.1054248 0.0049874
0.2956330 0.1043519 0.0047662
0.3104877 0.1030995 0.0044889
0.3252727 0.1016718 0.0041572
0.3399918 0.1000759 0.0037737
0.3546494 0.0983216 0.0033419
0.3692511 0.0964215 0.0028658
0.3838030 0.0943904 0.0023501
0.3983119 0.0922451 0.0018002
0.4127853 0.0900042 0.0012217
0.4272307 0.0876873 0.0006204
0.4416562 0.0853146 0.0000021
0.4560695 0.0829062 -0.0006274
0.4704784 0.0804821 -0.0012627
0.4848904 0.0780611 -0.0018987
0.4993127 0.0756610 -0.0025311
0.5137519 0.0732981 -0.0031558
0.5282143 0.0709875 -0.0037697
0.5427057 0.0687424 -0.0043700
0.5572314 0.0665749 -0.0049548
0.5717963 0.0644955 -0.0055223
0.5864050 0.0625135 -0.0060717
0.6010614 0.0606370 -0.0066022
0.6157694 0.0588730 -0.0071134
0.6305319 0.0572274 -0.0076053
0.6453519 0.0557048 -0.0080778
0.6602316 0.0543087 -0.0085311
0.6751725 0.0530413 -0.0089656
0.6901757 0.0519035 -0.0093815
0.7052416 0.0508949 -0.0097794
0.7203701 0.0500140 -0.0101599
0.7355604 0.0492582 -0.0105237
0.7508114 0.0486242 -0.0108713
0.7661214 0.0481077 -0.0112038
0.7814884 0.0477039 -0.0115219
0.7969101 0.0474073 -0.0118268
0.8123838 0.0472122 -0.0121195
0.8279067 0.0471126 -0.0124012
0.8434758 0.0471024 -0.0126732
0.8590881 0.0471753 -0.0129368
0.8747404 0.0473251 -0.0131933
0.8904297 0.0475457 -0.0134440
0.9061528 0.0478313 -0.0136902
0.9219067 0.0481763 -0.0139332
0.9376886 0.0485754 -0.0141741
0.9534957 0.0490235 -0.0144143
0.9693253 0.0495159 -0.0146546
0.9851749 0.0500482 -0.0148961
0.0167208 0.1174309 0.0009877
0.0326608 0.1184758 0.0014510
0.0485656 0.1194678 0.0019017
0.0644318 0.1203984 0.0023361
0.0802558 0.1212587 0.0027504
0.0960341 0.1220397 0.0031408
0.1117631 0.1227319 0.0035032
0.1274394 0.1233255 0.0038338
0.1430595 0.1238106 0.0041286
0.1586200 0.1241769 0.0043838
0.1741177 0.1244141 0.0045957
0.1895492 0.1245118 0.0047610
0.2049116 0.1244599 0.0048766
0.2202024 0.1242489 0.0049396
0.2354194 0.1238704 0.0049479
0.2505612 0.1233173 0.0048999
0.2656271 0.1225842 0.0047942
0.2806170 0.1216679 0.0046307
0.2955320 0.1205679 0.0044095
0.3103742 0.1192859 0.0041319
0.3251464 0.1178269 0.0037996
0.3398526 0.1161982 0.0034155
0.3544975 0.1144104 0.0029832
0.3690868 0.1124764 0.0025068
0.3836270 0.1104117 0.0019914
0.3981252 0.1082339 0.0014422
0.4125888 0.1059621 0.0008653
0.4270257 0.1036165 0.0002664
0.4414440 0.1012180 -0.0003482
0.4558518 0.0987874 -0.0009728
0.4702567 0.0963448 -0.0016017
0.4846665 0.0939096 -0.0022299
0.4990881 0.0914997 -0.0028528
0.5135284 0.0891316 -0.0034664
0.5279935 0.0868202 -0.0040675
0.5424890 0.0845787 -0.0046536
0.5570202 0.0824187 -0.0052228
0.5715919 0.0803504 -0.0057736
0.5862085 0.0783829 -0.0063053
0.6008738 0.0765239 -0.0068174
0.6155914 0.0747799 -0.0073098
0.6303644 0.0731565 -0.0077827
0.6451955 0.0716580 -0.0082363
0.6600867 0.0702878 -0.0086709
0.6750397 0.0690478 -0.0090871
0.6900555 0.0679387 -0.0094853
0.7051345 0.0669601 -0.0098662
0.7202763 0.0661102 -0.0102305
0.7354802 0.0653863 -0.0105788
0.7507451 0.0647847 -0.0109118
0.7660690 0.0643011 -0.0112306
0.7814501 0.0639304 -0.0115359
0.7968858 0.0636671 -0.0118288
0.8123734 0.0635052 -0.0121105
0.8279102 0.0634386 -0.0123820
0.8434930 0.0634610 -0.0126447
0.8591187 0.0635660 -0.0128999
0.8747842 0.0637474 -0.0131487
0.8904862 0.0639989 -0.0133927
0.9062217 0.0643146 -0.0136329
0.9219876 0.0646888 -0.0138708
0.9377810 0.0651161 -0.0141074
0.9535990 0.0655913 -0.0143439
0.9694390 0.0661097 -0.0145814
0.9852984 0.0666667 -0.0148208
0.0166425 0.1337006 0.0005048
0.0325780 0.1347289 0.0009720
0.0484782 0.1357043 0.0014266
0.0643397 0.1366185 0.0018650
0.0801588 0.1374626 0.0022833
0.0959322 0.1382277 0.0026776
0.1116563 0.1389045 0.0030438
0.1273275 0.1394830 0.0033780
0.1429422 0.1399531 0.0036762
0.1584971 0.1403044 0.0039344
0.1739886 0.1405261 0.0041490
0.1894133 0.1406075 0.0043164
0.2047682 0.1405380 0.0044336
0.2200507 0.1403079 0.0044978
0.2352585 0.1399084 0.0045069
0.2503902 0.1393324 0.0044591
0.2654451 0.1385744 0.0043535
0.2804235 0.1376315 0.0041897
0.2953268 0.1365035 0.0039682
0.3101571 0.1351928 0.0036904
0.3249177 0.1337047 0.0033584
0.3396127 0.1320472 0.0029749
0.3542473 0.1302312 0.0025439
0.3688273 0.1282703 0.0020696
0.3833593 0.1261804 0.0015570
0.3978506 0.1239795 0.0010117
0.4123087 0.1216870 0.0004397
0.4267416 0.1193238 -0.0001530
0.4411575 0.1169110 -0.0007603
0.4555644 0.1144697 -0.0013761
0.4699703 0.1120206 -0.0019947
0.4843825 0.1095830 -0.0026111
0.4988084 0.1071751 -0.0032205
0.5132544 0.1048133 -0.0038191
0.5277267 0.1025124 -0.0044038
0.5422309 0.1002854 -0.0049719
0.5567722 0.0981436 -0.0055218
0.5713550 0.0960969 -0.0060523
0.5859836 0.0941538 -0.0065628
0.6006618 0.0923218 -0.0070532
0.6153930 0.0906069 -0.0075235
0.6301802 0.0890144 -0.0079742
0.6450259 0.0875482 -0.0084058
0.6599322 0.0862115 -0.0088189
0.6749004 0.0850059 -0.0092141
0.6899317 0.0839322 -0.0095922
0.7050263 0.0829895 -0.0099538
0.7201839 0.0821761 -0.0102996
0.7354036 0.0814889 -0.0106306
0.7506842 0.0809242 -0.0109473
0.7660239 0.0804774 -0.0112508
0.7814205 0.0801434 -0.0115419
0.7968715 0.0799163 -0.0118218
0.8123743 0.0797903 -0.0120914
0.8279258 0.0797589 -0.0123519
0.8435230 0.0798159 -0.0126046
0.8591628 0.0799548 -0.0128507
0.8748420 0.0801692 -0.0130916
0.8905572 0.0804528 -0.0133284
0.9063053 0.0807995 -0.0135625
0.9220833 0.0812037 -0.0137950
0.9378882 0.0816599 -0.0140273
0.9537171 0.0821628 -0.0142602
0.9695674 0.0827075 -0.0144949
0.9854364 0.0832897 -0.0147323
0.0164843 0.1497773 -0.0000314
0.0324128 0.1507817 0.0004371
0.0483060 0.1517332 0.0008930
0.0641605 0.1526236 0.0013328
0.0799727 0.1534445 0.0017525
0.0957392 0.1541869 0.0021482
0.1114563 0.1548414 0.0025158
0.1271205 0.1553982 0.0028512
0.1427282 0.1558470 0.0031503
0.1582757 0.1561770 0.0034093
0.1737594 0.1563771 0.0036243
0.1891758 0.1564362 0.0037917
0.2045217 0.1563436 0.0039086
0.2197944 0.1560890 0.0039721
0.2349917 0.1556638 0.0039802
0.2501123 0.1550605 0.0039313
0.2651557 0.1542743 0.0038245
0.2801223 0.1533027 0.0036598
0.2950140 0.1521460 0.0034378
0.3098332 0.1508075 0.0031602
0.3245836 0.1492932 0.0028292
0.3392698 0.1476117 0.0024479
0.3538970 0.1457745 0.0020203
0.3684713 0.1437953 0.0015507
0.3829992 0.1416901 0.0010443
0.3974881 0.1394772 0.0005065
0.4119456 0.1371762 -0.0000568
0.4263795 0.1348080 -0.0006393
0.4407982 0.1323939 -0.0012349
0.4552095 0.1299553 -0.0018376
0.4696213 0.1275127 -0.0024417
0.4840412 0.1250857 -0.0030420
0.4984761 0.1226923 -0.0036339
0.5129328 0.1203491 -0.0042135
0.5274171 0.1180704 -0.0047776
0.5419345 0.1158692 -0.0053240
0.5564901 0.1137564 -0.0058510
0.5710883 0.1117417 -0.0063575
0.5857331 0.1098331 -0.0068434
0.6004282 0.1080375 -0.0073086
0.6151769 0.1063608 -0.0077536
0.6299819 0.1048076 -0.0081790
0.6448458 0.1033819 -0.0085857
0.6597703 0.1020862 -0.0089745
0.6747569 0.1009221 -0.0093462
0.6898065 0.0998900 -0.0097017
0.7049193 0.0989891 -0.0100418
0.7200950 0.0982173 -0.0103672
0.7353327 0.0975715 -0.0106789
0.7506309 0.0970479 -0.0109777
0.7659879 0.0966416 -0.0112645
0.7814015 0.0963475 -0.0115401
0.7968691 0.0961596 -0.0118057
0.8123880 0.0960718 -0.0120623
0.8279552 0.0960777 -0.0123111
0.8435675 0.0961711 -0.0125531
0.8592219 0.0963452 -0.0127897
0.8749151 0.0965938 -0.0130221
0.8906437 0.0969105 -0.0132515
0.9064047 0.0972891 -0.0134793
0.9221948 0.0977239 -0.0137065
0.9380112 0.0982093 -0.0139343
0.9538510 0.0987402 -0.0141638
0.9697113 0.0993116 -0.0143959
0.9855898 0.0999190 -0.0146314
0.0162446 0.1656583 -0.0006228
0.0321638 0.1666312 -0.0001558
0.0480477 0.1675512 0.0002988
0.0638929 0.1684106 0.0007372
0.0796959 0.1692009 0.0011557
0.0954534 0.1699134 0.0015502
0.1111616 0.1705386 0.0019166
0.1268170 0.1710666 0.0022508
0.1424157 0.1714871 0.0025485
0.1579541 0.1717890 0.0028058
0.1734282 0.1719608 0.0030189
0.1888346 0.1719912 0.0031842
0.2041699 0.1718690 0.0032986
0.2194315 0.1715841 0.0033595
0.2346170 0.1711276 0.0033649
0.2497254 0.1704925 0.0033134
0.2647565 0.1696744 0.0032043
0.2797112 0.1686716 0.0030379
0.2945916 0.1674857 0.0028153
0.3094009 0.1661208 0.0025382
0.3241431 0.1645840 0.0022094
0.3388232 0.1628847 0.0018323
0.3534466 0.1610345 0.0014106
0.3680193 0.1590472 0.0009489
0.3825479 0.1569386 0.0004522
0.3970395 0.1547267 -0.0000741
0.4115017 0.1524309 -0.0006242
0.4259422 0.1500719 -0.0011921
0.4403691 0.1476710 -0.0017715
0.4547903 0.1452493 -0.0023566
0.4692135 0.1428274 -0.0029416
0.4836462 0.1404247 -0.0035214
0.4980953 0.1380591 -0.0040914
0.5125673 0.1357470 -0.0046477
0.5270682 0.1335027 -0.0051874
0.5416034 0.1313387 -0.0057082
0.5561776 0.1292659 -0.0062085
0.5707953 0.1272935 -0.0066877
0.5854603 0.1254291 -0.0071455
0.6001762 0.1236792 -0.0075824
0.6149460 0.1220494 -0.0079990
0.6297724 0.1205440 -0.0083962
0.6446577 0.1191664 -0.0087752
0.6596037 0.1179190 -0.0091370
0.6746116 0.1168030 -0.0094827
0.6896822 0.1158186 -0.0098133
0.7048157 0.1149650 -0.0101297
0.7200118 0.1142399 -0.0104328
0.7352694 0.1136400 -0.0107236
0.7505871 0.1131613 -0.0110029
0.7659631 0.1127990 -0.0112715
0.7813950 0.1125477 -0.0115305
0.7968803 0.1124014 -0.0117809
0.8124163 0.1123541 -0.0120236
0.8279998 0.1123992 -0.0122598
0.8436279 0.1125304 -0.0124906
0.8592973 0.1127410 -0.0127172
0.8750048 0.1130248 -0.0129408
0.8907471 0.1133753 -0.0131627
0.9065209 0.1137863 -0.0133839
0.9223233 0.1142521 -0.0136057
0.9381511 0.1147671 -0.0138292
0.9540015 0.1153261 -0.0140552
0.9698718 0.1159243 -0.0142848
0.9857594 0.1165569 -0.0145187
0.0159229 0.1813424 -0.0012709
0.0318302 0.1822761 -0.0008081
0.0477024 0.1831572 -0.0003576
0.0635361 0.1839780 0.0000769
0.0793279 0.1847302 0.0004915
0.0950742 0.1854052 0.0008822
0.1107714 0.1859937 0.0012449
0.1264159 0.1864857 0.0015752
0.1420038 0.1868705 0.0018690
0.1575311 0.1871370 0.0021223
0.1729940 0.1872734 0.0023312
0.1883887 0.1872680 0.0024921
0.2037118 0.1871097 0.0026021
0.2189607 0.1867881 0.0026585
0.2341333 0.1862946 0.0026595
0.2492287 0.1856228 0.0026040
0.2642469 0.1847691 0.0024916
0.2791896 0.1837331 0.0023230
0.2940595 0.1825177 0.0020997
0.3088604 0.1811288 0.0018240
0.3235969 0.1795743 0.0014989
0.3382742 0.1778645 0.0011279
0.3528979 0.1760111 0.0007152
0.3674738 0.1740275 0.0002649
0.3820084 0.1719289 -0.0002180
0.3965084 0.1697324 -0.0007285
0.4109810 0.1674569 -0.0012609
0.4254339 0.1651227 -0.0018094
0.4398749 0.1627504 -0.0023679
0.4543116 0.1603609 -0.0029306
0.4687516 0.1579744 -0.0034919
0.4832024 0.1556101 -0.0040466
0.4976706 0.1532858 -0.0045904
0.5121628 0.1510176 -0.0051194
0.5266848 0.1488196 -0.0056306
0.5412419 0.1467043 -0.0061220
0.5558389 0.1446821 -0.0065921
0.5704800 0.1427620 -0.0070405
0.5851690 0.1409513 -0.0074671
0.5999092 0.1392562 -0.0078726
0.6147036 0.1376818 -0.0082579
0.6295547 0.1362319 -0.0086243
0.6444646 0.1349098 -0.0089730
0.6594350 0.1337175 -0.0093055
0.6744670 0.1326559 -0.0096229
0.6895613 0.1317251 -0.0099265
0.7047180 0.1309239 -0.0102173
0.7199365 0.1302500 -0.0104963
0.7352160 0.1297001 -0.0107645
0.7505548 0.1292699 -0.0110228
0.7659511 0.1289546 -0.0112721
0.7814025 0.1287489 -0.0115133
0.7969066 0.1286466 -0.0117474
0.8124605 0.1286416 -0.0119755
0.8280612 0.1287274 -0.0121985
0.8437055 0.1288977 -0.0124175
0.8593903 0.1291458 -0.0126338
0.8751124 0.1294655 -0.0128484
0.8908684 0.1298503 -0.0130625
0.9066551 0.1302941 -0.0132772
0.9224695 0.1307910 -0.0134936
0.9383085 0.1313357 -0.0137127
0.9541694 0.1319228 -0.0139354
0.9700493 0.1325476 -0.0141627
