ref/imx226_5000K_jzazbz_203.cube
TITLE "4483550352"
LUT_3D_SIZE 5
0.0066138 -0.0182393 -0.0075282
0.2542946 -0.0099128 -0.0091182
0.4903499 -0.0266080 -0.0192621
0.7294271 -0.0454481 -0.0242746
0.9803952 -0.0483564 -0.0204334
0.0088673 0.2371143 -0.0067198
0.2555994 0.2413180 -0.0070727
0.4899453 0.2248876 -0.0176801
0.7308689 0.2137996 -0.0201316
0.9840518 0.2174381 -0.0153637
-0.0028950 0.4627785 -0.0165268
0.2425405 0.4544942 -0.0155104
0.4859155 0.4581894 -0.0161810
0.7359246 0.4705791 -0.0115489
0.9908277 0.4831674 -0.0074506
-0.0170421 0.6956067 -0.0284570
0.2272210 0.6819045 -0.0288597
0.4816015 0.6993840 -0.0201805
0.7401982 0.7279431 -0.0090046
0.9956426 0.7462610 -0.0045839
-0.0223901 0.9532411 -0.0326667
0.2222762 0.9412521 -0.0340288
0.4785673 0.9566760 -0.0249875
0.7389435 0.9852026 -0.0129331
0.9947091 1.0051304 -0.0072923
-0.0002862 -0.0248809 0.2461841
0.2433059 -0.0263512 0.2416609
0.4798628 -0.0425864 0.2318607
0.7233030 -0.0525061 0.2282886
0.9785501 -0.0485131 0.2338567
0.0023279 0.2365299 0.2455385
0.2442013 0.2302435 0.2409063
0.4828057 0.2168976 0.2343164
0.7281700 0.2144197 0.2339111
0.9841607 0.2221914 0.2398655
-0.0082521 0.4693751 0.2343442
0.2366529 0.4661221 0.2338274
0.4853467 0.4707304 0.2372765
0.7395205 0.4837327 0.2456736
0.9948902 0.4949800 0.2510416
-0.0204776 0.7057148 0.2227959
0.2242604 0.6969166 0.2225645
0.4830791 0.7171311 0.2356547
0.7459112 0.7453688 0.2504037
1.0018183 0.7616048 0.2551151
-0.0245831 0.9637853 0.2214029
0.2193674 0.9513052 0.2199470
0.4791122 0.9680884 0.2325250
0.7431075 0.9988276 0.2468950
0.9983644 1.0174662 0.2514196
-0.0119874 -0.0486216 0.5001797
0.2301323 -0.0602839 0.4972756
0.4728254 -0.0675513 0.4923777
0.7253333 -0.0584435 0.4903680
0.9829774 -0.0451877 0.4922408
-0.0068523 0.2243310 0.4992584
0.2367126 0.2162931 0.4955955
0.4812571 0.2108161 0.4927520
0.7342405 0.2195833 0.4929923
0.9904399 0.2308092 0.4950607
-0.0097765 0.4829604 0.4925175
0.2383274 0.4826108 0.4923589
0.4884707 0.4854465 0.4935420
0.7429070 0.4933440 0.4973322
0.9979162 0.5017355 0.5008875
-0.0137811 0.7400157 0.4860492
0.2346324 0.7398833 0.4883699
0.4863051 0.7437219 0.4942388
0.7446486 0.7566179 0.5008229
1.0011839 0.7681415 0.5048060
-0.0192883 0.9948701 0.4851062
0.2265376 0.9906696 0.4876218
0.4789841 0.9942613 0.4954392
0.7387178 1.0100458 0.5025654
0.9951973 1.0237921 0.5045742
-0.0219983 -0.0720658 0.7558101
0.2222868 -0.0884015 0.7584477
0.4753564 -0.0814566 0.7576844
0.7341948 -0.0573118 0.7521212
0.9916356 -0.0384523 0.7494035
-0.0155908 0.2091739 0.7544946
0.2314547 0.2004251 0.7555196
0.4847380 0.2080747 0.7528245
0.7420794 0.2246125 0.7483280
0.9991043 0.2397358 0.7463495
-0.0088259 0.4966039 0.7531254
0.2413458 0.4970485 0.7523504
0.4914939 0.4950088 0.7485363
0.7446578 0.4992661 0.7462350
0.9995084 0.5064019 0.7455678
-0.0096234 0.7672056 0.7517779
0.2358357 0.7641071 0.7528106
0.4846045 0.7595450 0.7502977
0.7381762 0.7615176 0.7471513
0.9951174 0.7683092 0.7472502
-0.0165128 1.0208772 0.7503169
0.2266969 1.0178088 0.7540209
0.4726005 1.0148724 0.7549930
0.7275770 1.0169880 0.7526441
0.9871215 1.0254880 0.7520534
-0.0236282 -0.0743851 1.0104122
0.2247520 -0.0848582 1.0143153
0.4816966 -0.0757737 1.0147474
0.7426629 -0.0510200 1.0078825
0.9988704 -0.0317536 1.0032784
-0.0170160 0.2085470 1.0097194
0.2326171 0.2022863 1.0117360
0.4899566 0.2107939 1.0091033
0.7511940 0.2316928 0.9984523
1.0052502 0.2454866 0.9949046
-0.0100272 0.4989140 1.0091349
0.2409636 0.5007736 1.0081093
0.4934324 0.5012583 1.0006554
0.7472517 0.5040418 0.9926303
1.0015838 0.5110348 0.9905252
-0.0109716 0.7742468 1.0093600
0.2345915 0.7744009 1.0097561
0.4813238 0.7689204 1.0031855
0.7345038 0.7657964 0.9944471
0.9925606 0.7718195 0.9933474
-0.0169250 1.0329853 1.0089314
0.2251192 1.0305787 1.0115129
0.4687580 1.0255181 1.0089958
0.7228793 1.0237127 1.0025588
0.9838809 1.0311306 1.0007687
