ref/imx226_6000K_jzazbz_203.cube
TITLE "4560412048"
LUT_3D_SIZE 5
0.0055979 -0.0184749 -0.0103983
0.2527018 -0.0096465 -0.0133660
0.4886409 -0.0244537 -0.0241811
0.7279147 -0.0426268 -0.0282810
0.9794562 -0.0465887 -0.0223069
0.0087264 0.2356243 -0.0074501
0.2549752 0.2402752 -0.0087746
0.4889454 0.2262647 -0.0205710
0.7297817 0.2160739 -0.0227669
0.9832738 0.2185972 -0.0163871
-0.0017989 0.4615703 -0.0146425
0.2433652 0.4533955 -0.0134659
0.4860996 0.4580622 -0.0151951
0.7355585 0.4709062 -0.0112237
0.9902697 0.4828771 -0.0067786
-0.0151047 0.6946985 -0.0250038
0.2290646 0.6802061 -0.0242504
0.4825932 0.6968465 -0.0156530
0.7401456 0.7257211 -0.0057520
0.9951347 0.7443324 -0.0021426
-0.0203269 0.9523037 -0.0288251
0.2242385 0.9391756 -0.0287113
0.4797270 0.9534550 -0.0192395
0.7390482 0.9822359 -0.0084107
0.9942944 1.0028276 -0.0040410
-0.0014615 -0.0232960 0.2425051
0.2417942 -0.0234060 0.2365667
0.4784716 -0.0379792 0.2262738
0.7221199 -0.0481428 0.2238906
0.9780427 -0.0460114 0.2320276
0.0017368 0.2370474 0.2433930
0.2434285 0.2321809 0.2377956
0.4821065 0.2203736 0.2308920
0.7275129 0.2181024 0.2309345
0.9837564 0.2240145 0.2386477
-0.0076021 0.4698818 0.2346143
0.2370169 0.4673205 0.2336470
0.4853651 0.4722380 0.2367905
0.7391896 0.4848717 0.2452716
0.9943995 0.4952552 0.2510750
-0.0188399 0.7064309 0.2246106
0.2257614 0.6972909 0.2250963
0.4837254 0.7166211 0.2381394
0.7455278 0.7440960 0.2524060
1.0010590 0.7602193 0.2565828
-0.0227752 0.9646818 0.2233424
0.2211294 0.9512751 0.2233907
0.4800381 0.9666533 0.2367374
0.7428453 0.9971479 0.2500212
0.9976127 1.0162848 0.2531732
-0.0127047 -0.0450577 0.4969867
0.2293534 -0.0552659 0.4932140
0.4723442 -0.0618335 0.4883521
0.7253775 -0.0541765 0.4880765
0.9833740 -0.0431392 0.4919306
-0.0072768 0.2265819 0.4971886
0.2363472 0.2197496 0.4928901
0.4811075 0.2149238 0.4899813
0.7343806 0.2224065 0.4914834
0.9907270 0.2317806 0.4950312
-0.0095803 0.4849621 0.4910878
0.2383758 0.4849441 0.4906811
0.4883849 0.4877145 0.4919302
0.7427057 0.4947090 0.4963638
0.9976609 0.5020935 0.5006581
-0.0130042 0.7420728 0.4848934
0.2350384 0.7420779 0.4870987
0.4861488 0.7460672 0.4927923
0.7439661 0.7579934 0.4995753
1.0003432 0.7686111 0.5040268
-0.0183101 0.9981644 0.4833049
0.2271978 0.9943926 0.4857159
0.4789268 0.9980168 0.4934986
0.7379125 1.0130383 0.5004829
0.9941801 1.0258665 0.5027450
-0.0220610 -0.0666561 0.7532781
0.2222855 -0.0823997 0.7560396
0.4759126 -0.0766237 0.7567328
0.7352475 -0.0549182 0.7530088
0.9928245 -0.0378287 0.7512408
-0.0155683 0.2133817 0.7524028
0.2316594 0.2050248 0.7535510
0.4852060 0.2115420 0.7516785
0.7428601 0.2257332 0.7488394
1.0000004 0.2390636 0.7479873
-0.0089249 0.4999926 0.7502709
0.2411545 0.5001575 0.7494894
0.4913645 0.4977502 0.7460268
0.7445605 0.5009202 0.7446295
0.9995109 0.5066887 0.7451051
-0.0097899 0.7717590 0.7468440
0.2351819 0.7702564 0.7460071
0.4837449 0.7657915 0.7438157
0.7371635 0.7664452 0.7418340
0.9942669 0.7712506 0.7437486
-0.0164648 1.0277622 0.7436495
0.2263162 1.0274866 0.7446502
0.4715999 1.0262030 0.7441144
0.7262506 1.0266198 0.7434031
0.9858951 1.0318252 0.7456912
-0.0231103 -0.0677595 1.0081180
0.2254497 -0.0786502 1.0130519
0.4828515 -0.0719294 1.0157283
0.7442733 -0.0499840 1.0108169
1.0005379 -0.0319481 1.0063664
-0.0166223 0.2141965 1.0071533
0.2331935 0.2073893 1.0100496
0.4908786 0.2133336 1.0095168
0.7525484 0.2307546 1.0013042
1.0066618 0.2437830 0.9975187
-0.0101357 0.5041687 1.0048228
0.2406782 0.5055724 1.0038085
0.4931825 0.5048296 0.9970084
0.7472527 0.5057174 0.9905939
1.0018693 0.5112603 0.9897312
-0.0116345 0.7813913 1.0016489
0.2331032 0.7834553 0.9994072
0.4795504 0.7788906 0.9916905
0.7331912 0.7736296 0.9853568
0.9917623 0.7765329 0.9877626
-0.0175892 1.0427318 0.9987022
0.2236870 1.0438518 0.9974697
0.4667864 1.0414041 0.9925153
0.7211259 1.0371233 0.9887159
0.9825660 1.0399996 0.9913182
