ref/imx226_3500K_jzazbz_203.cube
TITLE "4528947088"
LUT_3D_SIZE 5
0.0115205 -0.0103413 -0.0007315
0.2600683 -0.0039968 0.0009886
0.4954771 -0.0269668 -0.0075797
0.7327092 -0.0501473 -0.0153452
0.9824375 -0.0512778 -0.0169539
0.0113968 0.2477408 -0.0053737
0.2583496 0.2488212 -0.0032713
0.4928851 0.2247590 -0.0107421
0.7329790 0.2092055 -0.0141919
0.9854699 0.2151393 -0.0140142
-0.0042269 0.4719010 -0.0215447
0.2410509 0.4610678 -0.0204727
0.4857047 0.4600904 -0.0183721
0.7368292 0.4701665 -0.0123933
0.9920721 0.4842844 -0.0101732
-0.0206633 0.7033571 -0.0372422
0.2227995 0.6891322 -0.0399283
0.4789848 0.7065884 -0.0317327
0.7402774 0.7340293 -0.0182217
0.9969498 0.7521854 -0.0122989
-0.0260505 0.9613348 -0.0424908
0.2179566 0.9503711 -0.0472973
0.4757034 0.9671352 -0.0403130
0.7387065 0.9947022 -0.0258913
0.9959470 1.0132760 -0.0170959
0.0037832 -0.0261223 0.2565804
0.2480373 -0.0313534 0.2559232
0.4837978 -0.0525552 0.2478549
0.7252333 -0.0637016 0.2404193
0.9794094 -0.0549371 0.2389986
0.0046569 0.2377970 0.2512999
0.2467778 0.2272494 0.2497680
0.4849089 0.2092050 0.2446397
0.7294210 0.2050455 0.2426870
0.9847355 0.2171349 0.2431549
-0.0095014 0.4706360 0.2345336
0.2358732 0.4644876 0.2354720
0.4854843 0.4676587 0.2397550
0.7405924 0.4810130 0.2474618
0.9961226 0.4938535 0.2507881
-0.0240778 0.7070222 0.2195536
0.2204203 0.6977323 0.2180357
0.4814091 0.7190835 0.2303315
0.7469867 0.7486199 0.2448572
1.0038285 0.7652347 0.2502391
-0.0281609 0.9652112 0.2182702
0.2153060 0.9541183 0.2135396
0.4767804 0.9729719 0.2228931
0.7437990 1.0035222 0.2388237
1.0003983 1.0210952 0.2464122
-0.0099615 -0.0588788 0.5118813
0.2323298 -0.0747561 0.5120245
0.4742339 -0.0840162 0.5076092
0.7252143 -0.0710031 0.5002441
0.9824162 -0.0511925 0.4953880
-0.0057733 0.2175552 0.5065040
0.2376856 0.2061922 0.5052531
0.4817204 0.1988869 0.5033281
0.7338727 0.2113299 0.4994154
0.9898292 0.2278763 0.4961987
-0.0101913 0.4777708 0.4982580
0.2382280 0.4764225 0.4988029
0.4886839 0.4793638 0.4995238
0.7434355 0.4896121 0.5008095
0.9986682 0.5006590 0.5015706
-0.0154666 0.7356428 0.4915394
0.2336627 0.7345341 0.4944801
0.4867372 0.7375246 0.5004280
0.7464919 0.7530229 0.5048315
1.0034663 0.7669302 0.5064310
-0.0211384 0.9873783 0.4936582
0.2250075 0.9805125 0.4978133
0.4792125 0.9829033 0.5054632
0.7410490 1.0010218 0.5108623
0.9980322 1.0179332 0.5105761
-0.0217710 -0.0884994 0.7686969
0.2224014 -0.1072750 0.7722122
0.4741856 -0.0979425 0.7675033
0.7320313 -0.0664489 0.7550973
0.9896871 -0.0412493 0.7476279
-0.0157276 0.1957674 0.7645322
0.2307109 0.1847919 0.7661520
0.4834377 0.1956492 0.7608382
0.7401643 0.2195517 0.7499827
0.9972193 0.2407232 0.7429001
-0.0085505 0.4861111 0.7637790
0.2417258 0.4873687 0.7627049
0.4916654 0.4867620 0.7575454
0.7447233 0.4944471 0.7516661
0.9994661 0.5057579 0.7467796
-0.0089707 0.7544303 0.7684256
0.2379172 0.7477384 0.7750863
0.4870983 0.7431090 0.7713394
0.7408439 0.7492567 0.7628013
0.9973610 0.7615620 0.7566320
-0.0161128 1.0016486 0.7735623
0.2281515 0.9901381 0.7868046
0.4757517 0.9833026 0.7918205
0.7313213 0.9908251 0.7824196
0.9906839 1.0091133 0.7712891
-0.0246601 -0.0938775 1.0241354
0.2234263 -0.1038438 1.0260216
0.4792200 -0.0894371 1.0199137
0.7393596 -0.0564337 1.0052648
0.9961835 -0.0320317 0.9979331
-0.0180005 0.1910499 1.0225179
0.2311871 0.1854383 1.0227747
0.4875264 0.2002323 1.0138359
0.7478435 0.2312429 0.9934724
1.0024633 0.2489489 0.9876003
-0.0098710 0.4826994 1.0247377
0.2415576 0.4862272 1.0231086
0.4937776 0.4906481 1.0129976
0.7469815 0.4990926 0.9993115
1.0009822 0.5106593 0.9919526
-0.0092841 0.7536246 1.0338160
0.2385713 0.7506780 1.0408432
0.4860667 0.7443477 1.0363828
0.7379692 0.7470915 1.0202266
0.9949348 0.7615139 1.0085768
-0.0149702 1.0052235 1.0415642
0.2292841 0.9945805 1.0551335
0.4744423 0.9845200 1.0587269
0.7280339 0.9897952 1.0438571
0.9880212 1.0093741 1.0282277
