ref/imx226_4500K_jzazbz_203.cube
TITLE "4521691280"
LUT_3D_SIZE 65
0.0082772 -0.0160519 -0.0057076
0.0240562 -0.0151236 -0.0055095
0.0398065 -0.0142257 -0.0053328
0.0555255 -0.0133644 -0.0051799
0.0712104 -0.0125462 -0.0050532
0.0868586 -0.0117781 -0.0049554
0.1024673 -0.0110674 -0.0048891
0.1180338 -0.0104216 -0.0048568
0.1335555 -0.0098483 -0.0048610
0.1490298 -0.0093554 -0.0049041
0.1644545 -0.0089502 -0.0049882
0.1798275 -0.0086401 -0.0051153
0.1951470 -0.0084319 -0.0052869
0.2104113 -0.0083318 -0.0055041
0.2256196 -0.0083453 -0.0057679
0.2407709 -0.0084773 -0.0060784
0.2558651 -0.0087314 -0.0064355
0.2709023 -0.0091102 -0.0068385
0.2858835 -0.0096151 -0.0072860
0.3008099 -0.0102458 -0.0077762
0.3156836 -0.0110007 -0.0083064
0.3305072 -0.0118764 -0.0088737
0.3452841 -0.0128681 -0.0094744
0.3600181 -0.0139692 -0.0101043
0.3747136 -0.0151720 -0.0107590
0.3893756 -0.0164671 -0.0114335
0.4040094 -0.0178443 -0.0121226
0.4186207 -0.0192925 -0.0128210
0.4332154 -0.0207996 -0.0135232
0.4477997 -0.0223534 -0.0142239
0.4623797 -0.0239416 -0.0149176
0.4769618 -0.0255516 -0.0155992
0.4915520 -0.0271714 -0.0162637
0.5061563 -0.0287894 -0.0169067
0.5207805 -0.0303943 -0.0175237
0.5354301 -0.0319757 -0.0181111
0.5501103 -0.0335239 -0.0186653
0.5648260 -0.0350300 -0.0191834
0.5795816 -0.0364860 -0.0196629
0.5943811 -0.0378846 -0.0201017
0.6092280 -0.0392196 -0.0204984
0.6241254 -0.0404857 -0.0208518
0.6390757 -0.0416785 -0.0211613
0.6540810 -0.0427945 -0.0214267
0.6691425 -0.0438312 -0.0216483
0.6842611 -0.0447867 -0.0218265
0.6994373 -0.0456601 -0.0219625
0.7146707 -0.0464513 -0.0220575
0.7299607 -0.0471608 -0.0221131
0.7453062 -0.0477900 -0.0221312
0.7607057 -0.0483405 -0.0221139
0.7761573 -0.0488146 -0.0220635
0.7916589 -0.0492151 -0.0219823
0.8072081 -0.0495449 -0.0218728
0.8228023 -0.0498075 -0.0217377
0.8384389 -0.0500061 -0.0215795
0.8541151 -0.0501445 -0.0214008
0.8698281 -0.0502261 -0.0212039
0.8855751 -0.0502546 -0.0209915
0.9013535 -0.0502335 -0.0207658
0.9171604 -0.0501663 -0.0205291
0.9329935 -0.0500563 -0.0202835
0.9488502 -0.0499065 -0.0200309
0.9647283 -0.0497201 -0.0197731
0.9806257 -0.0494997 -0.0195118
0.0088052 0.0010517 -0.0054515
0.0245953 0.0020046 -0.0052377
0.0403564 0.0029276 -0.0050456
0.0560856 0.0038142 -0.0048775
0.0717801 0.0046576 -0.0047363
0.0874371 0.0054505 -0.0046246
0.1030537 0.0061853 -0.0045453
0.1186271 0.0068541 -0.0045010
0.1341544 0.0074489 -0.0044946
0.1496329 0.0079616 -0.0045286
0.1650604 0.0083844 -0.0046052
0.1804344 0.0087096 -0.0047265
0.1957532 0.0089302 -0.0048943
0.2110150 0.0090393 -0.0051098
0.2262186 0.0090311 -0.0053740
0.2413632 0.0089005 -0.0056872
0.2564485 0.0086433 -0.0060493
0.2714745 0.0082566 -0.0064595
0.2864422 0.0077389 -0.0069165
0.3013529 0.0070903 -0.0074183
0.3162087 0.0063125 -0.0079622
0.3310125 0.0054089 -0.0085449
0.3457677 0.0043845 -0.0091626
0.3604784 0.0032464 -0.0098110
0.3751492 0.0020028 -0.0104850
0.3897854 0.0006637 -0.0111797
0.4043925 -0.0007600 -0.0118895
0.4189766 -0.0022564 -0.0126087
0.4335440 -0.0038126 -0.0133315
0.4481010 -0.0054158 -0.0140523
0.4626542 -0.0070527 -0.0147655
0.4772100 -0.0087103 -0.0154656
0.4917748 -0.0103760 -0.0161475
0.5063546 -0.0120376 -0.0168065
0.5209556 -0.0136836 -0.0174383
0.5355832 -0.0153034 -0.0180388
0.5502428 -0.0168870 -0.0186047
0.5649393 -0.0184254 -0.0191329
0.5796773 -0.0199105 -0.0196210
0.5944608 -0.0213350 -0.0200669
0.6092934 -0.0226928 -0.0204692
0.6241782 -0.0239784 -0.0208269
0.6391176 -0.0251876 -0.0211392
0.6541137 -0.0263169 -0.0214062
0.6691679 -0.0273639 -0.0216281
0.6842808 -0.0283268 -0.0218056
0.6994529 -0.0292049 -0.0219398
0.7146839 -0.0299981 -0.0220321
0.7299730 -0.0307073 -0.0220842
0.7453191 -0.0313337 -0.0220981
0.7607204 -0.0318794 -0.0220760
0.7761751 -0.0323468 -0.0220202
0.7916809 -0.0327389 -0.0219333
0.8072353 -0.0330589 -0.0218178
0.8228356 -0.0333102 -0.0216765
0.8384789 -0.0334966 -0.0215119
0.8541624 -0.0336219 -0.0213268
0.8698831 -0.0336898 -0.0211237
0.8856382 -0.0337041 -0.0209051
0.9014248 -0.0336686 -0.0206735
0.9172401 -0.0335869 -0.0204312
0.9330814 -0.0334625 -0.0201803
0.9489462 -0.0332985 -0.0199229
0.9648323 -0.0330983 -0.0196607
0.9807372 -0.0328645 -0.0193955
0.0092893 0.0180353 -0.0052177
0.0250895 0.0190091 -0.0049888
0.0408603 0.0199532 -0.0047815
0.0565988 0.0208613 -0.0045988
0.0723021 0.0217261 -0.0044433
0.0879670 0.0225401 -0.0043180
0.1035907 0.0232954 -0.0042260
0.1191701 0.0239837 -0.0041701
0.1347022 0.0245969 -0.0041533
0.1501844 0.0251264 -0.0041783
0.1656140 0.0255642 -0.0042476
0.1809886 0.0259024 -0.0043633
0.1963063 0.0261333 -0.0045273
0.2115653 0.0262499 -0.0047410
0.2267641 0.0262459 -0.0050055
0.2419019 0.0261157 -0.0053213
0.2569781 0.0258548 -0.0056882
0.2719930 0.0254601 -0.0061055
0.2869473 0.0249297 -0.0065718
0.3018426 0.0242635 -0.0070848
0.3166809 0.0234632 -0.0076420
0.3314653 0.0225324 -0.0082396
0.3461993 0.0214763 -0.0088738
0.3608873 0.0203024 -0.0095398
0.3755343 0.0190194 -0.0102325
0.3901456 0.0176379 -0.0109464
0.4047273 0.0161697 -0.0116757
0.4192856 0.0146276 -0.0124143
0.4338273 0.0130250 -0.0131564
0.4483588 0.0113758 -0.0138957
0.4628871 0.0096940 -0.0146266
0.4774188 0.0079930 -0.0153433
0.4919604 0.0062862 -0.0160406
0.5065184 0.0045861 -0.0167136
0.5210986 0.0029044 -0.0173578
0.5357069 0.0012521 -0.0179692
0.5503487 -0.0003609 -0.0185445
0.5650288 -0.0019255 -0.0190805
0.5797519 -0.0034336 -0.0195750
0.5945220 -0.0048780 -0.0200259
0.6093429 -0.0062525 -0.0204317
0.6242175 -0.0075518 -0.0207915
0.6391485 -0.0087717 -0.0211048
0.6541377 -0.0099088 -0.0213716
0.6691865 -0.0109608 -0.0215923
0.6842957 -0.0119261 -0.0217676
0.6994656 -0.0128041 -0.0218987
0.7146959 -0.0135949 -0.0219872
0.7299857 -0.0142994 -0.0220348
0.7453337 -0.0149192 -0.0220437
0.7607381 -0.0154565 -0.0220161
0.7761971 -0.0159138 -0.0219544
0.7917081 -0.0162944 -0.0218613
0.8072685 -0.0166015 -0.0217395
0.8228756 -0.0168390 -0.0215917
0.8385263 -0.0170107 -0.0214207
0.8542177 -0.0171206 -0.0212293
0.8699467 -0.0171727 -0.0210200
0.8857103 -0.0171709 -0.0207954
0.9015054 -0.0171192 -0.0205582
0.9173293 -0.0170213 -0.0203105
0.9331792 -0.0168809 -0.0200547
0.9490523 -0.0167014 -0.0197927
0.9649464 -0.0164859 -0.0195266
0.9808591 -0.0162376 -0.0192578
0.0097255 0.0348899 -0.0050101
0.0255346 0.0358800 -0.0047666
0.0413141 0.0368409 -0.0045449
0.0570607 0.0377659 -0.0043480
0.0727716 0.0386477 -0.0041788
0.0884435 0.0394785 -0.0040405
0.1040732 0.0402501 -0.0039362
0.1196577 0.0409541 -0.0038692
0.1351938 0.0415819 -0.0038424
0.1506788 0.0421249 -0.0038587
0.1661099 0.0425747 -0.0039208
0.1814847 0.0429231 -0.0040310
0.1968009 0.0431622 -0.0041913
0.2120567 0.0432846 -0.0044034
0.2272505 0.0432834 -0.0046682
0.2423812 0.0431526 -0.0049865
0.2574484 0.0428875 -0.0053580
0.2724522 0.0424845 -0.0057821
0.2873934 0.0419415 -0.0062573
0.3022734 0.0412582 -0.0067812
0.3170946 0.0404361 -0.0073511
0.3318601 0.0394791 -0.0079631
0.3465737 0.0383926 -0.0086129
0.3612398 0.0371843 -0.0092957
0.3758639 0.0358638 -0.0100059
0.3904516 0.0344422 -0.0107379
0.4050093 0.0329321 -0.0114853
0.4195435 0.0313473 -0.0122419
0.4340613 0.0297020 -0.0130013
0.4485695 0.0280108 -0.0137574
0.4630752 0.0262885 -0.0145038
0.4775853 0.0245493 -0.0152349
0.4921065 0.0228069 -0.0159453
0.5066453 0.0210742 -0.0166297
0.5212078 0.0193631 -0.0172839
0.5357998 0.0176847 -0.0179037
0.5504267 0.0160490 -0.0184858
0.5650935 0.0144651 -0.0190271
0.5798047 0.0129408 -0.0195254
0.5945645 0.0114833 -0.0199787
0.6093764 0.0100988 -0.0203858
0.6242436 0.0087922 -0.0207456
0.6391687 0.0075679 -0.0210578
0.6541534 0.0064289 -0.0213225
0.6691992 0.0053776 -0.0215402
0.6843069 0.0044153 -0.0217118
0.6994766 0.0035425 -0.0218385
0.7147079 0.0027589 -0.0219219
0.7300000 0.0020635 -0.0219640
0.7453514 0.0014544 -0.0219669
0.7607604 0.0009295 -0.0219330
0.7762247 0.0004858 -0.0218649
0.7917420 0.0001200 -0.0217653
0.8073094 -0.0001714 -0.0216369
0.8229240 -0.0003923 -0.0214825
0.8385828 -0.0005469 -0.0213050
0.8542826 -0.0006391 -0.0211072
0.8700202 -0.0006733 -0.0208919
0.8857926 -0.0006536 -0.0206616
0.9015967 -0.0005839 -0.0204189
0.9174294 -0.0004682 -0.0201663
0.9332879 -0.0003104 -0.0199059
0.9491696 -0.0001139 -0.0196399
0.9650718 0.0001179 -0.0193701
0.9809922 0.0003819 -0.0190984
0.0101101 0.0516067 -0.0048326
0.0259268 0.0526081 -0.0045753
0.0417135 0.0535807 -0.0043400
0.0574671 0.0545177 -0.0041296
0.0731843 0.0554116 -0.0039475
0.0888618 0.0562543 -0.0037968
0.1044965 0.0570374 -0.0036810
0.1200850 0.0577525 -0.0036033
0.1356242 0.0583908 -0.0035670
0.1511112 0.0589435 -0.0035751
0.1665431 0.0594020 -0.0036303
0.1819174 0.0597577 -0.0037353
0.1972316 0.0600025 -0.0038920
0.2124838 0.0601285 -0.0041024
0.2276723 0.0601285 -0.0043676
0.2427959 0.0599961 -0.0046882
0.2578540 0.0597260 -0.0050642
0.2728468 0.0593144 -0.0054948
0.2877749 0.0587589 -0.0059785
0.3026401 0.0580590 -0.0065128
0.3174446 0.0572162 -0.0070947
0.3321918 0.0562342 -0.0077203
0.3468857 0.0551189 -0.0083849
0.3615311 0.0538784 -0.0090834
0.3761335 0.0525227 -0.0098099
0.3906991 0.0510639 -0.0105584
0.4052344 0.0495154 -0.0113222
0.4197465 0.0478916 -0.0120949
0.4342426 0.0462079 -0.0128697
0.4487300 0.0444797 -0.0136402
0.4632158 0.0427223 -0.0143999
0.4777072 0.0409507 -0.0151428
0.4922110 0.0391790 -0.0158635
0.5067338 0.0374204 -0.0165568
0.5212818 0.0356869 -0.0172181
0.5358609 0.0339898 -0.0178434
0.5504763 0.0323389 -0.0184295
0.5651330 0.0307431 -0.0189733
0.5798357 0.0292101 -0.0194726
0.5945883 0.0277470 -0.0199257
0.6093944 0.0263596 -0.0203314
0.6242571 0.0250528 -0.0206888
0.6391790 0.0238306 -0.0209977
0.6541619 0.0226962 -0.0212583
0.6692072 0.0216517 -0.0214712
0.6843156 0.0206981 -0.0216373
0.6994871 0.0198358 -0.0217581
0.7147214 0.0190644 -0.0218352
0.7300175 0.0183827 -0.0218706
0.7453739 0.0177888 -0.0218667
0.7607887 0.0172801 -0.0218258
0.7762597 0.0168536 -0.0217507
0.7917842 0.0165059 -0.0216441
0.8073594 0.0162333 -0.0215088
0.8229823 0.0160316 -0.0213477
0.8386497 0.0158967 -0.0211637
0.8543584 0.0158243 -0.0209597
0.8701051 0.0158100 -0.0207385
0.8858866 0.0158495 -0.0205028
0.9016998 0.0159388 -0.0202551
0.9175415 0.0160737 -0.0199978
0.9334088 0.0162503 -0.0197333
0.9492989 0.0164650 -0.0194638
0.9652093 0.0167143 -0.0191910
0.9811374 0.0169950 -0.0189168
0.0104396 0.0681777 -0.0046889
0.0262624 0.0691849 -0.0044188
0.0420549 0.0701637 -0.0041708
0.0578138 0.0711071 -0.0039480
0.0735359 0.0720074 -0.0037538
0.0892178 0.0728565 -0.0035916
0.1048561 0.0736461 -0.0034650
0.1204475 0.0743674 -0.0033775
0.1359888 0.0750116 -0.0033322
0.1514769 0.0755698 -0.0033325
0.1669088 0.0760331 -0.0033813
0.1822819 0.0763929 -0.0034813
0.1975936 0.0766404 -0.0036347
0.2128417 0.0767677 -0.0038435
0.2280245 0.0767669 -0.0041090
0.2431407 0.0766314 -0.0044319
0.2581897 0.0763555 -0.0048122
0.2731714 0.0759349 -0.0052490
0.2880868 0.0753670 -0.0057407
0.3029374 0.0746510 -0.0062849
0.3177258 0.0737885 -0.0068781
0.3324555 0.0727831 -0.0075163
0.3471307 0.0716412 -0.0081945
0.3617565 0.0703710 -0.0089073
0.3763388 0.0689835 -0.0096486
0.3908841 0.0674912 -0.0104118
0.4053992 0.0659084 -0.0111901
0.4198916 0.0642506 -0.0119766
0.4343686 0.0625338 -0.0127644
0.4488379 0.0607743 -0.0135467
0.4633068 0.0589883 -0.0143168
0.4777827 0.0571911 -0.0150688
0.4922726 0.0553972 -0.0157968
0.5067829 0.0536202 -0.0164958
0.5213200 0.0518722 -0.0171612
0.5358896 0.0501643 -0.0177891
0.5504971 0.0485062 -0.0183760
0.5651474 0.0469067 -0.0189192
0.5798450 0.0453732 -0.0194167
0.5945938 0.0439123 -0.0198668
0.6093974 0.0425296 -0.0202684
0.6242588 0.0412300 -0.0206208
0.6391805 0.0400171 -0.0209241
0.6541644 0.0388940 -0.0211784
0.6692117 0.0378624 -0.0213844
0.6843231 0.0369235 -0.0215433
0.6994987 0.0360774 -0.0216566
0.7147380 0.0353234 -0.0217261
0.7300398 0.0346602 -0.0217538
0.7454028 0.0340857 -0.0217421
0.7608248 0.0335973 -0.0216935
0.7763036 0.0331918 -0.0216108
0.7918363 0.0328655 -0.0214968
0.8074202 0.0326146 -0.0213544
0.8230521 0.0324349 -0.0211865
0.8387287 0.0323220 -0.0209961
0.8544468 0.0322716 -0.0207860
0.8702028 0.0322791 -0.0205592
0.8859937 0.0323402 -0.0203183
0.9018161 0.0324506 -0.0200660
0.9176668 0.0326061 -0.0198046
0.9335429 0.0328028 -0.0195366
0.9494415 0.0330368 -0.0192640
0.9653599 0.0333046 -0.0189888
0.9812957 0.0336029 -0.0187128
0.0107106 0.0845957 -0.0045827
0.0265378 0.0856026 -0.0043010
0.0423345 0.0865815 -0.0040414
0.0580972 0.0875251 -0.0038073
0.0738227 0.0884259 -0.0036021
0.0895075 0.0892757 -0.0034295
0.1051481 0.0900661 -0.0032931
0.1207411 0.0907882 -0.0031963
0.1362833 0.0914334 -0.0031429
0.1517714 0.0919924 -0.0031359
0.1672025 0.0924564 -0.0031787
0.1825737 0.0928163 -0.0032740
0.1978822 0.0930634 -0.0034243
0.2131257 0.0931889 -0.0036317
0.2283024 0.0931851 -0.0038976
0.2434109 0.0930447 -0.0042227
0.2584506 0.0927617 -0.0046071
0.2734213 0.0923314 -0.0050498
0.2883240 0.0917510 -0.0055491
0.3031605 0.0910196 -0.0061023
0.3179335 0.0901386 -0.0067060
0.3326466 0.0891119 -0.0073557
0.3473044 0.0879459 -0.0080462
0.3619122 0.0866495 -0.0087717
0.3764763 0.0852341 -0.0095258
0.3910034 0.0837130 -0.0103016
0.4055008 0.0821013 -0.0110920
0.4199761 0.0804154 -0.0118897
0.4344371 0.0786720 -0.0126877
0.4488916 0.0768883 -0.0134788
0.4633471 0.0750810 -0.0142563
0.4778111 0.0732659 -0.0150141
0.4922906 0.0714581 -0.0157463
0.5067923 0.0696711 -0.0164477
0.5213222 0.0679171 -0.0171138
0.5358863 0.0662070 -0.0177408
0.5504897 0.0645504 -0.0183254
0.5651373 0.0629557 -0.0188649
0.5798334 0.0614301 -0.0193574
0.5945821 0.0599797 -0.0198015
0.6093866 0.0586100 -0.0201962
0.6242499 0.0573252 -0.0205411
0.6391745 0.0561290 -0.0208362
0.6541621 0.0550240 -0.0210819
0.6692141 0.0540120 -0.0212791
0.6843311 0.0530939 -0.0214291
0.6995129 0.0522696 -0.0215333
0.7147592 0.0515382 -0.0215938
0.7300686 0.0508983 -0.0216126
0.7454397 0.0503478 -0.0215922
0.7608703 0.0498837 -0.0215351
0.7763580 0.0495027 -0.0214443
0.7919001 0.0492011 -0.0213226
0.8074935 0.0489749 -0.0211728
0.8231350 0.0488198 -0.0209981
0.8388213 0.0487314 -0.0208013
0.8545491 0.0487051 -0.0205854
0.8703148 0.0487363 -0.0203532
0.8861151 0.0488205 -0.0201076
0.9019468 0.0489534 -0.0198511
0.9178065 0.0491308 -0.0195862
0.9336913 0.0493486 -0.0193152
0.9495982 0.0496028 -0.0190403
0.9655245 0.0498900 -0.0187633
0.9814677 0.0502068 -0.0184861
0.0109202 0.1008544 -0.0045173
0.0267501 0.1018546 -0.0042254
0.0425491 0.1028270 -0.0039556
0.0583140 0.1037645 -0.0037115
0.0740412 0.1046594 -0.0034966
0.0897272 0.1055036 -0.0033146
0.1053687 0.1062887 -0.0031693
0.1209620 0.1070060 -0.0030644
0.1365039 0.1076466 -0.0030034
0.1519911 0.1082014 -0.0029899
0.1674204 0.1086614 -0.0030272
0.1827887 0.1090172 -0.0031183
0.1980932 0.1092597 -0.0032658
0.2133315 0.1093803 -0.0034720
0.2285016 0.1093704 -0.0037383
0.2436021 0.1092228 -0.0040656
0.2586321 0.1089310 -0.0044538
0.2735919 0.1084902 -0.0049020
0.2884822 0.1078971 -0.0054083
0.3033051 0.1071508 -0.0059698
0.3180634 0.1062528 -0.0065828
0.3327611 0.1052071 -0.0072426
0.3474029 0.1040203 -0.0079437
0.3619947 0.1027018 -0.0086800
0.3765427 0.1012635 -0.0094446
0.3910543 0.0997195 -0.0102305
0.4055370 0.0980855 -0.0110302
0.4199985 0.0963787 -0.0118362
0.4344470 0.0946166 -0.0126411
0.4488903 0.0928169 -0.0134378
0.4633363 0.0909969 -0.0142193
0.4777923 0.0891730 -0.0149794
0.4922655 0.0873602 -0.0157121
0.5067624 0.0855724 -0.0164125
0.5212893 0.0838216 -0.0170759
0.5358517 0.0821186 -0.0176985
0.5504550 0.0804727 -0.0182774
0.5651037 0.0788918 -0.0188099
0.5798022 0.0773828 -0.0192943
0.5945543 0.0759515 -0.0197293
0.6093632 0.0746029 -0.0201142
0.6242318 0.0733409 -0.0204488
0.6391625 0.0721688 -0.0207333
0.6541569 0.0710891 -0.0209682
0.6692162 0.0701032 -0.0211546
0.6843412 0.0692120 -0.0212937
0.6995316 0.0684152 -0.0213873
0.7147868 0.0677118 -0.0214374
0.7301056 0.0671001 -0.0214462
0.7454864 0.0665778 -0.0214162
0.7609269 0.0661420 -0.0213500
0.7764248 0.0657892 -0.0212506
0.7919771 0.0655156 -0.0211207
0.8075807 0.0653170 -0.0209635
0.8232325 0.0651891 -0.0207819
0.8389290 0.0651272 -0.0205788
0.8546668 0.0651270 -0.0203573
0.8704423 0.0651836 -0.0201203
0.8862523 0.0652925 -0.0198703
0.9020932 0.0654492 -0.0196102
0.9179618 0.0656496 -0.0193423
0.9338552 0.0658894 -0.0190690
0.9497702 0.0661648 -0.0187924
0.9657041 0.0664722 -0.0185144
0.9816544 0.0668080 -0.0182368
0.0110658 0.1169488 -0.0044960
0.0268964 0.1179354 -0.0041954
0.0426960 0.1188945 -0.0039169
0.0584611 0.1198189 -0.0036642
0.0741883 0.1207012 -0.0034409
0.0898741 0.1215332 -0.0032508
0.1055148 0.1223068 -0.0030977
0.1211071 0.1230131 -0.0029855
0.1366474 0.1236433 -0.0029179
0.1521324 0.1241884 -0.0028986
0.1675588 0.1246390 -0.0029310
0.1829233 0.1249858 -0.0030184
0.1982230 0.1252195 -0.0031636
0.2134553 0.1253310 -0.0033688
0.2286182 0.1253117 -0.0036356
0.2437101 0.1251540 -0.0039650
0.2587304 0.1248513 -0.0043568
0.2736790 0.1243984 -0.0048100
0.2885572 0.1237922 -0.0053226
0.3033671 0.1230317 -0.0058914
0.3181118 0.1221184 -0.0065124
0.3327955 0.1210564 -0.0071807
0.3474233 0.1198529 -0.0078904
0.3620013 0.1185174 -0.0086350
0.3765362 0.1170625 -0.0094075
0.3910353 0.1155027 -0.0102005
0.4055067 0.1138545 -0.0110063
0.4199582 0.1121354 -0.0118172
0.4343980 0.1103637 -0.0126255
0.4488343 0.1085577 -0.0134241
0.4632748 0.1067349 -0.0142058
0.4777271 0.1049121 -0.0149645
0.4921982 0.1031045 -0.0156941
0.5066947 0.1013258 -0.0163896
0.5212226 0.0995881 -0.0170467
0.5357876 0.0979018 -0.0176615
0.5503947 0.0962760 -0.0182311
0.5650485 0.0947181 -0.0187533
0.5797531 0.0932347 -0.0192264
0.5945123 0.0918312 -0.0196494
0.6093291 0.0905119 -0.0200217
0.6242064 0.0892807 -0.0203433
0.6391462 0.0881402 -0.0206146
0.6541503 0.0870928 -0.0208365
0.6692198 0.0861398 -0.0210099
0.6843552 0.0852816 -0.0211365
0.6995563 0.0845179 -0.0212179
0.7148225 0.0838477 -0.0212563
0.7301525 0.0832689 -0.0212540
0.7455445 0.0827792 -0.0212135
0.7609963 0.0823756 -0.0211375
0.7765054 0.0820544 -0.0210290
0.7920688 0.0818119 -0.0208908
0.8076835 0.0816436 -0.0207260
0.8233460 0.0815452 -0.0205375
0.8390531 0.0815122 -0.0203284
0.8548012 0.0815398 -0.0201016
0.8705867 0.0816233 -0.0198600
0.8864062 0.0817583 -0.0196063
0.9022563 0.0819400 -0.0193431
0.9181337 0.0821644 -0.0190729
0.9340354 0.0824271 -0.0187980
0.9499582 0.0827244 -0.0185204
0.9658994 0.0830524 -0.0182421
0.9818564 0.0834078 -0.0179649
0.0111453 0.1328748 -0.0045217
0.0269746 0.1338409 -0.0042140
0.0427728 0.1347796 -0.0039285
0.0585363 0.1356840 -0.0036687
0.0742617 0.1365466 -0.0034385
0.0899454 0.1373597 -0.0032415
0.1055840 0.1381150 -0.0030819
0.1211737 0.1388038 -0.0029635
0.1367111 0.1394174 -0.0028902
0.1521926 0.1399467 -0.0028659
0.1676148 0.1403823 -0.0028942
0.1829744 0.1407146 -0.0029784
0.1982683 0.1409343 -0.0031216
0.2134938 0.1410321 -0.0033262
0.2286487 0.1409994 -0.0035937
0.2437316 0.1408281 -0.0039251
0.2587417 0.1405118 -0.0043202
0.2736793 0.1400452 -0.0047778
0.2885457 0.1394252 -0.0052957
0.3033434 0.1386511 -0.0058705
0.3180758 0.1377245 -0.0064979
0.3327474 0.1366498 -0.0071725
0.3473635 0.1354344 -0.0078883
0.3619305 0.1340883 -0.0086385
0.3764555 0.1326242 -0.0094158
0.3909459 0.1310572 -0.0102125
0.4054099 0.1294040 -0.0110208
0.4198555 0.1276827 -0.0118327
0.4342911 0.1259120 -0.0126407
0.4487248 0.1241105 -0.0134372
0.4631644 0.1222960 -0.0142152
0.4776175 0.1204853 -0.0149685
0.4920909 0.1186938 -0.0156911
0.5065913 0.1169349 -0.0163781
0.5211245 0.1152207 -0.0170250
0.5356962 0.1135613 -0.0176284
0.5503111 0.1119653 -0.0181854
0.5649739 0.1104399 -0.0186940
0.5796884 0.1089910 -0.0191527
0.5944582 0.1076237 -0.0195606
0.6092864 0.1063421 -0.0199175
0.6241755 0.1051493 -0.0202235
0.6391277 0.1040480 -0.0204793
0.6541444 0.1030398 -0.0206859
0.6692267 0.1021260 -0.0208445
0.6843750 0.1013068 -0.0209567
0.6995891 0.1005819 -0.0210245
0.7148682 0.0999497 -0.0210499
0.7302110 0.0994085 -0.0210355
0.7456157 0.0989555 -0.0209837
0.7610801 0.0985878 -0.0208973
0.7766015 0.0983016 -0.0207793
0.7921769 0.0980931 -0.0206325
0.8078032 0.0979577 -0.0204600
0.8234770 0.0978912 -0.0202648
0.8391950 0.0978888 -0.0200499
0.8549535 0.0979460 -0.0198181
0.8707490 0.0980580 -0.0195724
0.8865781 0.0982201 -0.0193155
0.9024372 0.0984279 -0.0190499
0.9183232 0.0986771 -0.0187780
0.9342328 0.0989634 -0.0185022
0.9501630 0.0992831 -0.0182244
0.9661111 0.0996323 -0.0179467
0.9820745 0.1000077 -0.0176706
0.0111569 0.1486303 -0.0045968
0.0269829 0.1495685 -0.0042839
0.0427776 0.1504796 -0.0039930
0.0585377 0.1513568 -0.0037278
0.0742594 0.1521927 -0.0034921
0.0899394 0.1529797 -0.0032897
0.1055740 0.1537098 -0.0031248
0.1211596 0.1543743 -0.0030014
0.1366925 0.1549647 -0.0029235
0.1521692 0.1554716 -0.0028951
0.1675860 0.1558859 -0.0029200
0.1829395 0.1561978 -0.0030018
0.1982265 0.1563979 -0.0031436
0.2134441 0.1564769 -0.0033478
0.2285903 0.1564259 -0.0036161
0.2436635 0.1562373 -0.0039493
0.2586632 0.1559042 -0.0043473
0.2735898 0.1554219 -0.0048086
0.2884451 0.1547875 -0.0053307
0.3032316 0.1540005 -0.0059099
0.3179534 0.1530630 -0.0065415
0.3326151 0.1519799 -0.0072200
0.3472225 0.1507585 -0.0079389
0.3617821 0.1494092 -0.0086913
0.3763009 0.1479448 -0.0094698
0.3907868 0.1463804 -0.0102663
0.4052478 0.1447331 -0.0110731
0.4196923 0.1430211 -0.0118820
0.4341284 0.1412633 -0.0126853
0.4485642 0.1394783 -0.0134756
0.4630077 0.1376841 -0.0142459
0.4774661 0.1358974 -0.0149897
0.4919465 0.1341335 -0.0157014
0.5064551 0.1324058 -0.0163760
0.5209980 0.1307258 -0.0170092
0.5355803 0.1291035 -0.0175977
0.5502071 0.1275471 -0.0181387
0.5648825 0.1260634 -0.0186305
0.5796106 0.1246580 -0.0190717
0.5943945 0.1233355 -0.0194618
0.6092374 0.1220994 -0.0198006
0.6241416 0.1209526 -0.0200886
0.6391090 0.1198974 -0.0203266
0.6541412 0.1189353 -0.0205158
0.6692388 0.1180669 -0.0206577
0.6844024 0.1172926 -0.0207539
0.6996316 0.1166115 -0.0208066
0.7149255 0.1160224 -0.0208179
0.7302829 0.1155230 -0.0207904
0.7457017 0.1151107 -0.0207266
0.7611797 0.1147824 -0.0206293
0.7767144 0.1145343 -0.0205014
0.7923025 0.1143624 -0.0203458
0.8079411 0.1142624 -0.0201657
0.8236266 0.1142298 -0.0199639
0.8393557 0.1142599 -0.0197434
0.8551248 0.1143481 -0.0195071
0.8709304 0.1144898 -0.0192578
0.8867688 0.1146802 -0.0189981
0.9026368 0.1149149 -0.0187308
0.9185310 0.1151896 -0.0184580
0.9344482 0.1155001 -0.0181820
0.9503855 0.1158426 -0.0179049
0.9663400 0.1162133 -0.0176285
0.9823091 0.1166088 -0.0173545
0.0110993 0.1642141 -0.0047235
0.0269200 0.1651174 -0.0044072
0.0427093 0.1659936 -0.0041127
0.0584639 0.1668362 -0.0038437
0.0741802 0.1676382 -0.0036041
0.0898546 0.1683920 -0.0033978
0.1054836 0.1690896 -0.0032290
0.1210634 0.1697228 -0.0031019
0.1365903 0.1702829 -0.0030206
0.1520605 0.1707608 -0.0029892
0.1674705 0.1711471 -0.0030117
0.1828166 0.1714322 -0.0030917
0.1980954 0.1716066 -0.0032325
0.2133042 0.1716611 -0.0034366
0.2284409 0.1715870 -0.0037058
0.2435039 0.1713766 -0.0040406
0.2584929 0.1710235 -0.0044409
0.2734088 0.1705233 -0.0049049
0.2882537 0.1698738 -0.0054297
0.3030306 0.1690752 -0.0060112
0.3177439 0.1681300 -0.0066445
0.3323986 0.1670433 -0.0073237
0.3470008 0.1658230 -0.0080423
0.3615568 0.1644791 -0.0087930
0.3760741 0.1630245 -0.0095684
0.3905602 0.1614740 -0.0103606
0.4050232 0.1598447 -0.0111615
0.4194714 0.1581546 -0.0119630
0.4339130 0.1564225 -0.0127573
0.4483561 0.1546670 -0.0135371
0.4628083 0.1529059 -0.0142953
0.4772768 0.1511557 -0.0150257
0.4917686 0.1494315 -0.0157226
0.5062898 0.1477463 -0.0163811
0.5208464 0.1461115 -0.0169971
0.5354434 0.1445366 -0.0175672
0.5500858 0.1430296 -0.0180892
0.5647776 0.1415967 -0.0185611
0.5795226 0.1402434 -0.0189820
0.5943240 0.1389736 -0.0193515
0.6091847 0.1377907 -0.0196698
0.6241069 0.1366971 -0.0199375
0.6390925 0.1356948 -0.0201556
0.6541427 0.1347850 -0.0203256
0.6692582 0.1339680 -0.0204490
0.6844393 0.1332439 -0.0205278
0.6996856 0.1326117 -0.0205641
0.7149962 0.1320701 -0.0205602
0.7303695 0.1316167 -0.0205187
0.7458038 0.1312488 -0.0204422
0.7612966 0.1309630 -0.0203335
0.7768454 0.1307559 -0.0201955
0.7924470 0.1306233 -0.0200311
