ref/imx226_4000K_jzazbz_203.cube
TITLE "4527060496"
LUT_3D_SIZE 9
0.0092985 -0.0147471 -0.0033884
0.1349086 -0.0084944 -0.0020114
0.2574569 -0.0077029 -0.0030397
0.3764009 -0.0148728 -0.0069382
0.4931958 -0.0277991 -0.0122836
0.6107122 -0.0406366 -0.0167471
0.7312143 -0.0489290 -0.0190022
0.8551433 -0.0517450 -0.0191986
0.9814913 -0.0505607 -0.0182985
0.0119211 0.1191749 -0.0030173
0.1377974 0.1259219 -0.0009194
0.2600926 0.1266784 -0.0017558
0.3779981 0.1179079 -0.0062434
0.4936554 0.1028078 -0.0122161
0.6106640 0.0892608 -0.0166404
0.7312719 0.0815641 -0.0184411
0.8557012 0.0799807 -0.0181721
0.9826073 0.0824156 -0.0170052
0.0102277 0.2424077 -0.0057380
0.1354477 0.2462680 -0.0037453
0.2570721 0.2447877 -0.0046625
0.3749374 0.2361864 -0.0087389
0.4915586 0.2240620 -0.0135056
0.6099593 0.2144667 -0.0162848
0.7319425 0.2104334 -0.0166619
0.8573094 0.2114629 -0.0157099
0.9847009 0.2155241 -0.0144960
0.0043983 0.3564978 -0.0117468
0.1282476 0.3550113 -0.0106325
0.2497434 0.3512496 -0.0111312
0.3695719 0.3464063 -0.0129161
0.4886629 0.3411699 -0.0151388
0.6096605 0.3384640 -0.0154546
0.7337348 0.3396196 -0.0140600
0.8601714 0.3437094 -0.0124332
0.9878123 0.3492530 -0.0113810
-0.0036548 0.4675469 -0.0194440
0.1193089 0.4620438 -0.0189226
0.2416206 0.4577790 -0.0184285
0.3634717 0.4564950 -0.0181968
0.4857288 0.4587959 -0.0175034
0.6101000 0.4637480 -0.0150377
0.7363206 0.4698643 -0.0120433
0.8636992 0.4766718 -0.0098205
0.9913807 0.4833538 -0.0088565
-0.0119984 0.5809462 -0.0272154
0.1101103 0.5730121 -0.0274991
0.2329179 0.5688010 -0.0267748
0.3569780 0.5709335 -0.0249861
0.4830943 0.5797497 -0.0213222
0.6107006 0.5906192 -0.0164052
0.7387909 0.6006626 -0.0120175
0.8668735 0.6095303 -0.0091323
0.9944796 0.6169958 -0.0079211
-0.0189416 0.6998078 -0.0337931
0.1020168 0.6901583 -0.0354960
0.2247666 0.6858130 -0.0355462
0.3508288 0.6905316 -0.0327822
0.4801078 0.7032862 -0.0269750
0.6104983 0.7182662 -0.0199780
0.7401869 0.7311878 -0.0141901
0.8687628 0.7413986 -0.0104825
0.9963000 0.7493636 -0.0086918
-0.0230445 0.8256859 -0.0378262
0.0974663 0.8159868 -0.0404471
0.2201954 0.8116929 -0.0412506
0.3470566 0.8168276 -0.0384962
0.4777395 0.8305131 -0.0320152
0.6095373 0.8468951 -0.0241001
0.7400945 0.8609998 -0.0174486
0.8689676 0.8718495 -0.0130054
0.9965345 0.8801401 -0.0105324
-0.0241923 0.9577400 -0.0387661
0.0968660 0.9496986 -0.0412733
0.2200191 0.9463542 -0.0420824
0.3468286 0.9507904 -0.0397047
0.4770574 0.9625375 -0.0339589
0.6084393 0.9771776 -0.0267141
0.7388658 0.9905175 -0.0202368
0.8677757 1.0012462 -0.0155247
0.9954184 1.0096198 -0.0125731
0.0067246 -0.0175549 0.1249061
0.1314376 -0.0133055 0.1256846
0.2530284 -0.0147248 0.1239850
0.3714112 -0.0230512 0.1196456
0.4881631 -0.0356058 0.1140892
0.6059656 -0.0472167 0.1094985
0.7271359 -0.0539354 0.1072983
0.8521278 -0.0549141 0.1074671
0.9796447 -0.0518804 0.1088588
0.0093585 0.1171379 0.1251357
0.1340926 0.1214111 0.1264020
0.2550151 0.1188491 0.1245396
0.3722766 0.1083735 0.1195761
0.4883328 0.0943245 0.1137231
0.6058969 0.0827721 0.1094587
0.7272793 0.0771216 0.1078475
0.8528873 0.0776114 0.1085918
0.9810228 0.0819029 0.1103791
0.0076769 0.2414206 0.1220760
0.1318083 0.2432469 0.1232366
0.2518900 0.2380739 0.1210483
0.3694509 0.2279567 0.1167072
0.4873559 0.2182220 0.1128230
0.6065151 0.2107421 0.1105224
0.7291295 0.2083579 0.1104974
0.8554574 0.2110140 0.1119072
0.9838552 0.2164657 0.1136241
0.0017045 0.3563755 0.1153799
0.1247553 0.3541357 0.1158077
0.2455500 0.3493841 0.1146903
0.3659241 0.3445167 0.1132393
0.4864016 0.3407506 0.1120466
0.6083914 0.3395325 0.1125274
0.7330088 0.3414640 0.1145584
0.8599697 0.3461449 0.1166687
0.9881968 0.3522543 0.1179446
-0.0065916 0.4677380 0.1068733
0.1160305 0.4627550 0.1069411
0.2384696 0.4598959 0.1075504
0.3609291 0.4591545 0.1081794
0.4847112 0.4623022 0.1099553
0.6105461 0.4685082 0.1137734
0.7375059 0.4750626 0.1178194
0.8653346 0.4820449 0.1206592
0.9932387 0.4886117 0.1216203
-0.0151310 0.5808773 0.0985805
0.1067154 0.5735626 0.0978148
0.2299041 0.5708952 0.0988897
0.3548901 0.5743555 0.1013568
0.4830466 0.5851830 0.1066042
0.6122903 0.5973083 0.1131235
0.7414146 0.6080584 0.1186484
0.8700108 0.6170943 0.1220916
0.9975527 0.6239939 0.1231540
-0.0220571 0.6994547 0.0920348
0.0982300 0.6893705 0.0894768
0.2210417 0.6855923 0.0895086
0.3484430 0.6921871 0.0933381
0.4801756 0.7079628 0.1010256
0.6127466 0.7254248 0.1099560
0.7436683 0.7395268 0.1168212
0.8726276 0.7497996 0.1208721
0.9998559 0.7569212 0.1224287
-0.0258469 0.8255174 0.0886227
0.0938254 0.8147356 0.0850185
0.2163364 0.8101111 0.0839515
0.3444173 0.8166873 0.0876437
0.4775887 0.8335972 0.0959535
0.6117930 0.8531679 0.1057822
0.7435813 0.8687179 0.1134645
0.8726269 0.8795411 0.1181406
0.9997815 0.8870299 0.1203811
-0.0265465 0.9579957 0.0886097
0.0938605 0.9489951 0.0853703
0.2167580 0.9450386 0.0841892
0.3444671 0.9503364 0.0871063
0.4767216 0.9645689 0.0942555
0.6101009 0.9817905 0.1030169
0.7415300 0.9964159 0.1103812
0.8705308 1.0072394 0.1153111
0.9978817 1.0152013 0.1180950
0.0019398 -0.0261728 0.2521284
0.1254085 -0.0253106 0.2520761
0.2459426 -0.0297709 0.2498315
0.3642472 -0.0386738 0.2457165
0.4820894 -0.0487488 0.2409430
0.6015444 -0.0563910 0.2369747
0.7243035 -0.0593484 0.2349910
0.8505479 -0.0574571 0.2352025
0.9789977 -0.0523722 0.2366090
0.0047306 0.1098463 0.2519809
0.1279891 0.1103450 0.2520035
0.2476271 0.1040167 0.2493483
0.3650355 0.0930012 0.2448192
0.4828615 0.0824957 0.2404002
0.6024112 0.0756053 0.2371006
0.7252780 0.0737245 0.2355731
0.8520181 0.0769240 0.2362732
0.9808849 0.0828262 0.2381041
0.0035973 0.2368033 0.2488937
0.1263028 0.2355923 0.2487316
0.2456406 0.2281548 0.2459807
0.3639717 0.2186308 0.2423967
0.4839720 0.2121337 0.2400893
0.6054141 0.2088859 0.2388768
0.7287969 0.2086717 0.2387252
0.8556841 0.2128833 0.2399277
0.9843896 0.2190172 0.2416037
-0.0015113 0.3552667 0.2425173
0.1209002 0.3525491 0.2422774
0.2413744 0.3473271 0.2406810
0.3625346 0.3432182 0.2395995
0.4851670 0.3415195 0.2397944
0.6092111 0.3427484 0.2409763
0.7345744 0.3459678 0.2431817
0.8614854 0.3506569 0.2453000
0.9895615 0.3564016 0.2465369
-0.0089523 0.4698475 0.2342918
0.1138376 0.4668021 0.2343066
0.2361852 0.4648930 0.2345572
0.3595682 0.4648675 0.2355900
0.4854029 0.4687269 0.2385040
0.6124070 0.4750046 0.2423317
0.7400995 0.4820242 0.2466060
0.8679410 0.4885250 0.2498647
0.9955356 0.4942286 0.2509185
-0.0165608 0.5856385 0.2262866
0.1058144 0.5810147 0.2256556
0.2298050 0.5810652 0.2272975
0.3558674 0.5857113 0.2307658
0.4847094 0.5947579 0.2362801
0.6143862 0.6052809 0.2422694
0.7443345 0.6160200 0.2480762
0.8732724 0.6246975 0.2519386
1.0005742 0.6306939 0.2529843
-0.0224155 0.7062715 0.2204888
0.0984567 0.6986176 0.2182614
0.2220927 0.6971214 0.2194564
0.3503247 0.7045270 0.2247119
0.4821341 0.7181059 0.2323074
0.6149174 0.7335168 0.2405657
0.7465321 0.7472496 0.2472688
0.8759596 0.7573917 0.2512801
1.0029758 0.7637252 0.2525651
-0.0256276 0.8329433 0.2180734
0.0944970 0.8239623 0.2148724
0.2173926 0.8204571 0.2147962
0.3457066 0.8265511 0.2196090
0.4794023 0.8422962 0.2281725
0.6140535 0.8605803 0.2376074
0.7462202 0.8754571 0.2447946
0.8754628 0.8860436 0.2490254
1.0023371 0.8928735 0.2507598
-0.0264073 0.9645515 0.2189102
0.0942135 0.9565618 0.2160805
0.2171783 0.9528325 0.2155433
0.3449896 0.9573785 0.2190999
0.4778331 0.9708476 0.2265507
0.6118530 0.9874999 0.2352143
0.7435423 1.0016299 0.2421634
0.8724787 1.0121004 0.2465357
0.9995586 1.0196308 0.2487007
-0.0041650 -0.0390084 0.3790817
0.1183345 -0.0415545 0.3786312
0.2383138 -0.0484809 0.3764797
0.3570637 -0.0572035 0.3731836
0.4767241 -0.0635890 0.3696068
0.5988603 -0.0654439 0.3665578
0.7237125 -0.0634424 0.3646973
0.8511062 -0.0582251 0.3643607
0.9800528 -0.0512314 0.3650397
-0.0010245 0.0988392 0.3785077
0.1214168 0.0964097 0.3778154
0.2406501 0.0880290 0.3751980
0.3587274 0.0775837 0.3718255
0.4786865 0.0713281 0.3689440
0.6015622 0.0710065 0.3667836
0.7263760 0.0734346 0.3652533
0.8537192 0.0789005 0.3651541
0.9826676 0.0858848 0.3661676
-0.0010371 0.2298267 0.3758084
0.1211475 0.2268719 0.3748655
0.2406220 0.2188316 0.3722574
0.3602865 0.2110585 0.3700142
0.4819205 0.2073111 0.3686731
0.6059592 0.2084560 0.3680179
0.7312304 0.2118952 0.3677241
0.8582778 0.2173282 0.3680980
0.9866043 0.2234903 0.3690554
-0.0045030 0.3536525 0.3706711
0.1177434 0.3507488 0.3699104
0.2389830 0.3463018 0.3685259
0.3613713 0.3434364 0.3680853
0.4850083 0.3428338 0.3682877
0.6104791 0.3457279 0.3692800
0.7370779 0.3506109 0.3708248
0.8641646 0.3558925 0.3723480
0.9917929 0.3612295 0.3733574
-0.0100652 0.4739033 0.3639219
0.1131890 0.4724183 0.3640103
0.2364589 0.4717260 0.3643549
0.3610883 0.4726503 0.3656568
0.4868122 0.4755764 0.3675462
0.6140401 0.4809005 0.3702232
0.7420611 0.4872951 0.3732860
0.8701513 0.4936364 0.3761369
0.9974870 0.4987126 0.3774621
-0.0154117 0.5955437 0.3573872
0.1080249 0.5937906 0.3574542
0.2331730 0.5958432 0.3597570
0.3592437 0.5992094 0.3628160
0.4864980 0.6040977 0.3664511
0.6156489 0.6121683 0.3707266
0.7456695 0.6215410 0.3752167
0.8748861 0.6295434 0.3788072
1.0021729 0.6348939 0.3799856
-0.0193717 0.7203191 0.3529651
0.1031682 0.7166771 0.3521383
0.2278400 0.7170717 0.3545589
0.3551375 0.7219403 0.3593341
0.4843711 0.7295005 0.3648561
0.6153999 0.7400009 0.3706114
0.7470653 0.7519615 0.3760506
0.8768994 0.7615121 0.3795400
1.0040596 0.7674013 0.3805274
-0.0221159 0.8475596 0.3515199
0.0997111 0.8425904 0.3500932
0.2232273 0.8404574 0.3514957
0.3501717 0.8435840 0.3563148
0.4814893 0.8536860 0.3631590
0.6143956 0.8667320 0.3700919
0.7461599 0.8790407 0.3756830
0.8756176 0.8889512 0.3788617
1.0027399 0.8956432 0.3798468
-0.0237528 0.9767753 0.3527184
0.0979594 0.9715064 0.3515364
0.2212171 0.9685805 0.3524483
0.3479318 0.9706065 0.3563017
0.4790570 0.9795088 0.3625879
0.6120524 0.9925774 0.3693348
0.7431639 1.0043768 0.3746323
0.8720619 1.0140204 0.3776850
0.9993304 1.0214706 0.3787878
-0.0109002 -0.0545463 0.5063903
0.1110413 -0.0602934 0.5063132
0.2313609 -0.0684777 0.5050787
0.3514647 -0.0755546 0.5029953
0.4736334 -0.0768258 0.5003430
0.5984673 -0.0724875 0.4975463
0.7252612 -0.0654533 0.4953212
0.8536134 -0.0569458 0.4940147
0.9827050 -0.0483745 0.4935497
-0.0076030 0.0847464 0.5053956
0.1146732 0.0800703 0.5049298
0.2347470 0.0717841 0.5032562
0.3543740 0.0635959 0.5013640
0.4768811 0.0625209 0.4994181
0.6022045 0.0674877 0.4972518
0.7289708 0.0744101 0.4952849
0.8572434 0.0827713 0.4941333
0.9860838 0.0907101 0.4939186
-0.0062340 0.2204968 0.5031249
0.1164850 0.2171748 0.5023862
0.2372776 0.2106274 0.5007124
0.3585148 0.2052838 0.4993694
0.4815169 0.2040924 0.4982452
0.6070203 0.2081353 0.4972072
0.7340219 0.2149135 0.4962204
0.8619743 0.2225348 0.4955131
0.9900910 0.2291597 0.4954782
-0.0074112 0.3514395 0.4996685
0.1156773 0.3490436 0.4991226
0.2382844 0.3459960 0.4981946
0.3614847 0.3442690 0.4975371
0.4859728 0.3451441 0.4972202
0.6119437 0.3486677 0.4972910
0.7391377 0.3541240 0.4976184
0.8667189 0.3601620 0.4978918
0.9942700 0.3657388 0.4982302
-0.0100019 0.4799664 0.4954591
0.1139268 0.4790583 0.4955216
0.2382736 0.4790273 0.4956977
0.3629206 0.4796366 0.4959984
0.4885958 0.4819149 0.4966709
0.6154941 0.4860141 0.4978128
0.7432164 0.4911912 0.4991739
0.8708775 0.4960461 0.5004014
0.9983575 0.5011269 0.5012761
-0.0124053 0.6089166 0.4913805
0.1119543 0.6087288 0.4918594
0.2370623 0.6095786 0.4932443
0.3622452 0.6103181 0.4949254
0.4885293 0.6128831 0.4967866
0.6163037 0.6178356 0.4988305
0.7452482 0.6242746 0.5009394
0.8742871 0.6309945 0.5029183
1.0017406 0.6360206 0.5039368
-0.0147046 0.7374043 0.4886819
0.1094422 0.7370702 0.4891246
0.2340776 0.7367053 0.4913498
0.3598374 0.7377073 0.4942707
0.4865537 0.7401114 0.4973633
0.6151365 0.7455981 0.5003063
0.7457152 0.7545114 0.5030428
0.8750223 0.7619561 0.5052498
1.0025351 0.7674927 0.5058939
-0.0174381 0.8643290 0.4880416
0.1059128 0.8626530 0.4886299
0.2295257 0.8605694 0.4909771
0.3547702 0.8600924 0.4946632
0.4828273 0.8640755 0.4986192
0.6131725 0.8720068 0.5021005
0.7434250 0.8802027 0.5052762
0.8726908 0.8882612 0.5070560
1.0005032 0.8949878 0.5071737
-0.0202178 0.9906847 0.4891734
0.1024443 0.9876704 0.4901010
0.2257150 0.9850042 0.4924502
0.3509067 0.9843761 0.4960986
0.4791144 0.9879289 0.5002642
0.6101372 0.9967001 0.5039485
0.7400556 1.0050309 0.5068618
0.8688728 1.0130284 0.5081207
0.9968464 1.0205437 0.5078997
-0.0172898 -0.0699853 0.6342000
0.1043448 -0.0786103 0.6350084
0.2257348 -0.0869066 0.6351565
0.3481753 -0.0906385 0.6341908
0.4731730 -0.0861589 0.6316515
0.6002986 -0.0762190 0.6281689
0.7285959 -0.0647934 0.6249549
0.8575087 -0.0537680 0.6225926
0.9864498 -0.0442134 0.6212006
-0.0142403 0.0697497 0.6329595
0.1077797 0.0622189 0.6334315
0.2294934 0.0549697 0.6333422
0.3520611 0.0519420 0.6323103
0.4772114 0.0564146 0.6300755
0.6042025 0.0654609 0.6269551
0.7326744 0.0768321 0.6238652
0.8617736 0.0878299 0.6215973
0.9904162 0.0964241 0.6204411
-0.0116789 0.2098556 0.6310120
0.1111732 0.2048554 0.6310490
0.2339738 0.2007051 0.6305634
0.3576680 0.2000681 0.6292847
0.4823833 0.2022744 0.6276865
0.6089565 0.2086313 0.6257204
0.7370722 0.2179893 0.6235128
0.8660271 0.2279013 0.6215315
0.9941612 0.2351769 0.6205844
-0.0100580 0.3489153 0.6290557
0.1137509 0.3467692 0.6288939
0.2378534 0.3455381 0.6281201
0.3621810 0.3452360 0.6270220
0.4873173 0.3469605 0.6258549
0.6135153 0.3509887 0.6247309
0.7411220 0.3572659 0.6237787
0.8690847 0.3640319 0.6227137
0.9968650 0.3702412 0.6219807
-0.0092418 0.4863992 0.6274894
0.1153350 0.4862346 0.6275822
0.2399304 0.4855997 0.6269044
0.3647198 0.4853564 0.6260385
0.4902062 0.4866388 0.6253291
0.6166547 0.4898064 0.6248337
0.7438637 0.4938743 0.6245486
0.8712114 0.4981260 0.6244033
0.9988525 0.5033715 0.6240148
-0.0094481 0.6210625 0.6262224
0.1149471 0.6207183 0.6271174
0.2399234 0.6205327 0.6268811
0.3647846 0.6198098 0.6266722
0.4901195 0.6198686 0.6265570
0.6166237 0.6219799 0.6265008
0.7446486 0.6268102 0.6262975
0.8726968 0.6315202 0.6262671
1.0002356 0.6360951 0.6264010
-0.0110557 0.7514394 0.6254311
0.1130941 0.7511935 0.6270182
0.2371030 0.7491174 0.6283141
0.3620055 0.7479910 0.6290093
0.4873037 0.7474211 0.6296157
0.6143282 0.7497742 0.6297440
0.7429648 0.7551599 0.6292987
0.8714822 0.7604579 0.6294987
0.9994608 0.7657818 0.6295047
-0.0140472 0.8777024 0.6255634
0.1094875 0.8766596 0.6278913
0.2327611 0.8739042 0.6305362
0.3566589 0.8709053 0.6328057
0.4824408 0.8709617 0.6340370
0.6105258 0.8747749 0.6340460
0.7390469 0.8794444 0.6339605
0.8680500 0.8857155 0.6336900
0.9966633 0.8924661 0.6328961
-0.0175652 1.0022245 0.6264984
0.1051254 0.9996291 0.6293750
0.2277916 0.9961809 0.6328080
0.3514705 0.9935041 0.6360718
0.4775397 0.9941672 0.6380988
0.6061935 0.9987388 0.6384964
0.7350021 1.0038971 0.6383323
0.8640214 1.0104593 0.6373472
0.9929638 1.0180957 0.6358026
-0.0219201 -0.0811689 0.7622157
0.0997659 -0.0911935 0.7637964
0.2223134 -0.0987578 0.7650258
0.3471299 -0.0990671 0.7647619
0.4746859 -0.0901837 0.7618767
0.6037020 -0.0761995 0.7572202
0.7330116 -0.0617972 0.7526701
0.8620658 -0.0493354 0.7493826
0.9906241 -0.0394087 0.7475685
-0.0191267 0.0586320 0.7610870
0.1026981 0.0491925 0.7624149
0.2255340 0.0425058 0.7635697
0.3507946 0.0434499 0.7631223
0.4788373 0.0533673 0.7597772
0.6078065 0.0665990 0.7549815
0.7374475 0.0811171 0.7501075
0.8666752 0.0933744 0.7467394
0.9948614 0.1020690 0.7452817
-0.0156493 0.2018720 0.7595486
0.1070872 0.1954533 0.7602692
0.2310447 0.1920043 0.7606192
0.3569379 0.1945442 0.7593910
0.4840171 0.2015324 0.7564428
0.6118577 0.2105535 0.7529444
0.7409937 0.2221388 0.7485936
0.8701451 0.2330789 0.7452100
0.9980778 0.2406572 0.7439712
-0.0118023 0.3470818 0.7586039
0.1123203 0.3449441 0.7588157
0.2373858 0.3445516 0.7580528
0.3629915 0.3457947 0.7561760
0.4888942 0.3486893 0.7537569
0.6157049 0.3538187 0.7510886
0.7434431 0.3605448 0.7484447
0.8714981 0.3678243 0.7458517
0.9994172 0.3746167 0.7444501
-0.0086345 0.4908498 0.7587546
0.1164098 0.4917042 0.7590874
0.2416064 0.4917563 0.7577995
0.3663792 0.4902873 0.7556395
0.4916355 0.4904673 0.7532847
0.6178706 0.4928777 0.7508794
0.7447425 0.4965848 0.7491254
0.8718178 0.5006549 0.7476661
0.9995233 0.5060597 0.7462511
-0.0076438 0.6289606 0.7596632
0.1170237 0.6297131 0.7610409
0.2415069 0.6283601 0.7603805
0.3660551 0.6260948 0.7581633
0.4909371 0.6247317 0.7557883
0.6166336 0.6250812 0.7537529
0.7436847 0.6281999 0.7515868
0.8711156 0.6318299 0.7496348
0.9987878 0.6363965 0.7487248
-0.0092351 0.7599812 0.7607652
0.1143093 0.7590670 0.7635692
0.2370089 0.7546841 0.7649016
0.3610754 0.7516465 0.7637433
0.4860273 0.7500128 0.7617722
0.6124636 0.7514464 0.7590324
0.7397274 0.7542247 0.7559755
0.8679467 0.7585718 0.7537078
0.9964356 0.7642412 0.7527432
-0.0125166 0.8859668 0.7618309
0.1102678 0.8839734 0.7657052
0.2323656 0.8795057 0.7688146
0.3551100 0.8749714 0.7699805
0.4799197 0.8731971 0.7687784
0.6066046 0.8745639 0.7657337
0.7343750 0.8775504 0.7624659
0.8635413 0.8831578 0.7596699
0.9928911 0.8901733 0.7578890
-0.0162269 1.0101263 0.7627183
0.1058902 1.0069349 0.7671134
0.2275232 1.0022152 0.7714188
0.3498604 0.9980879 0.7743908
0.4743797 0.9968362 0.7747400
0.6012112 0.9982595 0.7723249
0.7297186 1.0019380 0.7688890
0.8592913 1.0080102 0.7655012
0.9891789 1.0159866 0.7627910
-0.0240572 -0.0857989 0.8899301
0.0983027 -0.0948787 0.8917203
0.2219715 -0.1007393 0.8932118
0.3482666 -0.0990810 0.8931053
0.4772235 -0.0887998 0.8900799
0.6074532 -0.0733304 0.8846109
0.7374120 -0.0576390 0.8789748
0.8664139 -0.0446441 0.8750622
0.9945156 -0.0347704 0.8731859
-0.0212597 0.0542036 0.8891741
0.1011252 0.0454673 0.8907796
0.2249683 0.0401409 0.8921860
0.3516690 0.0426176 0.8918764
0.4811181 0.0536597 0.8881980
0.6120537 0.0701793 0.8813800
0.7424584 0.0863767 0.8745086
0.8712211 0.0985002 0.8704451
0.9987407 0.1068300 0.8692199
-0.0173287 0.1986814 0.8881534
0.1058433 0.1927209 0.8891380
0.2304281 0.1898007 0.8896237
0.3573306 0.1928928 0.8883723
0.4859982 0.2017107 0.8844533
0.6158604 0.2145422 0.8779856
0.7456279 0.2276651 0.8713520
0.8741161 0.2380018 0.8672041
1.0013674 0.2450302 0.8663179
-0.0126668 0.3459817 0.8878289
0.1118319 0.3442465 0.8881962
0.2372425 0.3440558 0.8873140
0.3637965 0.3464451 0.8846891
0.4909731 0.3508920 0.8805902
0.6183820 0.3569486 0.8760060
0.7462437 0.3643447 0.8715409
0.8741935 0.3718825 0.8672730
1.0016765 0.3783138 0.8659111
-0.0088014 0.4917623 0.8888192
0.1165705 0.4932170 0.8892795
0.2420629 0.4939052 0.8877726
0.3675876 0.4938606 0.8843544
0.4930306 0.4936381 0.8802236
0.6192089 0.4955292 0.8762150
0.7460516 0.4994316 0.8725933
0.8728543 0.5032136 0.8695169
1.0003204 0.5084974 0.8679732
-0.0074797 0.6312974 0.8908935
0.1174831 0.6330356 0.8925054
0.2419800 0.6323448 0.8919367
0.3663924 0.6299915 0.8888450
0.4907493 0.6269653 0.8846347
0.6164267 0.6267202 0.8803882
0.7429833 0.6288785 0.8761443
0.8700680 0.6321159 0.8729306
0.9979483 0.6371850 0.8715266
-0.0090165 0.7632447 0.8932595
0.1145921 0.7630190 0.8965540
0.2372602 0.7595248 0.8981781
0.3603277 0.7551939 0.8969944
0.4846021 0.7521337 0.8933099
0.6105755 0.7521205 0.8878987
0.7372547 0.7532943 0.8825113
0.8655369 0.7577115 0.8785004
0.9944855 0.7640200 0.8767352
-0.0122232 0.8900589 0.8951862
0.1102090 0.8879013 0.8997493
0.2316998 0.8830517 0.9033678
0.3536635 0.8779272 0.9045467
0.4775551 0.8751023 0.9023228
0.6034498 0.8749014 0.8969679
0.7312080 0.8770241 0.8906989
0.8605467 0.8822464 0.8858598
0.9904282 0.8896527 0.8832090
-0.0157520 1.0149388 0.8963093
0.1060483 1.0116099 0.9013406
0.2270421 1.0063269 0.9060272
0.3485286 1.0013393 0.9088314
0.4719410 0.9986466 0.9083160
0.5978631 0.9985247 0.9041706
0.7263207 1.0014943 0.8982057
0.8562545 1.0074294 0.8930211
0.9867678 1.0158286 0.8894717
-0.0242275 -0.0849611 1.0170414
0.0992374 -0.0915230 1.0184591
0.2239970 -0.0950082 1.0194715
0.3510108 -0.0923730 1.0190355
0.4803218 -0.0826615 1.0160426
0.6107891 -0.0681988 1.0107047
0.7408789 -0.0531214 1.0049833
0.8697543 -0.0404897 1.0009578
0.9975033 -0.0309935 0.9991464
-0.0213702 0.0551076 1.0166613
0.1021823 0.0489496 1.0179042
0.2270714 0.0457981 1.0187415
0.3544203 0.0489355 1.0179484
0.4843085 0.0593882 1.0140679
0.6155418 0.0749571 1.0070033
0.7460066 0.0905343 0.9995460
0.8744645 0.1022179 0.9951379
1.0015414 0.1102099 0.9941613
-0.0175397 0.1991097 1.0161390
0.1065701 0.1950212 1.0168555
0.2318422 0.1933643 1.0168696
0.3591822 0.1966426 1.0151698
0.4886234 0.2055824 1.0106423
0.6193049 0.2188228 1.0029381
0.7493399 0.2322064 0.9947084
0.8771457 0.2416732 0.9903259
1.0037445 0.2480614 0.9900414
-0.0132558 0.3453438 1.0162254
0.1117712 0.3444370 1.0163996
0.2375294 0.3447707 1.0152346
0.3644650 0.3475292 1.0122150
0.4925222 0.3530151 1.0072676
0.6209723 0.3603633 1.0007688
0.7492199 0.3683888 0.9940207
0.8766711 0.3754609 0.9893815
1.0034807 0.3811992 0.9888803
-0.0098506 0.4900890 1.0175257
0.1157127 0.4916561 1.0177898
0.2414289 0.4928990 1.0161512
0.3674156 0.4940294 1.0124054
0.4937504 0.4955155 1.0073114
0.6204222 0.4980109 1.0016054
0.7471783 0.5013988 0.9962027
0.8740013 0.5054938 0.9921942
1.0012964 0.5109448 0.9911744
-0.0086781 0.6295738 1.0199871
0.1164013 0.6314096 1.0212953
0.2410885 0.6315532 1.0206646
0.3656842 0.6303115 1.0176082
0.4906541 0.6288336 1.0127424
0.6164054 0.6285596 1.0069444
0.7427598 0.6299236 1.0013905
0.8699543 0.6333868 0.9973671
0.9980223 0.6390289 0.9958628
-0.0099253 0.7626750 1.0228956
0.1139154 0.7629315 1.0257386
0.2369671 0.7607473 1.0271117
0.3600299 0.7572603 1.0259589
0.4841345 0.7544702 1.0219281
0.6097024 0.7534866 1.0156719
0.7365635 0.7546859 1.0091687
0.8648888 0.7590976 1.0043726
0.9940000 0.7656821 1.0021738
-0.0126447 0.8911058 1.0253796
0.1100332 0.8895247 1.0294497
0.2317706 0.8855049 1.0326110
0.3536712 0.8807697 1.0334647
0.4770534 0.8774595 1.0309266
0.6026507 0.8766603 1.0250778
0.7304487 0.8787747 1.0180119
0.8597491 0.8839598 1.0124993
0.9897858 0.8915811 1.0094057
-0.0157393 1.0173333 1.0268771
0.1063394 1.0146410 1.0314747
0.2275504 1.0099180 1.0355197
0.3489961 1.0049373 1.0376491
0.4720637 1.0016248 1.0365220
0.5976796 1.0010776 1.0319251
0.7258563 1.0038375 1.0255982
0.8556949 1.0098079 1.0200358
0.9863214 1.0183932 1.0162432
